%
:0050 (0050)
G00 G40
M98 P8080
(MATERIAL    = AL99 * 0.8 MM)
(SHEET PLATE = X=180 * Y=115)
(ETIME = 43.68)
(RELEASE DATE 20-09-2021)
(MACHINE: AXEL3015 SL)
(PSTLVD02.CFD)
(RADCORR Q1-0.150)
#521=4 (SHEET METHOD REFERENCE)
#515=180 (X-LENGTH MEAS)
#708=180 (X LENGTH SHEET)
#709=115 (Y LENGTH SHEET)
#710=0.8 (THICKNESS)
#512=1.0 (UNITS = MM)
#128=0 (ENGRAVING)
#129=0 (PLASTIC FILM CUTTING)
#514=20 (Z-HEIGHT DISPLACEMENT)
#633=5 (FAST Z-HEIGHT)
#516=0 (SEPARATED PIERCING)
#517=0 (MEASURE Z-POS.)
#526=70 (MAX. G0-DIST. Z-DOWN )
N50  M00 (NO TECHNOLOGY)
M98 P8010
G920 X0 Y0 A#708 B#709 R0
N100 GOTO[#530+100]
N101 G980 S51 X0 Y0 R0 D0 T1
M98 P8047
IF[#129EQ-1]GOTO50
M98 P8048
IF[#516EQ-1]GOTO100
N9100 M98 P8050
N9999 M30
:0051 ( CUT PIEZA_PRUEBA_MAXWELL_2 )
(ETIME = 22.42)
#513=20 (Z-HEIGHT DISPLACEMENT)
M98 P8060
GOTO[#529*10]
N10 G0 G40 X25.246 Y29.994
M98 P8038
IF[#516GT0]GOTO19
G41
G1 X25.492 Y34.988 E001
G3 X24.508 Y15.012 I-0.492 J-9.988
X25.492 Y34.988 I0.492 J9.988
N19 G65 P8041 H#513 M0 D51.079
N20 G0 G40 X28.007 Y86.005
M98 P8038
IF[#516GT0]GOTO29
G41
G1 X31.014 Y82.01 E001
G3 X18.986 Y97.99 I-6.014 J7.99
X31.014 Y82.01 I6.014 J-7.99
N29 G65 P8041 H#513 M0 D36.252
N30 G0 G40 X52.815 Y53.046
M98 P8038
IF[#516GT0]GOTO39
G41
G1 X54.148 Y48.227 E001
G3 X80.291 Y22.085 I36.143 J10
G1 Y12.085
X100.291
Y22.085
G3 X126.433 Y48.227 I-10 J36.142
G1 X155.291
G3 Y68.227 I0 J10
G1 X126.433
G3 X100.291 Y94.369 I-36.142 J-10
G1 Y104.369
X80.291
Y94.369
G3 X54.148 Y68.227 I10 J-36.142
G1 X25.291
G3 Y48.227 I0 J-10
G1 X54.148
N39 G65 P8041 H#513 M0 D107.347
N40 G0 G40 X155 Y85
M98 P8038
IF[#516GT0]GOTO49
G41
G1 Y80 E001
G3 Y100 I0 J10
Y80 I0 J-10
N49 G65 P8041 H#513 M0 D60
N50 G0 G40 X155 Y20
M98 P8038
IF[#516GT0]GOTO59
G41
G1 Y15 E001
G3 Y35 I0 J10
Y15 I0 J-10
N59 G65 P8041 H#513 M0 D15.15
N60 IF[#516GT0]GOTO69
G481
G0 G40 X175.187 Y10
G13P#192
G14
M100
#518=#5023
#527=#518
IF[#129GT0]THEN#527=#527+#123
G0 Z#527
G0 G40 X155 Y-5
E001
G32L1
#574=3
G1 Y-0.15 E001
G3 X180.15 Y25 I0 J25.15
G1 X185
N69 G65 P8041 H#513 M0 D65.181
N70 IF[#516GT0]GOTO79
G481
G0 G40 X170 Y110.187
G13P#192
G14
M100
#518=#5023
#527=#518
IF[#129GT0]THEN#527=#527+#123
G0 Z#527
G0 G40 X185 Y90
E001
G32L1
#574=3
G1 X180.15 E001
G3 X155 Y115.15 I-25.15 J0
G1 Y120
N79 G65 P8041 H#513 M0 D130.09
N80 IF[#516GT0]GOTO89
G481
G0 G40 X4.813 Y105
G13P#192
G14
M100
#518=#5023
#527=#518
IF[#129GT0]THEN#527=#527+#123
G0 Z#527
G0 G40 X25 Y120
E001
G32L1
#574=3
G1 Y115.15 E001
G3 X-0.15 Y90 I0 J-25.15
G1 X-5
N89 G65 P8041 H#513 M0 D65.181
N90 IF[#516GT0]GOTO99
G481
G0 G40 X10 Y4.813
G13P#192
G14
M100
#518=#5023
#527=#518
IF[#129GT0]THEN#527=#527+#123
G0 Z#527
G0 G40 X-5 Y25
E001
G32L1
#574=3
G1 X-0.15 E001
G3 X25 Y-0.15 I25.15 J0
G1 Y-5
N99 G65 P8041 H#513 M0 D0
N100
M98 P8045
N9999 M99
%
