%
:0100 (0100)
G00 G40
M98 P8080
(MATERIAL    = AL99 * 0.8 MM)
(SHEET PLATE = X=225.262 * Y=86.989)
(ETIME = 31.87)
(RELEASE DATE 20-09-2021)
(MACHINE: AXEL3015 SL)
(PSTLVD02.CFD)
(RADCORR Q1-0.150)
#521=4 (SHEET METHOD REFERENCE)
#515=225.262 (X-LENGTH MEAS)
#708=225.262 (X LENGTH SHEET)
#709=86.989 (Y LENGTH SHEET)
#710=0.8 (THICKNESS)
#512=1.0 (UNITS = MM)
#128=0 (ENGRAVING)
#129=0 (PLASTIC FILM CUTTING)
#514=20 (Z-HEIGHT DISPLACEMENT)
#633=5 (FAST Z-HEIGHT)
#516=0 (SEPARATED PIERCING)
#517=0 (MEASURE Z-POS.)
#526=70 (MAX. G0-DIST. Z-DOWN )
N50  M00 (NO TECHNOLOGY)
M98 P8010
G920 X0 Y0 A#708 B#709 R0
N100 GOTO[#530+100]
N101 G980 S101 X0 Y0 R0 D0 T1
M98 P8047
IF[#129EQ-1]GOTO50
M98 P8048
IF[#516EQ-1]GOTO100
N9100 M98 P8050
N9999 M30
:0101 ( CUT DXFPART7 )
(ETIME = 10.54)
#513=20 (Z-HEIGHT DISPLACEMENT)
M98 P8060
GOTO[#529*10]
N10 IF[#516GT0]GOTO19
G481
G0 G40 X11.022 Y76.989
G13P#192
G14
M100
#518=#5023
#527=#518
IF[#129GT0]THEN#527=#527+#123
G0 Z#527
G0 G40 X11.022 Y91.989
E001
G32L1
#574=3
G1 Y86.989 E001
Y83.139
X32.722
Y86.989
Y91.989
N19 G65 P8041 H#513 M0 D13.155
N20 IF[#516GT0]GOTO29
G481
G0 G40 X63.712 Y76.989
G13P#192
G14
M100
#518=#5023
#527=#518
IF[#129GT0]THEN#527=#527+#123
G0 Z#527
G0 G40 X44.943 Y91.989
E001
G32L1
#574=3
G1 Y87.121 E001
X63.712 Y76.989
IF[#129GT0]GOTO25
G13
N25 X86.064 Y64.924
G3 X132.049 Y58.941 I30.808 J57.065
G1 X149.808 Y77.139
X160.534
X162.004 Y65.139
X171.739
X173.209 Y77.139
X184.744
X185.034 Y71.527
G3 X200.129 Y65.732 I8.838 J0.462
G1 X209.022 Y74.622
Y66.139
X215.262
G14
X225.262
G2 X215.262 Y49.968 I-108.39 J55.851
IF[#129GT0]GOTO26
G13
N26 X146.818 Y3.567 I-98.39 J72.022
G3 X114.972 Y0 I-15.946 J-1.578
X115.145 Y0.019 I15.9 J1.989
G2 X46.427 Y22.199 I1.727 J121.971
G3 X34.27 Y32.237 I-5.555 J5.79
G2 X3.498 Y76.989 I82.602 J89.753
G14
X-0.144 Y86.946 I113.374 J45.001
G1 X-5
N29 G65 P8041 H#513 M0 D0
N30
M98 P8045
N9999 M99
%
