%
:0200 (0200)
G00 G40
M98 P8080
(MATERIAL    = AL99 * 0.8 MM)
(SHEET PLATE = X=203.333 * Y=175.257)
(ETIME = 48.48)
(RELEASE DATE 20-09-2021)
(MACHINE: AXEL3015 SL)
(PSTLVD02.CFD)
(RADCORR Q1-0.150)
#521=4 (SHEET METHOD REFERENCE)
#515=203.333 (X-LENGTH MEAS)
#708=203.333 (X LENGTH SHEET)
#709=175.257 (Y LENGTH SHEET)
#710=0.8 (THICKNESS)
#512=1.0 (UNITS = MM)
#128=0 (ENGRAVING)
#129=0 (PLASTIC FILM CUTTING)
#514=20 (Z-HEIGHT DISPLACEMENT)
#633=5 (FAST Z-HEIGHT)
#516=0 (SEPARATED PIERCING)
#517=0 (MEASURE Z-POS.)
#526=70 (MAX. G0-DIST. Z-DOWN )
N50  M00 (NO TECHNOLOGY)
M98 P8010
G920 X0 Y0 A#708 B#709 R0
N100 GOTO[#530+100]
N101 G980 S201 X0 Y0 R0 D0 T1
M98 P8047
IF[#129EQ-1]GOTO50
M98 P8048
IF[#516EQ-1]GOTO100
N9100 M98 P8050
N9999 M30
:0201 ( CUT DXFPAR0105 )
(ETIME = 27.16)
#513=20 (Z-HEIGHT DISPLACEMENT)
M98 P8060
GOTO[#529*10]
N10 G0 G40 X66.099 Y65.032
M98 P8038
IF[#516GT0]GOTO19
G41
G1 X69.978 Y68.187 E001
G3 X62.962 Y69.479 I-4.266 J-3.471
X18.49 Y25.007 I60.75 J-105.222
X28.016 Y19.507 I4.763 J-2.75
G2 X68.462 Y59.953 I95.696 J-55.25
G3 X69.978 Y68.187 I-2.75 J4.763
N19 G65 P8041 H#513 M0 D56.373
N20 G0 G40 X113.712 Y103.757
M98 P8038
IF[#516GT0]GOTO29
G41
G1 X118.212 E002
G3 X109.212 I-4.5 J0
X118.212 I4.5 J0
N29 G65 P8041 H#513 M0 D15.5
N30 G0 G40 X133.712 Y103.757
M98 P8038
IF[#516GT0]GOTO39
G41
G1 Y108.257 E002
G3 Y99.257 I0 J-4.5
Y108.257 I0 J4.5
N39 G65 P8041 H#513 M0 D16.5
N40 G0 G40 X133.712 Y124.757
M98 P8038
IF[#516GT0]GOTO49
G41
G1 X129.212 E002
G3 X138.212 I4.5 J0
X129.212 I-4.5 J0
N49 G65 P8041 H#513 M0 D15.5
N50 G0 G40 X113.712 Y124.757
M98 P8038
IF[#516GT0]GOTO59
G41
G1 Y129.257 E002
G3 Y120.257 I0 J-4.5
Y129.257 I0 J4.5
N59 G65 P8041 H#513 M0 D31
N60 G0 G40 X113.712 Y160.257
M98 P8038
IF[#516GT0]GOTO69
G41
G1 X118.212 E002
G3 X109.212 I-4.5 J0
X118.212 I4.5 J0
N69 G65 P8041 H#513 M0 D15.5
N70 G0 G40 X133.712 Y160.257
M98 P8038
IF[#516GT0]GOTO79
G41
G1 X133.145 Y155.793 E002
G3 X134.278 Y164.721 I0.567 J4.464
X133.145 Y155.793 I-0.566 J-4.464
N79 G65 P8041 H#513 M0 D75.646
N80 G0 G40 X123.624 Y80.749
M98 P8038
IF[#516GT0]GOTO89
G41
G1 X122.743 Y85.671 E001
G3 X123.712 Y74.757 I0.969 J-5.414
G2 X178.962 Y59.953 I0 J-110.5
G3 X184.462 Y69.479 I2.75 J4.763
X123.712 Y85.757 I-60.75 J-105.222
X122.743 Y85.671 I0 J-5.5
N89 G65 P8041 H#513 M0 D91.157
N90 IF[#516GT0]GOTO99
G481
G0 G40 X106.712 Y165.257
G13P#192
G14
M100
#518=#5023
#527=#518
IF[#129GT0]THEN#527=#527+#123
G0 Z#527
G0 G40 X106.712 Y180.257
E001
G32L1
#574=3
G1 Y175.407 E001
G3 X103.562 Y172.257 I0 J-3.15
G1 Y165.257
IF[#129GT0]GOTO95
G13
N95 Y115.042
G2 X88.801 Y95.856 I-19.85 J0
G3 X0.141 Y21.416 I34.911 J-131.599
X0 Y21.054 I2.859 J-1.322
Y19.134 I3 J-0.96
X1.425 Y17.366 I3 J0.96
G1 X31.032 Y0.272
G3 X31.646 Y0 I1.575 J2.728
X33.568 I0.961 J3
X35.506 Y1.767 I-0.961 J3
G2 X181.345 Y40.845 I88.206 J-37.51
G3 X185.967 Y41.787 I1.894 J2.517
G1 X203.061 Y71.394
G3 X203.333 Y72.007 I-2.728 J1.575
Y73.931 I-3 J0.962
X202.147 Y75.544 I-3 J-0.962
X158.622 Y95.856 I-78.435 J-111.287
G2 X143.862 Y115.042 I5.09 J19.186
G1 Y172.257
G14
G3 X140.712 Y175.407 I-3.15 J0
G1 Y180.257
N99 G65 P8041 H#513 M0 D0
N100
M98 P8045
N9999 M99
%
