N10 EXTERN MACHINE_ON (INT)
N11 EXTERN MACHINE_OFF (INT)
N12 EXTERN LASER_ON (INT)
N13 EXTERN LASER_OFF (INT)
N14 EXTERN LASER_STARTP (INT)
N15 EXTERN ORIGEM (INT,INT)
N16 EXTERN TRANSF (INT,INT)
N17 ; CHAPA : 102X102X0.8 MATERIAL : Al99
N18 ; ORDEM : (Smartdeploy -> JOB000003)
N19 INIT_VAR
N20 MS0600_05_N
N21 MACHINE_ON(0)
N22 ;ORIGEM(102,102)
N23 ;TRANSF (PX,PY)
N24 G53G00Z95
N25 ;GOTOF "PZ"<<PZ
N26 PZ1:PZ="1";PECA=Pieza_prueba_Maxwell SUB_1 pz1
N27 TRANS X=1 Y=1
N28 REPEAT SUB_1 END
N29 END_VAR
N30 G53G00Z95
N31 MACHINE_OFF(0)
N32 M30

N1000 ;PECA=Pieza_prueba_Maxwell
N1001 SUB_1:
N1002 SUB1_1:SUB="1_1"; (Pieza_prueba_Maxwell) pz1 Cont=1
N1003 G00Z40
N1004 G00X72Y50.062F280000
N1005 LASER_STARTP(1)
N1006 LASER_ON(6)
N1007 G01X74.938
N1008 LASER_ON(1)
N1009 G03X25.062Y50I-24.938J-0.062
N1010 X74.938I24.938J0
N1011 LASER_OFF(0)
N1012 SUB1_2:SUB="1_2"; (Pieza_prueba_Maxwell) pz1 Cont=2
N1013 G00Z40
N1014 G01X32.322Y67.678F280000
N1015 LASER_STARTP(1)
N1016 LASER_ON(6)
N1017 G01X32.251Y67.749
N1018 LASER_ON(1)
N1019 G01X0Y100
N1020 LASER_OFF(0)
N1021 SUB1_3:SUB="1_3"; (Pieza_prueba_Maxwell) pz1 Cont=3
N1022 G00Z40
N1023 G01X101.046Y89.938F280000
N1024 LASER_STARTP(1)
N1025 LASER_ON(6)
N1026 G01X100.062
N1027 LASER_ON(1)
N1028 G01Y-0.062
N1029 X10
N1030 G02X-0.062Y10I0J10.062
N1031 G01Y100.062
N1032 X90
N1033 G02X100.062Y90I0J-10.062
N1034 LASER_OFF(0)
N1035 END:
