N10 EXTERN MACHINE_ON (INT)
N11 EXTERN MACHINE_OFF (INT)
N12 EXTERN LASER_ON (INT)
N13 EXTERN LASER_OFF (INT)
N14 EXTERN LASER_STARTP (INT)
N15 EXTERN ORIGEM (INT,INT)
N16 EXTERN TRANSF (INT,INT)
N17 ; CHAPA : 182X117X0.8 MATERIAL : Al99
N18 ; ORDEM : (Smartdeploy -> JOB000003)
N19 INIT_VAR
N20 MS0600_05_N
N21 MACHINE_ON(0)
N22 ;ORIGEM(182,117)
N23 ;TRANSF (PX,PY)
N24 G53G00Z95
N25 ;GOTOF "PZ"<<PZ
N26 PZ1:PZ="1";PECA=Pieza_prueba_Maxwell_2 SUB_1 pz1
N27 TRANS X=1 Y=1
N28 REPEAT SUB_1 END
N29 END_VAR
N30 G53G00Z95
N31 MACHINE_OFF(0)
N32 M30

N1000 ;PECA=Pieza_prueba_Maxwell_2
N1001 SUB_1:
N1002 SUB1_1:SUB="1_1"; (Pieza_prueba_Maxwell_2) pz1 Cont=1
N1003 G00Z40
N1004 ; START FLYING CUT MACRO
N1005 G00X25.291Y48.289F280000
N1006 LASER_STARTP(1)
N1007 LASER_ON(6)
N1008 G01X25.391
N1009 LASER_ON(1)
N1010 G01X54.196
N1011 LASER_OFF(0)
N1012 SUB1_2:SUB="1_2"; (Pieza_prueba_Maxwell_2) pz1 Cont=2
N1013 G00Z40
N1014 G01X126.385Y48.289F280000
N1015 LASER_STARTP(1)
N1016 LASER_ON(6)
N1017 G01X126.485
N1018 LASER_ON(1)
N1019 G01X155.291
N1020 LASER_OFF(0)
N1021 SUB1_3:SUB="1_3"; (Pieza_prueba_Maxwell_2) pz1 Cont=3
N1022 G00Z40
N1023 ; END FLYING CUT MACRO
N1024 ; START FLYING CUT MACRO
N1025 G01X155.291Y68.165F280000
N1026 LASER_STARTP(1)
N1027 LASER_ON(6)
N1028 G01X155.191
N1029 LASER_ON(1)
N1030 G01X126.385
N1031 LASER_OFF(0)
N1032 SUB1_4:SUB="1_4"; (Pieza_prueba_Maxwell_2) pz1 Cont=4
N1033 G00Z40
N1034 G01X54.196Y68.165F280000
N1035 LASER_STARTP(1)
N1036 LASER_ON(6)
N1037 G01X54.096
N1038 LASER_ON(1)
N1039 G01X25.291
N1040 ; END FLYING CUT MACRO
N1041 ; START FLYING CUT MACRO
N1042 LASER_ON(1)
N1043 G03X25.191I0J-9.938
N1044 X25.291Y48.289I0.1J-9.937
N1045 LASER_OFF(0)
N1046 SUB1_5:SUB="1_5"; (Pieza_prueba_Maxwell_2) pz1 Cont=5
N1047 G00Z40
N1048 ; END FLYING CUT MACRO
N1049 ; START FLYING CUT MACRO
N1050 G01X54.196Y48.289F280000
N1051 LASER_STARTP(1)
N1052 LASER_ON(6)
N1053 G03X54.223Y48.193I36.095J9.938
N1054 LASER_ON(1)
N1055 G03X80.353Y22.132I36.068J10.034
N1056 LASER_OFF(0)
N1057 SUB1_6:SUB="1_6"; (Pieza_prueba_Maxwell_2) pz1 Cont=6
N1058 G00Z40
N1059 G01X100.229Y22.132F280000
N1060 LASER_STARTP(1)
N1061 LASER_ON(6)
N1062 G03X100.325Y22.159I-9.938J36.095
N1063 LASER_ON(1)
N1064 G03X126.385Y48.289I-10.034J36.068
N1065 LASER_OFF(0)
N1066 SUB1_7:SUB="1_7"; (Pieza_prueba_Maxwell_2) pz1 Cont=7
N1067 G00Z40
N1068 G01X126.385Y68.165F280000
N1069 LASER_STARTP(1)
N1070 LASER_ON(6)
N1071 G03X126.358Y68.261I-36.094J-9.938
N1072 LASER_ON(1)
N1073 G03X100.229Y94.322I-36.067J-10.034
N1074 LASER_OFF(0)
N1075 SUB1_8:SUB="1_8"; (Pieza_prueba_Maxwell_2) pz1 Cont=8
N1076 G00Z40
N1077 G01X80.353Y94.322F280000
N1078 LASER_STARTP(1)
N1079 LASER_ON(6)
N1080 G03X80.257Y94.295I9.938J-36.095
N1081 LASER_ON(1)
N1082 G03X54.196Y68.165I10.034J-36.068
N1083 LASER_OFF(0)
N1084 SUB1_9:SUB="1_9"; (Pieza_prueba_Maxwell_2) pz1 Cont=9
N1085 G00Z40
N1086 ; END FLYING CUT MACRO
N1087 ; START FLYING CUT MACRO
N1088 G01X155.291Y68.165F280000
N1089 LASER_STARTP(1)
N1090 LASER_ON(6)
N1091 G02X155.391I0J-9.938
N1092 LASER_ON(1)
N1093 G02X155.291Y48.289I-0.1J-9.937
N1094 LASER_OFF(0)
N1095 SUB1_10:SUB="1_10"; (Pieza_prueba_Maxwell_2) pz1 Cont=10
N1096 G00Z40
N1097 ; END FLYING CUT MACRO
N1098 ; START FLYING CUT MACRO
N1099 G01X100.229Y12.147F280000
N1100 LASER_STARTP(1)
N1101 LASER_ON(6)
N1102 G01Y12.247
N1103 LASER_ON(1)
N1104 G01Y22.132
N1105 LASER_OFF(0)
N1106 SUB1_11:SUB="1_11"; (Pieza_prueba_Maxwell_2) pz1 Cont=11
N1107 G00Z40
N1108 G01X100.229Y94.322F280000
N1109 LASER_STARTP(1)
N1110 LASER_ON(6)
N1111 G01Y94.422
N1112 LASER_ON(1)
N1113 G01Y104.307
N1114 LASER_OFF(0)
N1115 SUB1_12:SUB="1_12"; (Pieza_prueba_Maxwell_2) pz1 Cont=12
N1116 G00Z40
N1117 ; END FLYING CUT MACRO
N1118 ; START FLYING CUT MACRO
N1119 G01X80.353Y104.307F280000
N1120 LASER_STARTP(1)
N1121 LASER_ON(6)
N1122 G01Y104.207
N1123 LASER_ON(1)
N1124 G01Y94.322
N1125 LASER_OFF(0)
N1126 SUB1_13:SUB="1_13"; (Pieza_prueba_Maxwell_2) pz1 Cont=13
N1127 G00Z40
N1128 G01X80.353Y22.132F280000
N1129 LASER_STARTP(1)
N1130 LASER_ON(6)
N1131 G01Y22.032
N1132 LASER_ON(1)
N1133 G01Y12.147
N1134 ; END FLYING CUT MACRO
N1135 ; START FLYING CUT MACRO
N1136 LASER_ON(1)
N1137 G01X80.453
N1138 X100.229
N1139 LASER_OFF(0)
N1140 SUB1_14:SUB="1_14"; (Pieza_prueba_Maxwell_2) pz1 Cont=14
N1141 G00Z40
N1142 ; END FLYING CUT MACRO
N1143 ; START FLYING CUT MACRO
N1144 G01X100.229Y104.307F280000
N1145 LASER_STARTP(1)
N1146 LASER_ON(6)
N1147 G01X100.129
N1148 LASER_ON(1)
N1149 G01X80.353
N1150 LASER_OFF(0)
N1151 SUB1_15:SUB="1_15"; (Pieza_prueba_Maxwell_2) pz1 Cont=15
N1152 G00Z40
N1153 ; END FLYING CUT MACRO
N1154 G01X162Y25.062F280000
N1155 LASER_STARTP(1)
N1156 LASER_ON(6)
N1157 G01X164.938
N1158 LASER_ON(1)
N1159 G03X145.062Y25I-9.938J-0.062
N1160 X164.938I9.938J0
N1161 LASER_OFF(0)
N1162 SUB1_16:SUB="1_16"; (Pieza_prueba_Maxwell_2) pz1 Cont=16
N1163 G00Z40
N1164 G01X32Y25.062F280000
N1165 LASER_STARTP(1)
N1166 LASER_ON(6)
N1167 G01X34.938
N1168 LASER_ON(1)
N1169 G03X15.062Y25I-9.938J-0.062
N1170 X34.938I9.938J0
N1171 LASER_OFF(0)
N1172 SUB1_17:SUB="1_17"; (Pieza_prueba_Maxwell_2) pz1 Cont=17
N1173 G00Z40
N1174 G01X32Y90.062F280000
N1175 LASER_STARTP(1)
N1176 LASER_ON(6)
N1177 G01X34.938
N1178 LASER_ON(1)
N1179 G03X15.062Y90I-9.938J-0.062
N1180 X34.938I9.938J0
N1181 LASER_OFF(0)
N1182 SUB1_18:SUB="1_18"; (Pieza_prueba_Maxwell_2) pz1 Cont=18
N1183 G00Z40
N1184 G01X162Y90.062F280000
N1185 LASER_STARTP(1)
N1186 LASER_ON(6)
N1187 G01X164.938
N1188 LASER_ON(1)
N1189 G03X145.062Y90I-9.938J-0.062
N1190 X164.938I9.938J0
N1191 LASER_OFF(0)
N1192 SUB1_19:SUB="1_19"; (Pieza_prueba_Maxwell_2) pz1 Cont=19
N1193 G00Z40
N1194 G01X5.245Y5.157F280000
N1195 LASER_STARTP(1)
N1196 LASER_ON(6)
N1197 G01X7.322Y7.235
N1198 LASER_ON(1)
N1199 G03X25Y-0.062I17.678J17.765
N1200 G01X155
N1201 G03X180.062Y25I0J25.062
N1202 G01Y90
N1203 G03X155Y115.062I-25.062J0
N1204 G01X25
N1205 G03X-0.062Y90I0J-25.062
N1206 G01Y25
N1207 G03X7.278Y7.278I25.062J0
N1208 LASER_OFF(0)
N1209 END:
