(PLAN FILE= C:/Lantek/Expert/CNC/1231.TXT)
(MACHINE= Laser)
(MATERIAL= Al99)
(THICKNESS= 0.8)
(T31)
(PP_NAME= 0053)
(PP_VERSION= 12:29:40)
(PP_INI_NAME= 1231.TXT)
(PP_INI_VERSION= 06/22/22)
G71
G91
M190
G162
G237
#CS ON [V.E.START_X,V.E.START_Y,0,0,0,V.E.ROTATION]
G00 X46.41 Y-111.41
T31
#FLUSH WAIT
G41 D31
N1
M07
G01 X5.66 Y-5.66
G03 X-14.14 Y14.14 I-7.07 J7.07
G03 X14.14 Y-14.14 I7.07 J-7.07
M08
M112 H0
G40 D31
G00 X-5.66 Y70.66
#FLUSH WAIT
G41 D31
N2
M07
G01 X5.66 Y-5.66
G03 X-14.14 Y14.14 I-7.07 J7.07
G03 X14.14 Y-14.14 I7.07 J-7.07
M08
M112 H0
G40 D31
G00 X29.06 Y-29.65
#FLUSH WAIT
G41 D31
N3
M07
G01 X-6.05 Y-7.96
G03 X25.21 Y-23.24 I35.21 J12.90
G01 X0.00 Y-10.00
G01 X20.00 Y0.00
G01 X0.00 Y6.86
M08
M112 H0
G40 D31
G00 X-5.05 Y10.13
#FLUSH WAIT
G41 D31
N4
M07
G01 X7.96 Y-6.06
G03 X23.24 Y25.21 I-12.90 J35.21
G01 X28.86 Y0.00
G03 X0.00 Y20.00 I0.00 J10.00
G01 X-25.72 Y0.00
M08
M112 H0
G40 D31
G00 X-10.13 Y-5.06
#FLUSH WAIT
G41 D31
N5
M07
G01 X6.06 Y7.96
G03 X-25.21 Y23.24 I-35.21 J-12.90
G01 X0.00 Y10.00
G01 X-20.00 Y0.00
G01 X0.00 Y-6.86
M08
M112 H0
G40 D31
G00 X5.05 Y-10.13
#FLUSH WAIT
G41 D31
N6
M07
G01 X-7.96 Y6.06
G03 X-23.24 Y-25.21 I12.90 J-35.21
G01 X-28.86 Y0.00
G03 X0.00 Y-20.00 I0.00 J-10.00
G01 X25.72 Y0.00
M08
M112 H0
G40 D31
G00 X105.41 Y-24.64
#FLUSH WAIT
G41 D31
N7
M07
G01 X5.66 Y-5.66
G03 X-14.14 Y14.14 I-7.07 J7.07
G03 X14.14 Y-14.14 I7.07 J-7.07
M08
M112 H0
G40 D31
G00 X-5.66 Y70.66
#FLUSH WAIT
G41 D31
N8
M07
G01 X5.66 Y-5.66
G03 X-14.14 Y14.14 I-7.07 J7.07
G03 X14.14 Y-14.14 I7.07 J-7.07
M08
M112 H0
G40 D31
G00 X-4.57 Y41.95
#FLUSH WAIT
G41 D31
N9
M07
G01 X0.00 Y-10.00
G02 X22.50 Y-24.87 I-2.50 J-24.87
G01 X0.00 Y-62.50
M08
M112 H0
G40 D31
G00 X9.87 Y-5.00
#FLUSH WAIT
G41 D31
N10
M07
G01 X-10.00 Y0.00
G02 X-24.87 Y-22.50 I-24.87 J2.50
G01 X-127.50 Y0.00
M08
M112 H0
G40 D31
G00 X-5.00 Y-9.87
#FLUSH WAIT
G41 D31
N11
M07
G01 X0.00 Y10.00
G02 X-22.37 Y22.37 I2.50 J24.87
M08
M112 H0
G40 D31
G00 X-10.12 Y5.00
#FLUSH WAIT
G41 D31
N12
M07
G01 X10.00 Y0.00
G01 X0.00 Y62.50
G02 X22.50 Y24.87 I25.00 J0.00
M08
M112 H0
G40 D31
G00 X5.00 Y10.12
#FLUSH WAIT
G41 D31
N13
M07
G01 X0.00 Y-10.00
G01 X125.00 Y0.00
M08
M112 H0
G40 D31
#CS OFF
T0
M30
