(PLAN FILE= C:/Lantek/Expert/CNC/1233.TXT)
(MACHINE= Laser)
(MATERIAL= Al99)
(THICKNESS= 0.8)
(T31)
(PP_NAME= 0055)
(PP_VERSION= 12:29:40)
(PP_INI_NAME= 1233.TXT)
(PP_INI_VERSION= 06/22/22)
G71
G91
M190
G162
G237
#CS ON [V.E.START_X,V.E.START_Y,0,0,0,V.E.ROTATION]
G00 X35.30 Y-123.11
T31
#FLUSH WAIT
G41 D31
N1
M07
G01 X2.19 Y-2.19
G03 X-4.38 Y4.38 I-2.19 J2.19
G03 X4.38 Y-4.38 I2.19 J-2.19
M08
M112 H0
G40 D31
G00 X15.11 Y-8.81
#FLUSH WAIT
G41 D31
N2
M07
G01 X1.59 Y-1.59
G03 X-3.18 Y3.18 I-1.59 J1.59
G03 X3.18 Y-3.18 I1.59 J-1.59
M08
M112 H0
G40 D31
G00 X4.78 Y22.16
#FLUSH WAIT
G41 D31
N3
M07
G01 X1.59 Y-1.59
G03 X-3.18 Y3.18 I-1.59 J1.59
G03 X3.18 Y-3.18 I1.59 J-1.59
M08
M112 H0
G40 D31
G00 X8.47 Y-4.94
#FLUSH WAIT
G41 D31
N4
M07
G01 X1.13 Y-1.13
G03 X-2.26 Y2.26 I-1.13 J1.13
G03 X2.26 Y-2.26 I1.13 J-1.13
M08
M112 H0
G40 D31
G00 X8.93 Y-5.41
#FLUSH WAIT
G41 D31
N5
M07
G01 X1.59 Y-1.59
G03 X-3.18 Y3.18 I-1.59 J1.59
G03 X3.18 Y-3.18 I1.59 J-1.59
M08
M112 H0
G40 D31
G00 X6.50 Y11.84
#FLUSH WAIT
G41 D31
N6
M07
G01 X6.71 Y-4.36
G03 X-1.47 Y6.92 I-4.19 J2.72
G01 X-27.26 Y17.70
G03 X-5.45 Y-8.39 I-2.72 J-4.19
G01 X27.26 Y-17.70
G03 X6.92 Y1.47 I2.72 J4.19
M08
M112 H0
G40 D31
G00 X5.70 Y-13.39
#FLUSH WAIT
G41 D31
N7
M07
G01 X1.59 Y-1.59
G03 X-3.18 Y3.18 I-1.59 J1.59
G03 X3.18 Y-3.18 I1.59 J-1.59
M08
M112 H0
G40 D31
G00 X3.81 Y41.89
#FLUSH WAIT
G41 D31
N8
M07
G01 X0.00 Y-5.00
G01 X3.25 Y0.00
G01 X0.00 Y10.00
G01 X-6.50 Y0.00
G01 X0.00 Y-10.00
G01 X3.25 Y0.00
M08
M112 H0
G40 D31
G00 X-28.58 Y41.49
#FLUSH WAIT
G41 D31
N9
M07
G01 X0.28 Y-0.28
G01 X2.37 Y2.37
G03 X-0.57 Y0.56 I-0.28 J0.28
G01 X-4.74 Y-4.74
G03 X0.56 Y-0.57 I0.28 J-0.28
G01 X2.37 Y2.37
M08
M112 H0
G40 D31
G00 X-34.20 Y-38.01
#FLUSH WAIT
G41 D31
N10
M07
G01 X2.19 Y-2.19
G03 X-4.38 Y4.38 I-2.19 J2.19
G03 X4.38 Y-4.38 I2.19 J-2.19
M08
M112 H0
G40 D31
G00 X71.81 Y72.69
#FLUSH WAIT
G41 D31
N11
M07
G01 X1.24 Y-1.24
G03 X-2.47 Y2.48 I-1.24 J1.24
G03 X2.47 Y-2.48 I1.24 J-1.24
M08
M112 H0
G40 D31
G00 X38.76 Y2.20
#FLUSH WAIT
G41 D31
N12
M07
G01 X0.00 Y-0.40
G01 X3.35 Y0.00
G03 X0.00 Y0.80 I0.00 J0.40
G01 X-6.70 Y0.00
G03 X0.00 Y-0.80 I0.00 J-0.40
G01 X3.35 Y0.00
M08
M112 H0
G40 D31
G00 X40.00 Y-0.56
#FLUSH WAIT
G41 D31
N13
M07
G01 X1.24 Y-1.24
G03 X-2.47 Y2.48 I-1.24 J1.24
G03 X2.47 Y-2.48 I1.24 J-1.24
M08
M112 H0
G40 D31
G00 X38.84 Y-30.97
#FLUSH WAIT
G41 D31
N14
M07
G01 X-0.28 Y-0.28
G01 X2.37 Y-2.37
G03 X0.56 Y0.57 I0.28 J0.28
G01 X-4.74 Y4.74
G03 X-0.57 Y-0.56 I-0.28 J-0.28
G01 X2.37 Y-2.37
M08
M112 H0
G40 D31
G00 X-28.30 Y-36.21
#FLUSH WAIT
G41 D31
N15
M07
G01 X0.00 Y-5.00
G01 X3.25 Y0.00
G01 X0.00 Y10.00
G01 X-6.50 Y0.00
G01 X0.00 Y-10.00
G01 X3.25 Y0.00
M08
M112 H0
G40 D31
G00 X62.50 Y3.20
#FLUSH WAIT
G41 D31
N16
M07
G01 X2.19 Y-2.19
G03 X-4.38 Y4.38 I-2.19 J2.19
G03 X4.38 Y-4.38 I2.19 J-2.19
M08
M112 H0
G40 D31
G00 X5.01 Y-25.31
#FLUSH WAIT
G41 D31
N17
M07
G01 X2.19 Y-2.19
G03 X-4.38 Y4.38 I-2.19 J2.19
G03 X4.38 Y-4.38 I2.19 J-2.19
M08
M112 H0
G40 D31
G00 X-55.29 Y-37.81
#FLUSH WAIT
G41 D31
N18
M07
G01 X0.71 Y-0.71
G03 X-1.41 Y1.41 I-0.71 J0.71
G03 X1.41 Y-1.41 I0.71 J-0.71
M08
M112 H0
G40 D31
G00 X-4.11 Y0.71
#FLUSH WAIT
G41 D31
N19
M07
G01 X0.71 Y-0.71
G03 X-1.41 Y1.41 I-0.71 J0.71
G03 X1.41 Y-1.41 I0.71 J-0.71
M08
M112 H0
G40 D31
G00 X-4.11 Y0.71
#FLUSH WAIT
G41 D31
N20
M07
G01 X0.71 Y-0.71
G03 X-1.41 Y1.41 I-0.71 J0.71
G03 X1.41 Y-1.41 I0.71 J-0.71
M08
M112 H0
G40 D31
G00 X-4.11 Y0.71
#FLUSH WAIT
G41 D31
N21
M07
G01 X0.71 Y-0.71
G03 X-1.41 Y1.41 I-0.71 J0.71
G03 X1.41 Y-1.41 I0.71 J-0.71
M08
M112 H0
G40 D31
G00 X-1.54 Y-9.90
#FLUSH WAIT
G41 D31
N22
M07
G01 X-7.07 Y7.07
G01 X0.00 Y-6.47
G01 X-96.96 Y0.00
M08
M112 H0
G40 D31
G00 X-10.61 Y-3.53
#FLUSH WAIT
G41 D31
N23
M07
G01 X7.07 Y7.07
G01 X0.00 Y8.46
G01 X-60.00 Y0.00
G01 X0.00 Y-12.00
G01 X-15.70 Y0.00
G01 X0.00 Y2.50
G01 X-7.26 Y0.00
M08
M112 H0
G40 D31
G00 X-10.61 Y-3.53
#FLUSH WAIT
G41 D31
N24
M07
G01 X7.07 Y7.07
G01 X0.00 Y9.46
G01 X-9.50 Y0.00
G01 X0.00 Y16.50
G01 X10.70 Y0.00
G01 X0.00 Y12.50
G01 X9.60 Y0.00
G01 X0.00 Y12.00
G01 X7.20 Y7.20
G01 X0.00 Y26.59
M08
M112 H0
G40 D31
G00 X-7.32 Y8.45
#FLUSH WAIT
G41 D31
N25
M07
G01 X9.24 Y-3.83
G01 X57.59 Y57.59
G01 X20.46 Y0.00
M08
M112 H0
G40 D31
G00 X-3.53 Y10.61
#FLUSH WAIT
G41 D31
N26
M07
G01 X7.07 Y-7.07
G01 X0.00 Y5.96
G01 X71.00 Y0.00
G01 X0.00 Y-9.50
G01 X21.29 Y0.00
M08
M112 H0
G40 D31
G00 X8.45 Y7.33
#FLUSH WAIT
G41 D31
N27
M07
G01 X-3.83 Y-9.24
G01 X57.59 Y-57.59
G01 X0.00 Y-26.59
M08
M112 H0
G40 D31
G00 X11.15 Y-0.79
#FLUSH WAIT
G41 D31
N28
M07
G01 X-9.24 Y-3.83
G01 X5.29 Y-5.29
G01 X0.00 Y-12.00
G01 X9.60 Y0.00
G01 X0.00 Y-12.50
G01 X10.70 Y0.00
G01 X0.00 Y-16.50
G01 X-9.50 Y0.00
G01 X0.00 Y-13.00
G01 X-10.80 Y0.00
G01 X0.00 Y-2.50
G01 X-50.20 Y0.00
G01 X0.00 Y10.00
G01 X-6.50 Y0.00
G01 X0.00 Y-10.00
G01 X-13.00 Y0.00
G01 X0.00 Y10.00
G01 X-2.96 Y0.00
M08
M112 H0
G40 D31
#CS OFF
T0
M30
