(PLAN FILE= C:/Lantek/Expert/CNC/1234.TXT)
(MACHINE= Laser)
(MATERIAL= Al99)
(THICKNESS= 0.8)
(T31)
(PP_NAME= 0056)
(PP_VERSION= 12:29:40)
(PP_INI_NAME= 1234.TXT)
(PP_INI_VERSION= 06/22/22)
G71
G91
M190
G162
G237
#CS ON [V.E.START_X,V.E.START_Y,0,0,0,V.E.ROTATION]
G00 X53.57 Y-151.52
T31
#FLUSH WAIT
G41 D31
N1
M07
G01 X7.00 Y0.00
G02 X22.89 Y17.56 I78.13 J-78.14
G03 X-5.50 Y9.53 I-2.75 J4.76
G03 X-44.47 Y-44.47 I60.75 J-105.22
G03 X9.53 Y-5.50 I4.76 J-2.75
G02 X17.56 Y22.89 I95.70 J-55.25
M08
M112 H0
G40 D31
G00 X68.13 Y61.36
#FLUSH WAIT
G41 D31
N2
M07
G01 X3.18 Y-3.18
G03 X-6.36 Y6.36 I-3.18 J3.18
G03 X6.36 Y-6.36 I3.18 J-3.18
M08
M112 H0
G40 D31
G00 X16.82 Y3.18
#FLUSH WAIT
G41 D31
N3
M07
G01 X3.18 Y-3.18
G03 X-6.36 Y6.36 I-3.18 J3.18
G03 X6.36 Y-6.36 I3.18 J-3.18
M08
M112 H0
G40 D31
G00 X-3.18 Y24.18
#FLUSH WAIT
G41 D31
N4
M07
G01 X3.18 Y-3.18
G03 X-6.36 Y6.36 I-3.18 J3.18
G03 X6.36 Y-6.36 I3.18 J-3.18
M08
M112 H0
G40 D31
G00 X-23.18 Y3.18
#FLUSH WAIT
G41 D31
N5
M07
G01 X3.18 Y-3.18
G03 X-6.36 Y6.36 I-3.18 J3.18
G03 X6.36 Y-6.36 I3.18 J-3.18
M08
M112 H0
G40 D31
G00 X-3.18 Y38.68
#FLUSH WAIT
G41 D31
N6
M07
G01 X3.18 Y-3.18
G03 X-6.36 Y6.36 I-3.18 J3.18
G03 X6.36 Y-6.36 I3.18 J-3.18
M08
M112 H0
G40 D31
G00 X16.82 Y3.18
#FLUSH WAIT
G41 D31
N7
M07
G01 X3.18 Y-3.18
G03 X-6.36 Y6.36 I-3.18 J3.18
G03 X6.36 Y-6.36 I3.18 J-3.18
M08
M112 H0
G40 D31
G00 X40.39 Y-95.03
#FLUSH WAIT
G41 D31
N8
M07
G01 X5.00 Y8.66
G03 X-58.57 Y15.05 I-58.57 J-106.45
G03 X0.00 Y-11.00 I0.00 J-5.50
G02 X55.25 Y-14.80 I0.00 J-110.50
G03 X7.36 Y7.76 I2.75 J4.76
M08
M112 H0
G40 D31
G00 X5.76 Y-32.34
#FLUSH WAIT
G41 D31
N9
M07
G01 X-8.66 Y5.00
G02 X-1.99 Y0.60 I-0.19 J2.99
G03 X-145.06 Y-36.85 I-57.72 J-76.71
M08
M112 H0
G40 D31
G00 X5.98 Y-7.98
#FLUSH WAIT
G41 D31
N10
M07
G01 X-9.20 Y3.91
G02 X-2.05 Y0.35 I-0.55 J2.95
G01 X-27.44 Y15.84
M08
M112 H0
G40 D31
G00 X-8.66 Y-5.00
#FLUSH WAIT
G41 D31
N11
M07
G01 X5.00 Y8.66
G02 X0.27 Y1.45 I2.99 J0.19
G02 X88.56 Y74.36 I123.43 J-57.10
G03 X14.72 Y16.83 I-5.13 J19.33
M08
M112 H0
G40 D31
G00 X-9.84 Y5.00
#FLUSH WAIT
G41 D31
N12
M07
G01 X10.00 Y0.00
G01 X0.00 Y54.72
G02 X3.00 Y3.00 I3.00 J0.00
G01 X31.50 Y0.00
M08
M112 H0
G40 D31
G00 X5.00 Y8.66
#FLUSH WAIT
G41 D31
N13
M07
G01 X0.00 Y-10.00
G02 X0.50 Y-1.66 I-2.50 J-1.66
G01 X0.00 Y-57.22
G03 X14.87 Y-19.33 I20.00 J0.00
G02 X41.42 Y-18.87 I-34.87 J-131.45
M08
M112 H0
G40 D31
G00 X9.09 Y4.22
#FLUSH WAIT
G41 D31
N14
M07
G01 X-5.76 Y-8.17
G02 X-0.40 Y-1.42 I-3.00 J0.08
G01 X-15.84 Y-27.44
M08
M112 H0
G40 D31
#CS OFF
T0
M30
