(PP_NAME=	  PP_Din)
(PP_VERSION=	  4.0)
(PP_INI_NAME=	  MCS_LASERMAT_III_4.5.ini)
(PP_INI_VERSION=  2016-06-30)
(PLANNAME=        1239.TXT)
(MACHINE= 	  PowerBlade 5kW)
(MATERIAL= 	  Al99)
(THICKNESS= 	  0.8)
G71
#KIN ID[25]
G90
#CS ON [V.A.ABS.X, V.A.ABS.Y, 0, 0, 0, V.E.ROTATION]
M190
G162
G237
G00 Z0.00
G00 C0.00 A0.00
#TRAFO ON
M190
G162
G00 X31.580 Y161.780
#MSG PLC ["Tool: T=31 C=11 A=0.00"]
T31
M112 H11
G41
N1 M7
G01 X27.940 Y158.360
G03 X27.930 Y157.930 I0.200 J-0.220
G03 X42.070 Y172.070 I7.070 J7.070
G03 X27.930 Y157.930 I-7.070 J-7.070
M08
G40
G00 X96.580 Y161.780
G41
N2 M7
G01 X92.940 Y158.360
G03 X92.930 Y157.930 I0.200 J-0.220
G03 X107.070 Y172.070 I7.070 J7.070
G03 X92.930 Y157.930 I-7.070 J-7.070
M08
G40
G00 X58.230 Y68.570
G41
N3 M7
G01 X58.230 Y63.570
G01 X58.230 Y34.710
G03 X78.230 Y34.710 I10.000 J0.000
G01 X78.230 Y63.570
G03 X104.370 Y89.710 I-10.000 J36.140
G01 X114.370 Y89.710
G01 X114.370 Y109.710
G01 X104.370 Y109.710
G03 X78.230 Y135.850 I-36.140 J-10.000
G01 X78.230 Y164.710
G03 X58.230 Y164.710 I-10.000 J0.000
G01 X58.230 Y135.850
G03 X32.080 Y109.710 I10.000 J-36.140
G01 X22.080 Y109.710
G01 X22.080 Y89.710
G01 X32.080 Y89.710
G03 X58.230 Y63.570 I36.150 J10.000
M08
G40
G00 X96.580 Y31.780
G41
N4 M7
G01 X92.940 Y28.360
G03 X92.930 Y27.930 I0.200 J-0.220
G03 X107.070 Y42.070 I7.070 J7.070
G03 X92.930 Y27.930 I-7.070 J-7.070
M08
G40
G00 X31.580 Y31.780
G41
N5 M7
G01 X27.940 Y28.360
G03 X27.930 Y27.930 I0.200 J-0.220
G03 X42.070 Y42.070 I7.070 J7.070
G03 X27.930 Y27.930 I-7.070 J-7.070
M08
G40
G00 X13.830 Y13.320
G41
N6 M7
G01 X17.320 Y16.900
G03 X17.320 Y17.320 I-0.210 J0.210
G02 X10.000 Y35.000 I17.680 J17.680
G01 X10.000 Y165.000
G02 X35.000 Y190.000 I25.000 J0.000
G01 X100.000 Y190.000
G02 X125.000 Y165.000 I0.000 J-25.000
G01 X125.000 Y35.000
G02 X100.000 Y10.000 I-25.000 J0.000
G01 X35.000 Y10.000
G02 X17.320 Y17.320 I0.000 J25.000
M08
G40
G00 A0.00 C0.00
G00 X0.000 Y0.000
T0
#TRAFO OFF
#CS OFF
M30
