N10 EXTERN MACHINE_ON (INT)
N11 EXTERN MACHINE_OFF (INT)
N12 EXTERN LASER_ON (INT)
N13 EXTERN LASER_OFF (INT)
N14 EXTERN LASER_STARTP (INT)
N15 EXTERN ORIGEM (INT,INT)
N16 EXTERN TRANSF (INT,INT)
N17 ; CHAPA : 227.3X89X0.8 MATERIAL : Al99
N18 ; ORDEM : (Smartdeploy -> JOB000003)
N19 INIT_VAR
N20 MS0600_05_N
N21 MACHINE_ON(0)
N22 ;ORIGEM(227.262,88.989)
N23 ;TRANSF (PX,PY)
N24 G53G00Z95
N25 ;GOTOF "PZ"<<PZ
N26 PZ1:PZ="1";PECA=DXFPART7 SUB_1 pz1
N27 TRANS X=1 Y=1
N28 REPEAT SUB_1 END
N29 END_VAR
N30 G53G00Z95
N31 MACHINE_OFF(0)
N32 M30

N1000 ;PECA=DXFPART7
N1001 SUB_1:
N1002 SUB1_1:SUB="1_1"; (DXFPART7) pz1 Cont=1
N1003 G00Z40
N1004 G00X32.573Y29.762F280000
N1005 LASER_STARTP(1)
N1006 LASER_ON(6)
N1007 G01X34.196Y32.285
N1008 LASER_ON(1)
N1009 G02X46.419Y22.312I6.676J-4.296
N1010 G03X115.066Y-0.059I70.453J99.678
N1011 G02X146.724Y3.634I15.806J2.048
N1012 G03X225.362Y66.051I-29.852J118.356
N1013 G01X208.934
N1014 Y74.409
N1015 X200.192Y65.669
N1016 G02X184.946Y71.523I-6.32J6.32
N1017 G01X184.66Y77.051
N1018 X173.287
N1019 X171.817Y65.051
N1020 X161.926
N1021 X160.456Y77.051
N1022 X149.845
N1023 X132.094Y58.861
N1024 G02X86.023Y64.847I-15.222J63.128
N1025 G01X44.887Y87.051
N1026 X32.81
N1027 Y83.051
N1028 X10.934
N1029 Y87.051
N1030 X-0.083
N1031 G03X34.102Y32.277I116.955J34.939
N1032 LASER_OFF(0)
N1033 END:
