(PP_NAME=	  PP_Din)
(PP_VERSION=	  4.0)
(PP_INI_NAME=	  MCS_LASERMAT_III_4.5.ini)
(PP_INI_VERSION=  2016-06-30)
(PLANNAME=        1240.TXT)
(MACHINE= 	  PowerBlade 5kW)
(MATERIAL= 	  Al99)
(THICKNESS= 	  0.8)
G71
#KIN ID[25]
G90
#CS ON [V.A.ABS.X, V.A.ABS.Y, 0, 0, 0, V.E.ROTATION]
M190
G162
G237
G00 Z0.00
G00 C0.00 A0.00
#TRAFO ON
M190
G162
G00 X60.000 Y277.700
#MSG PLC ["Tool: T=31 C=11 A=0.00"]
T31
M112 H11
G41
N1 M7
G01 X57.830 Y275.950
G03 X57.810 Y275.510 I0.190 J-0.230
G03 X62.190 Y279.890 I2.190 J2.190
G03 X57.810 Y275.510 I-2.190 J-2.190
M08
G40
G00 X49.000 Y260.400
G41
N2 M7
G01 X47.440 Y259.260
G03 X47.410 Y258.810 I0.180 J-0.240
G03 X50.590 Y261.990 I1.590 J1.590
G03 X47.410 Y258.810 I-1.590 J-1.590
M08
G40
G00 X69.570 Y254.030
G41
N3 M7
G01 X68.020 Y252.890
G03 X67.980 Y252.440 I0.170 J-0.240
G03 X71.160 Y255.620 I1.590 J1.590
G03 X67.980 Y252.440 I-1.590 J-1.590
M08
G40
G00 X63.040 Y243.960
G41
N4 M7
G01 X61.960 Y243.300
G03 X61.900 Y242.830 I0.160 J-0.260
G03 X64.170 Y245.100 I1.140 J1.130
G03 X61.900 Y242.830 I-1.130 J-1.140
M08
G40
G00 X56.500 Y233.900
G41
N5 M7
G01 X54.940 Y232.760
G03 X54.910 Y232.310 I0.180 J-0.240
G03 X58.090 Y235.490 I1.590 J1.590
G03 X54.910 Y232.310 I-1.590 J-1.590
M08
G40
G00 X65.130 Y223.320
G41
N6 M7
G01 X62.310 Y219.530
G03 X62.390 Y219.100 I0.240 J-0.180
G03 X69.310 Y220.570 I2.720 J4.190
G01 X87.010 Y247.830
G03 X78.620 Y253.270 I-4.200 J2.720
G01 X60.920 Y226.020
G03 X62.390 Y219.100 I4.190 J-2.730
M08
G40
G00 X49.000 Y213.400
G41
N7 M7
G01 X47.440 Y212.260
G03 X47.410 Y211.810 I0.180 J-0.240
G03 X50.590 Y214.990 I1.590 J1.590
G03 X47.410 Y211.810 I-1.590 J-1.590
M08
G40
G00 X89.320 Y208.300
G41
N8 M7
G01 X84.600 Y208.300
G03 X84.300 Y208.000 I0.000 J-0.300
G01 X84.300 Y204.750
G01 X94.300 Y204.750
G01 X94.300 Y211.250
G01 X84.300 Y211.250
G01 X84.300 Y208.000
M08
G40
G00 X125.880 Y236.430
G41
N9 M7
G01 X126.070 Y236.620
G03 X126.070 Y236.860 I-0.120 J0.120
G01 X123.700 Y239.230
G03 X123.140 Y238.670 I-0.280 J-0.280
G01 X127.870 Y233.930
G03 X128.440 Y234.490 I0.290 J0.280
G01 X126.070 Y236.860
M08
G40
G00 X87.500 Y270.500
G41
N10 M7
G01 X85.330 Y268.750
G03 X85.310 Y268.310 I0.190 J-0.230
G03 X89.690 Y272.690 I2.190 J2.190
G03 X85.310 Y268.310 I-2.190 J-2.190
M08
G40
G00 X158.000 Y196.500
G41
N11 M7
G01 X156.810 Y195.730
G03 X156.760 Y195.260 I0.160 J-0.260
G03 X159.240 Y197.740 I1.240 J1.240
G03 X156.760 Y195.260 I-1.240 J-1.240
M08
G40
G00 X158.920 Y156.330
G41
N12 M7
G01 X159.190 Y156.330
G03 X159.360 Y156.500 I0.000 J0.170
G01 X159.360 Y159.850
G03 X158.560 Y159.850 I-0.400 J0.000
G01 X158.560 Y153.150
G03 X159.360 Y153.150 I0.400 J0.000
G01 X159.360 Y156.500
M08
G40
G00 X158.000 Y116.500
G41
N13 M7
G01 X156.810 Y115.730
G03 X156.760 Y115.260 I0.160 J-0.260
G03 X159.240 Y117.740 I1.240 J1.240
G03 X156.760 Y115.260 I-1.240 J-1.240
M08
G40
G00 X125.640 Y76.330
G41
N14 M7
G01 X125.830 Y76.140
G03 X126.070 Y76.140 I0.120 J0.120
G01 X128.440 Y78.510
G03 X127.870 Y79.070 I-0.280 J0.280
G01 X123.140 Y74.330
G03 X123.700 Y73.770 I0.280 J-0.280
G01 X126.070 Y76.140
M08
G40
G00 X89.320 Y105.300
G41
N15 M7
G01 X84.600 Y105.300
G03 X84.300 Y105.000 I0.000 J-0.300
G01 X84.300 Y101.750
G01 X94.300 Y101.750
G01 X94.300 Y108.250
G01 X84.300 Y108.250
G01 X84.300 Y105.000
M08
G40
G00 X87.500 Y42.500
G41
N16 M7
G01 X85.330 Y40.750
G03 X85.310 Y40.310 I0.190 J-0.230
G03 X89.690 Y44.690 I2.190 J2.190
G03 X85.310 Y40.310 I-2.190 J-2.190
M08
G40
G00 X60.000 Y35.300
G41
N17 M7
G01 X57.830 Y33.550
G03 X57.810 Y33.110 I0.190 J-0.230
G03 X62.190 Y37.490 I2.190 J2.190
G03 X57.810 Y33.110 I-2.190 J-2.190
M08
G40
G00 X20.000 Y88.400
G41
N18 M7
G01 X19.400 Y88.190
G03 X19.290 Y87.690 I0.110 J-0.280
G03 X20.710 Y89.110 I0.710 J0.710
G03 X19.290 Y87.690 I-0.710 J-0.710
M08
G40
G00 X20.000 Y91.800
G41
N19 M7
G01 X19.400 Y91.590
G03 X19.290 Y91.090 I0.110 J-0.280
G03 X20.710 Y92.510 I0.710 J0.710
G03 X19.290 Y91.090 I-0.710 J-0.710
M08
G40
G00 X20.000 Y95.200
G41
N20 M7
G01 X19.400 Y94.990
G03 X19.290 Y94.490 I0.110 J-0.280
G03 X20.710 Y95.910 I0.710 J0.710
G03 X19.290 Y94.490 I-0.710 J-0.710
M08
G40
G00 X20.000 Y98.600
G41
N21 M7
G01 X19.400 Y98.390
G03 X19.290 Y97.890 I0.110 J-0.280
G03 X20.710 Y99.310 I0.710 J0.710
G03 X19.290 Y97.890 I-0.710 J-0.710
M08
G40
G00 X12.500 Y14.500
G41
N22 M7
G01 X12.500 Y19.500
G01 X12.500 Y30.300
G01 X10.000 Y30.300
G01 X10.000 Y80.500
G01 X20.000 Y80.500
G01 X20.000 Y87.000
G01 X10.000 Y87.000
G01 X10.000 Y100.000
G01 X20.000 Y100.000
G01 X20.000 Y106.500
G01 X10.000 Y106.500
G01 X10.000 Y207.000
G01 X22.000 Y207.000
G01 X22.000 Y267.000
G01 X10.000 Y267.000
G01 X10.000 Y282.700
G01 X12.500 Y282.700
G01 X12.500 Y293.500
G01 X25.500 Y293.500
G01 X25.500 Y303.000
G01 X42.000 Y303.000
G01 X42.000 Y292.300
G01 X54.500 Y292.300
G01 X54.500 Y282.700
G01 X66.500 Y282.700
G01 X73.700 Y275.500
G01 X103.000 Y275.500
G01 X162.500 Y216.000
G01 X162.500 Y192.000
G01 X172.000 Y192.000
G01 X172.000 Y121.000
G01 X162.500 Y121.000
G01 X162.500 Y97.000
G01 X103.000 Y37.500
G01 X73.700 Y37.500
G01 X66.500 Y30.300
G01 X54.500 Y30.300
G01 X54.500 Y20.700
G01 X42.000 Y20.700
G01 X42.000 Y10.000
G01 X25.500 Y10.000
G01 X25.500 Y19.500
G01 X12.500 Y19.500
M08
G40
G00 A0.00 C0.00
G00 X0.000 Y0.000
T0
#TRAFO OFF
#CS OFF
M30
