(PP_NAME=	  PP_Din)
(PP_VERSION=	  4.0)
(PP_INI_NAME=	  MCS_LASERMAT_III_4.5.ini)
(PP_INI_VERSION=  2016-06-30)
(PLANNAME=        1242.TXT)
(MACHINE= 	  PowerBlade 5kW)
(MATERIAL= 	  Al99)
(THICKNESS= 	  0.8)
G71
#KIN ID[25]
G90
#CS ON [V.A.ABS.X, V.A.ABS.Y, 0, 0, 0, V.E.ROTATION]
M190
G162
G237
G00 Z0.00
G00 C0.00 A0.00
#TRAFO ON
M190
G162
G00 X80.430 Y7.710
#MSG PLC ["Tool: T=31 C=11 A=0.00"]
T31
M112 H11
G41
N1 M7
G01 X75.990 Y10.000
G02 X13.710 Y88.480 I56.000 J108.390
G03 X10.000 Y120.270 I-1.720 J15.910
G02 X32.320 Y188.750 I121.990 J-1.880
G03 X42.320 Y201.120 I5.670 J5.640
G02 X96.990 Y235.260 I89.670 J-82.730
G01 X96.990 Y224.390
G01 X92.990 Y224.390
G01 X92.990 Y202.390
G01 X96.990 Y202.390
G01 X96.990 Y190.390
G01 X74.790 Y149.270
G03 X68.800 Y103.140 I57.200 J-30.880
G01 X86.990 Y85.390
G01 X86.990 Y74.860
G01 X74.990 Y73.390
G01 X74.990 Y63.390
G01 X86.990 Y61.920
G01 X86.990 Y50.660
G01 X81.520 Y50.380
G03 X75.630 Y35.030 I0.470 J-8.990
G01 X84.260 Y26.390
G01 X75.990 Y26.390
G01 X75.990 Y10.000
M08
G40
G00 A0.00 C0.00
G00 X0.000 Y0.000
T0
#TRAFO OFF
#CS OFF
M30
