(PP_NAME=	  PP_Din)
(PP_VERSION=	  4.0)
(PP_INI_NAME=	  MCS_LASERMAT_III_4.5.ini)
(PP_INI_VERSION=  2016-06-30)
(PLANNAME=        1243.TXT)
(MACHINE= 	  PowerBlade 5kW)
(MATERIAL= 	  Al99)
(THICKNESS= 	  0.8)
G71
#KIN ID[25]
G90
#CS ON [V.A.ABS.X, V.A.ABS.Y, 0, 0, 0, V.E.ROTATION]
M190
G162
G237
G00 Z0.00
G00 C0.00 A0.00
#TRAFO ON
M190
G162
G00 X55.920 Y171.730
#MSG PLC ["Tool: T=31 C=11 A=0.00"]
T31
M112 H11
G41
N1 M7
G01 X52.390 Y168.180
G03 X52.390 Y167.760 I0.210 J-0.210
G02 X69.950 Y144.870 I-78.130 J-78.140
G03 X79.480 Y150.370 I4.770 J2.750
G03 X35.010 Y194.840 I-105.220 J-60.750
G03 X29.510 Y185.320 I-2.750 J-4.760
G02 X52.390 Y167.760 I-55.250 J-95.700
M08
G40
G00 X113.760 Y99.620
G41
N2 M7
G01 X110.590 Y96.880
G03 X110.580 Y96.440 I0.200 J-0.230
G03 X116.940 Y102.800 I3.180 J3.180
G03 X110.580 Y96.440 I-3.180 J-3.180
M08
G40
G00 X113.760 Y79.620
G41
N3 M7
G01 X110.590 Y76.880
G03 X110.580 Y76.440 I0.200 J-0.230
G03 X116.940 Y82.800 I3.180 J3.180
G03 X110.580 Y76.440 I-3.180 J-3.180
M08
G40
G00 X134.760 Y79.620
G41
N4 M7
G01 X131.590 Y76.880
G03 X131.580 Y76.440 I0.200 J-0.230
G03 X137.940 Y82.800 I3.180 J3.180
G03 X131.580 Y76.440 I-3.180 J-3.180
M08
G40
G00 X134.760 Y99.620
G41
N5 M7
G01 X131.590 Y96.880
G03 X131.580 Y96.440 I0.200 J-0.230
G03 X137.940 Y102.800 I3.180 J3.180
G03 X131.580 Y96.440 I-3.180 J-3.180
M08
G40
G00 X170.260 Y99.620
G41
N6 M7
G01 X167.090 Y96.880
G03 X167.080 Y96.440 I0.200 J-0.230
G03 X173.440 Y102.800 I3.180 J3.180
G03 X167.080 Y96.440 I-3.180 J-3.180
M08
G40
G00 X170.260 Y79.620
G41
N7 M7
G01 X167.090 Y76.880
G03 X167.080 Y76.440 I0.200 J-0.230
G03 X173.440 Y82.800 I3.180 J3.180
G03 X167.080 Y76.440 I-3.180 J-3.180
M08
G40
G00 X74.610 Y31.460
G41
N8 M7
G01 X71.870 Y27.280
G03 X71.970 Y26.860 I0.250 J-0.160
G03 X79.480 Y28.870 I2.750 J4.760
G03 X95.760 Y89.620 I-105.220 J60.750
G03 X84.760 Y89.620 I-5.500 J0.000
G02 X69.950 Y34.370 I-110.500 J0.000
G03 X71.970 Y26.860 I4.770 J-2.750
M08
G40
G00 X45.430 Y27.710
G41
N9 M7
G01 X50.210 Y29.150
G03 X50.420 Y29.490 I-0.080 J0.280
G02 X50.960 Y31.900 I2.940 J0.600
G03 X11.830 Y177.960 I-76.700 J57.720
G02 X10.400 Y182.230 I1.170 J2.770
G01 X27.500 Y211.830
G02 X31.350 Y213.060 I2.590 J-1.500
G02 X105.710 Y124.490 I-57.090 J-123.440
G03 X125.040 Y109.620 I19.330 J5.130
G01 X182.260 Y109.620
G02 X185.260 Y106.620 I0.000 J-3.000
G01 X185.260 Y72.620
G02 X182.260 Y69.620 I-3.000 J0.000
G01 X125.040 Y69.620
G03 X105.710 Y54.750 I0.000 J-20.000
G02 X85.420 Y11.270 I-131.450 J34.870
G02 X81.470 Y10.400 I-2.450 J1.730
G01 X51.860 Y27.500
G02 X50.420 Y29.490 I1.500 J2.590
M08
G40
G00 A0.00 C0.00
G00 X0.000 Y0.000
T0
#TRAFO OFF
#CS OFF
M30
