(DATE=  06/22/22 : 12:29:56)
(MACHINE=    Messer TH )
(PLANNAME=   00062)
(THICKNESS=  0.8 mm )
(MATERIAL=   Al99)
#CONTOUR MODE [DEV PATH_DEV=0.2 RELEVANT_PATH=0.1]
#TRC [CONV_CIR_TO_LIN=1]
(%%INFO DRILL-TOOL EQUIPPING)
(%%INFO ************************************)
(%%INFO ************************************)
G71
G90
G162
#CS ON [V.E.START_X,V.E.START_Y,0,0,0,V.E.ROTATION]
G00 X0. Y0.
M51
G00 X45. Y-110.
T21
G41 D21
N1 M07
G261
G03 X54.624 Y-112.715 I4.812 J-1.358
G03 X47.9149 Y-119.5653 I-9.624 J2.715
M50
G03 X54.624 Y-112.715 I-2.9149 J9.5653
G03 X54.624 Y-107.285 I-9.624 J2.715
G260
M08
G40 D21
M51
G00 X45. Y-45.
G41 D21
N2 M07
G261
G03 X54.624 Y-47.715 I4.812 J-1.358
G03 X47.9149 Y-54.5653 I-9.624 J2.715
M50
G03 X54.624 Y-47.715 I-2.9149 J9.5653
G03 X54.624 Y-42.285 I-9.624 J2.715
G260
M08
G40 D21
M51
G00 X175.291 Y-76.773
G41 D21
N3 M07
G261
G03 X185.196 Y-75.403 I4.952 J0.685
G03 X175.291 Y-66.773 I-9.905 J-1.37
G01 X146.433 Y-66.773
G03 X120.291 Y-40.631 I-36.142 J-10.
G01 X120.291 Y-30.631
G01 X100.291 Y-30.631
G01 X100.291 Y-40.631
G03 X74.148 Y-66.773 I10. J-36.142
G01 X45.291 Y-66.773
G03 X45.291 Y-86.773 I0. J-10.
G01 X74.148 Y-86.773
G03 X100.291 Y-112.915 I36.143 J10.
G01 X100.291 Y-122.915
G01 X120.291 Y-122.915
G01 X120.291 Y-112.915
G03 X146.433 Y-86.773 I-10. J36.142
G01 X175.291 Y-86.773
G03 X179.4885 Y-85.8488 I0. J10.
M50
G03 X185.196 Y-78.144 I-4.1975 J9.0758
G03 X182.288 Y-72.896 I-4.953 J0.685
G260
M08
G40 D21
M51
G00 X175. Y-45.
G41 D21
N4 M07
G261
G03 X184.624 Y-47.715 I4.812 J-1.358
G03 X177.9149 Y-54.5653 I-9.624 J2.715
M50
G03 X184.624 Y-47.715 I-2.9149 J9.5653
G03 X184.624 Y-42.285 I-9.624 J2.715
G260
M08
G40 D21
M51
G00 X175. Y-110.
G41 D21
N5 M07
G261
G03 X184.624 Y-112.715 I4.812 J-1.358
G03 X177.9149 Y-119.5653 I-9.624 J2.715
M50
G03 X184.624 Y-112.715 I-2.9149 J9.5653
G03 X184.624 Y-107.285 I-9.624 J2.715
G260
M08
G40 D21
M51
G00 X5.628 Y-131.791
G42 D21
N6 M07
G261
G02 X28.321 Y-128.623 I12.685 J-8.005
G03 X45. Y-135. I16.679 J18.623
G01 X175. Y-135.
G03 X200. Y-110. I0. J25.
G01 X200. Y-45.
G03 X175. Y-20. I-25. J0.
G01 X45. Y-20.
G03 X20. Y-45. I0. J-25.
G01 X20. Y-110.
G03 X26.377 Y-126.679 I25. J0.
G02 X27.612 Y-130.655 I-3.724 J-3.336
G260
M08
G40 D21
M92
#CS OFF
T0
M02
