N10 EXTERN MACHINE_ON (INT)
N11 EXTERN MACHINE_OFF (INT)
N12 EXTERN LASER_ON (INT)
N13 EXTERN LASER_OFF (INT)
N14 EXTERN LASER_STARTP (INT)
N15 EXTERN ORIGEM (INT,INT)
N16 EXTERN TRANSF (INT,INT)
N17 ; CHAPA : 295X164X0.8 MATERIAL : Al99
N18 ; ORDEM : (Smartdeploy -> JOB000003)
N19 INIT_VAR
N20 MS0600_05_N
N21 MACHINE_ON(0)
N22 ;ORIGEM(295,164)
N23 ;TRANSF (PX,PY)
N24 G53G00Z95
N25 ;GOTOF "PZ"<<PZ
N26 PZ1:PZ="1";PECA=DXFPUNC0 SUB_1 pz1
N27 TRANS X=1 Y=0.5
N28 REPEAT SUB_1 END
N29 END_VAR
N30 G53G00Z95
N31 MACHINE_OFF(0)
N32 M30

N1000 ;PECA=DXFPUNC0
N1001 SUB_1:
N1002 SUB1_1:SUB="1_1"; (DXFPUNC0) pz1 Cont=1
N1003 G00Z40
N1004 G00X204.4Y10.562F280000
N1005 LASER_STARTP(1)
N1006 LASER_ON(6)
N1007 G01X205.336
N1008 LASER_ON(1)
N1009 G03X203.462Y10.5I-0.936J-0.062
N1010 X205.338I0.938J0
N1011 LASER_OFF(0)
N1012 SUB1_2:SUB="1_2"; (DXFPUNC0) pz1 Cont=2
N1013 G00Z40
N1014 G01X207.8Y10.562F280000
N1015 LASER_STARTP(1)
N1016 LASER_ON(6)
N1017 G01X208.736
N1018 LASER_ON(1)
N1019 G03X206.862Y10.5I-0.936J-0.062
N1020 X208.738I0.938J0
N1021 LASER_OFF(0)
N1022 SUB1_3:SUB="1_3"; (DXFPUNC0) pz1 Cont=3
N1023 G00Z40
N1024 G01X211.2Y10.562F280000
N1025 LASER_STARTP(1)
N1026 LASER_ON(6)
N1027 G01X212.136
N1028 LASER_ON(1)
N1029 G03X210.262Y10.5I-0.936J-0.062
N1030 X212.138I0.938J0
N1031 LASER_OFF(0)
N1032 SUB1_4:SUB="1_4"; (DXFPUNC0) pz1 Cont=4
N1033 G00Z40
N1034 G01X214.6Y10.562F280000
N1035 LASER_STARTP(1)
N1036 LASER_ON(6)
N1037 G01X215.536
N1038 LASER_ON(1)
N1039 G03X213.662Y10.5I-0.936J-0.062
N1040 X215.538I0.938J0
N1041 LASER_OFF(0)
N1042 SUB1_5:SUB="1_5"; (DXFPUNC0) pz1 Cont=5
N1043 G00Z40
N1044 G01X89.6Y39.562F280000
N1045 LASER_STARTP(1)
N1046 LASER_ON(6)
N1047 G01X91.787
N1048 LASER_ON(1)
N1049 G03X87.412Y39.5I-2.187J-0.062
N1050 X91.788I2.188J0
N1051 LASER_OFF(0)
N1052 SUB1_6:SUB="1_6"; (DXFPUNC0) pz1 Cont=6
N1053 G00Z40
N1054 G01X42.6Y39.562F280000
N1055 LASER_STARTP(1)
N1056 LASER_ON(6)
N1057 G01X44.787
N1058 LASER_ON(1)
N1059 G03X40.412Y39.5I-2.187J-0.062
N1060 X44.788I2.188J0
N1061 LASER_OFF(0)
N1062 SUB1_7:SUB="1_7"; (DXFPUNC0) pz1 Cont=7
N1063 G00Z40
N1064 G01X69.1Y47.062F280000
N1065 LASER_STARTP(1)
N1066 LASER_ON(6)
N1067 G01X71.287
N1068 LASER_ON(1)
N1069 G03X66.912Y47I-2.187J-0.062
N1070 X71.288I2.188J0
N1071 LASER_OFF(0)
N1072 SUB1_8:SUB="1_8"; (DXFPUNC0) pz1 Cont=8
N1073 G00Z40
N1074 G01X267.8Y50.562F280000
N1075 LASER_STARTP(1)
N1076 LASER_ON(6)
N1077 G01X270.737
N1078 LASER_ON(1)
N1079 G03X264.662Y50.5I-3.037J-0.062
N1080 X270.738I3.038J0
N1081 LASER_OFF(0)
N1082 SUB1_9:SUB="1_9"; (DXFPUNC0) pz1 Cont=9
N1083 G00Z40
N1084 G01X25.4Y50.562F280000
N1085 LASER_STARTP(1)
N1086 LASER_ON(6)
N1087 G01X28.337
N1088 LASER_ON(1)
N1089 G03X22.262Y50.5I-3.037J-0.062
N1090 X28.338I3.038J0
N1091 LASER_OFF(0)
N1092 SUB1_10:SUB="1_10"; (DXFPUNC0) pz1 Cont=10
N1093 G00Z40
N1094 G01X65.039Y62.753F280000
N1095 LASER_STARTP(1)
N1096 LASER_ON(6)
N1097 G01X63.439Y60.289
N1098 LASER_ON(1)
N1099 G01X77.016Y51.472
N1100 G03X82.394Y59.755I2.689J4.142
N1101 G01X55.138Y77.456
N1102 G03X49.759Y69.173I-2.69J-4.142
N1103 G01X63.387Y60.323
N1104 LASER_OFF(0)
N1105 SUB1_11:SUB="1_11"; (DXFPUNC0) pz1 Cont=11
N1106 G00Z40
N1107 G01X59.036Y53.598F280000
N1108 LASER_STARTP(1)
N1109 LASER_ON(6)
N1110 G01X60.573
N1111 LASER_ON(1)
N1112 G03X57.498Y53.536I-1.537J-0.062
N1113 X60.574I1.538J0
N1114 LASER_OFF(0)
N1115 SUB1_12:SUB="1_12"; (DXFPUNC0) pz1 Cont=12
N1116 G00Z40
N1117 G01X48.972Y60.133F280000
N1118 LASER_STARTP(1)
N1119 LASER_ON(6)
N1120 G01X51.159
N1121 LASER_ON(1)
N1122 G03X46.784Y60.071I-2.187J-0.062
N1123 X51.16I2.188J0
N1124 LASER_OFF(0)
N1125 SUB1_13:SUB="1_13"; (DXFPUNC0) pz1 Cont=13
N1126 G00Z40
N1127 G01X260.6Y78.062F280000
N1128 LASER_STARTP(1)
N1129 LASER_ON(6)
N1130 G01X263.537
N1131 LASER_ON(1)
N1132 G03X257.462Y78I-3.037J-0.062
N1133 X263.538I3.038J0
N1134 LASER_OFF(0)
N1135 SUB1_14:SUB="1_14"; (DXFPUNC0) pz1 Cont=14
N1136 G00Z40
N1137 ; START FLYING CUT MACRO
N1138 G01X91.812Y74.862F280000
N1139 LASER_STARTP(1)
N1140 LASER_ON(6)
N1141 G01X91.912
N1142 LASER_ON(1)
N1143 G01X98.188
N1144 LASER_OFF(0)
N1145 SUB1_15:SUB="1_15"; (DXFPUNC0) pz1 Cont=15
N1146 G00Z40
N1147 G01X194.812Y74.862F280000
N1148 LASER_STARTP(1)
N1149 LASER_ON(6)
N1150 G01X194.912
N1151 LASER_ON(1)
N1152 G01X201.188
N1153 LASER_OFF(0)
N1154 SUB1_16:SUB="1_16"; (DXFPUNC0) pz1 Cont=16
N1155 G00Z40
N1156 ; END FLYING CUT MACRO
N1157 ; START FLYING CUT MACRO
N1158 G01X201.188Y84.738F280000
N1159 LASER_STARTP(1)
N1160 LASER_ON(6)
N1161 G01X201.088
N1162 LASER_ON(1)
N1163 G01X194.812
N1164 LASER_OFF(0)
N1165 SUB1_17:SUB="1_17"; (DXFPUNC0) pz1 Cont=17
N1166 G00Z40
N1167 G01X98.188Y84.738F280000
N1168 LASER_STARTP(1)
N1169 LASER_ON(6)
N1170 G01X98.088
N1171 LASER_ON(1)
N1172 G01X91.812
N1173 ; END FLYING CUT MACRO
N1174 ; START FLYING CUT MACRO
N1175 LASER_ON(1)
N1176 G01Y84.638
N1177 Y74.862
N1178 LASER_OFF(0)
N1179 SUB1_18:SUB="1_18"; (DXFPUNC0) pz1 Cont=18
N1180 G00Z40
N1181 ; END FLYING CUT MACRO
N1182 ; START FLYING CUT MACRO
N1183 G01X98.188Y74.862F280000
N1184 LASER_STARTP(1)
N1185 LASER_ON(6)
N1186 G01Y74.962
N1187 LASER_ON(1)
N1188 G01Y84.738
N1189 LASER_OFF(0)
N1190 SUB1_19:SUB="1_19"; (DXFPUNC0) pz1 Cont=19
N1191 G00Z40
N1192 ; END FLYING CUT MACRO
N1193 ; START FLYING CUT MACRO
N1194 G01X194.812Y84.738F280000
N1195 LASER_STARTP(1)
N1196 LASER_ON(6)
N1197 G01Y84.638
N1198 LASER_ON(1)
N1199 G01Y74.862
N1200 LASER_OFF(0)
N1201 SUB1_20:SUB="1_20"; (DXFPUNC0) pz1 Cont=20
N1202 G00Z40
N1203 ; END FLYING CUT MACRO
N1204 ; START FLYING CUT MACRO
N1205 G01X201.188Y74.862F280000
N1206 LASER_STARTP(1)
N1207 LASER_ON(6)
N1208 G01Y74.962
N1209 LASER_ON(1)
N1210 G01Y84.738
N1211 LASER_OFF(0)
N1212 SUB1_21:SUB="1_21"; (DXFPUNC0) pz1 Cont=21
N1213 G00Z40
N1214 ; END FLYING CUT MACRO
N1215 G01X32.6Y78.062F280000
N1216 LASER_STARTP(1)
N1217 LASER_ON(6)
N1218 G01X35.537
N1219 LASER_ON(1)
N1220 G03X29.462Y78I-3.037J-0.062
N1221 X35.538I3.038J0
N1222 LASER_OFF(0)
N1223 SUB1_22:SUB="1_22"; (DXFPUNC0) pz1 Cont=22
N1224 G00Z40
N1225 G01X66.464Y116.332F280000
N1226 LASER_STARTP(1)
N1227 LASER_ON(6)
N1228 G01X66.703Y116.093
N1229 LASER_ON(1)
N1230 G01X69.028Y118.418
N1231 G03X68.55Y118.896I-0.239J0.239
N1232 G01X63.812Y114.158
N1233 G03X64.29Y113.68I0.239J-0.239
N1234 G01X66.659Y116.049
N1235 LASER_OFF(0)
N1236 SUB1_23:SUB="1_23"; (DXFPUNC0) pz1 Cont=23
N1237 G00Z40
N1238 G01X226.536Y116.332F280000
N1239 LASER_STARTP(1)
N1240 LASER_ON(6)
N1241 G01X226.297Y116.093
N1242 LASER_ON(1)
N1243 G01X223.972Y118.418
N1244 G02X224.45Y118.896I0.239J0.239
N1245 G01X229.188Y114.158
N1246 G02X228.71Y113.68I-0.239J-0.239
N1247 G01X226.341Y116.049
N1248 LASER_OFF(0)
N1249 SUB1_24:SUB="1_24"; (DXFPUNC0) pz1 Cont=24
N1250 G00Z40
N1251 G01X186.5Y148.562F280000
N1252 LASER_STARTP(1)
N1253 LASER_ON(6)
N1254 G01X188.187
N1255 LASER_ON(1)
N1256 G03X184.812Y148.5I-1.687J-0.062
N1257 X188.188I1.688J0
N1258 LASER_OFF(0)
N1259 SUB1_25:SUB="1_25"; (DXFPUNC0) pz1 Cont=25
N1260 G00Z40
N1261 G01X106.5Y148.562F280000
N1262 LASER_STARTP(1)
N1263 LASER_ON(6)
N1264 G01X108.187
N1265 LASER_ON(1)
N1266 G03X104.812Y148.5I-1.687J-0.062
N1267 X108.188I1.688J0
N1268 LASER_OFF(0)
N1269 SUB1_26:SUB="1_26"; (DXFPUNC0) pz1 Cont=26
N1270 G00Z40
N1271 G01X146.438Y149.458F280000
N1272 LASER_STARTP(1)
N1273 LASER_ON(6)
N1274 G01Y149.12
N1275 LASER_ON(1)
N1276 G01X143.15
N1277 G02Y149.796I0J0.338
N1278 G01X149.85
N1279 G02Y149.12I0J-0.338
N1280 G01X146.5
N1281 LASER_OFF(0)
N1282 SUB1_27:SUB="1_27"; (DXFPUNC0) pz1 Cont=27
N1283 G00Z40
N1284 G01X9.438Y0F280000
N1285 LASER_STARTP(1)
N1286 LASER_ON(6)
N1287 G01Y3
N1288 LASER_ON(1)
N1289 G01Y15.938
N1290 X-0.062
N1291 Y32.562
N1292 X10.638
N1293 Y45.062
N1294 X20.238
N1295 Y57.026
N1296 X27.438Y64.226
N1297 Y93.526
N1298 X86.974Y153.062
N1299 X110.938
N1300 Y162.562
N1301 X182.062
N1302 Y153.062
N1303 X206.026
N1304 X265.562Y93.526
N1305 Y64.226
N1306 X272.762Y57.026
N1307 Y45.062
N1308 X282.362
N1309 Y32.562
N1310 X293.062
N1311 Y15.938
N1312 X283.562
N1313 Y2.938
N1314 X272.762
N1315 Y0.438
N1316 X222.438
N1317 Y10.438
N1318 X216.062
N1319 Y0.438
N1320 X202.938
N1321 Y10.438
N1322 X196.562
N1323 Y0.438
N1324 X95.938
N1325 Y12.438
N1326 X36.062
N1327 Y0.438
N1328 X20.238
N1329 Y2.938
N1330 X9.5
N1331 LASER_OFF(0)
N1332 END:
