(DATE=  06/22/22 : 12:29:57)
(MACHINE=    Messer TH )
(PLANNAME=   00064)
(THICKNESS=  0.8 mm )
(MATERIAL=   Al99)
#CONTOUR MODE [DEV PATH_DEV=0.2 RELEVANT_PATH=0.1]
#TRC [CONV_CIR_TO_LIN=1]
(%%INFO DRILL-TOOL EQUIPPING)
(%%INFO ************************************)
(%%INFO ************************************)
G71
G90
G162
#CS ON [V.E.START_X,V.E.START_Y,0,0,0,V.E.ROTATION]
G00 X0. Y0.
M51
G00 X85.712 Y-130.541
T21
G41 D21
N1 M07
G261
G03 X91.041 Y-129.18 I2.664 J0.68
G03 X82.962 Y-125.778 I-5.329 J-1.361
G03 X38.49 Y-170.25 I60.75 J-105.222
G03 X48.016 Y-175.75 I4.763 J-2.75
G02 X80.0396 Y-140.6888 I95.696 J-55.25
M50
G02 X88.462 Y-135.304 I63.6724 J-90.3112
G03 X91.041 Y-131.902 I-2.75 J4.763
G03 X88.538 Y-128.476 I-2.665 J0.681
G260
M08
G40 D21
M51
G00 X133.712 Y-91.5
G41 D21
N2 M07
G261
G03 X137.397 Y-94.082 I1.842 J-1.291
G03 X129.4241 Y-92.8639 I-3.685 J2.582
M50
G03 X137.397 Y-94.082 I4.2879 J1.3639
G03 X137.397 Y-88.918 I-3.685 J2.582
G260
M08
G40 D21
M51
G00 X153.712 Y-91.5
G41 D21
N3 M07
G261
G03 X157.397 Y-94.082 I1.842 J-1.291
G03 X149.4241 Y-92.8639 I-3.685 J2.582
M50
G03 X157.397 Y-94.082 I4.2879 J1.3639
G03 X157.397 Y-88.918 I-3.685 J2.582
G260
M08
G40 D21
M51
G00 X153.712 Y-70.5
G41 D21
N4 M07
G261
G03 X157.397 Y-73.082 I1.842 J-1.291
G03 X149.4241 Y-71.8639 I-3.685 J2.582
M50
G03 X157.397 Y-73.082 I4.2879 J1.3639
G03 X157.397 Y-67.918 I-3.685 J2.582
G260
M08
G40 D21
M51
G00 X133.712 Y-70.5
G41 D21
N5 M07
G261
G03 X137.397 Y-73.082 I1.842 J-1.291
G03 X129.4241 Y-71.8639 I-3.685 J2.582
M50
G03 X137.397 Y-73.082 I4.2879 J1.3639
G03 X137.397 Y-67.918 I-3.685 J2.582
G260
M08
G40 D21
M51
G00 X133.712 Y-35.
G41 D21
N6 M07
G261
G03 X137.397 Y-37.582 I1.842 J-1.291
G03 X129.4241 Y-36.3639 I-3.685 J2.582
M50
G03 X137.397 Y-37.582 I4.2879 J1.3639
G03 X137.397 Y-32.418 I-3.685 J2.582
G260
M08
G40 D21
M51
G00 X153.712 Y-35.
G41 D21
N7 M07
G261
G03 X157.397 Y-37.582 I1.842 J-1.291
G03 X149.4241 Y-36.3639 I-3.685 J2.582
M50
G03 X157.397 Y-37.582 I4.2879 J1.3639
G03 X157.397 Y-32.418 I-3.685 J2.582
G260
M08
G40 D21
M51
G00 X201.712 Y-130.541
G41 D21
N8 M07
G261
G03 X207.041 Y-129.18 I2.664 J0.68
G03 X204.462 Y-125.778 I-5.329 J-1.361
G03 X143.712 Y-109.5 I-60.75 J-105.222
G03 X143.712 Y-120.5 I0. J-5.5
G02 X190.0875 Y-130.7024 I0. J-110.5
M50
G02 X198.962 Y-135.304 I-46.3755 J-100.2976
G03 X207.041 Y-131.902 I2.75 J4.763
G03 X204.538 Y-128.476 I-2.665 J0.681
G260
M08
G40 D21
M51
G00 X37.36 Y-210.013
G41 D21
N9 M07
G261
G03 X35.113 Y-185.621 I-9.747 J11.402
G01 X21.5 Y-177.762
G02 X20.277 Y-173.904 I1.5 J2.598
G02 X108.84 Y-99.547 I123.435 J-57.096
G03 X123.712 Y-80.215 I-5.128 J19.332
G01 X123.712 Y-23.
G02 X126.712 Y-20. I3. J0.
G01 X160.712 Y-20.
G02 X163.712 Y-23. I0. J-3.
G01 X163.712 Y-80.215
G03 X178.583 Y-99.547 I20. J0.
G02 X222.061 Y-119.836 I-34.871 J-131.453
G02 X222.931 Y-123.788 I-1.728 J-2.452
G01 X205.837 Y-153.396
G02 X201.435 Y-154.293 I-2.598 J1.5
G03 X55.368 Y-193.431 I-57.723 J-76.707
G02 X51.107 Y-194.855 I-2.761 J1.174
G01 X37.494 Y-186.996
G03 X33.03 Y-186.728 I-2.5 J-4.33
G260
M08
G40 D21
M92
#CS OFF
T0
M02
