N10 EXTERN MACHINE_ON (INT)
N11 EXTERN MACHINE_OFF (INT)
N12 EXTERN LASER_ON (INT)
N13 EXTERN LASER_OFF (INT)
N14 EXTERN LASER_STARTP (INT)
N15 EXTERN ORIGEM (INT,INT)
N16 EXTERN TRANSF (INT,INT)
N17 ; CHAPA : 205.3X177.3X0.8 MATERIAL : Al99
N18 ; ORDEM : (Smartdeploy -> JOB000003)
N19 INIT_VAR
N20 MS0600_05_N
N21 MACHINE_ON(0)
N22 ;ORIGEM(205.333,177.257)
N23 ;TRANSF (PX,PY)
N24 G53G00Z95
N25 ;GOTOF "PZ"<<PZ
N26 PZ1:PZ="1";PECA=DXFPAR0105 SUB_1 pz1
N27 TRANS X=1 Y=1
N28 REPEAT SUB_1 END
N29 END_VAR
N30 G53G00Z95
N31 MACHINE_OFF(0)
N32 M30

N1000 ;PECA=DXFPAR0105
N1001 SUB_1:
N1002 SUB1_1:SUB="1_1"; (DXFPAR0105) pz1 Cont=1
N1003 G00Z40
N1004 G00X22.056Y20.061F280000
N1005 LASER_STARTP(1)
N1006 LASER_ON(6)
N1007 G01X20.588Y17.517
N1008 LASER_ON(1)
N1009 G03X27.962Y19.538I2.665J4.74
N1010 G02X68.431Y60.007I95.75J-55.281
N1011 G03X62.993Y69.426I-2.719J4.709
N1012 X18.543Y24.976I60.719J-105.169
N1013 X20.534Y17.548I4.71J-2.719
N1014 LASER_OFF(0)
N1015 SUB1_2:SUB="1_2"; (DXFPAR0105) pz1 Cont=2
N1016 G00Z40
N1017 G01X121.212Y80.195F280000
N1018 LASER_STARTP(1)
N1019 LASER_ON(6)
N1020 G01X118.274
N1021 LASER_ON(1)
N1022 G03X123.712Y74.819I5.438J0.062
N1023 G02X178.993Y60.007I0J-110.562
N1024 G03X184.431Y69.426I2.719J4.709
N1025 X123.712Y85.695I-60.719J-105.169
N1026 X118.274Y80.257I0J-5.438
N1027 LASER_OFF(0)
N1028 SUB1_3:SUB="1_3"; (DXFPAR0105) pz1 Cont=3
N1029 G00Z40
N1030 G01X115.212Y103.819F280000
N1031 LASER_STARTP(1)
N1032 LASER_ON(6)
N1033 G01X118.149
N1034 LASER_ON(1)
N1035 G03X109.274Y103.757I-4.437J-0.062
N1036 X118.15I4.438J0
N1037 LASER_OFF(0)
N1038 SUB1_4:SUB="1_4"; (DXFPAR0105) pz1 Cont=4
N1039 G00Z40
N1040 G01X135.212Y103.819F280000
N1041 LASER_STARTP(1)
N1042 LASER_ON(6)
N1043 G01X138.149
N1044 LASER_ON(1)
N1045 G03X129.274Y103.757I-4.437J-0.062
N1046 X138.15I4.438J0
N1047 LASER_OFF(0)
N1048 SUB1_5:SUB="1_5"; (DXFPAR0105) pz1 Cont=5
N1049 G00Z40
N1050 G01X135.212Y124.819F280000
N1051 LASER_STARTP(1)
N1052 LASER_ON(6)
N1053 G01X138.149
N1054 LASER_ON(1)
N1055 G03X129.274Y124.757I-4.437J-0.062
N1056 X138.15I4.438J0
N1057 LASER_OFF(0)
N1058 SUB1_6:SUB="1_6"; (DXFPAR0105) pz1 Cont=6
N1059 G00Z40
N1060 G01X115.212Y124.819F280000
N1061 LASER_STARTP(1)
N1062 LASER_ON(6)
N1063 G01X118.149
N1064 LASER_ON(1)
N1065 G03X109.274Y124.757I-4.437J-0.062
N1066 X118.15I4.438J0
N1067 LASER_OFF(0)
N1068 SUB1_7:SUB="1_7"; (DXFPAR0105) pz1 Cont=7
N1069 G00Z40
N1070 G01X115.212Y160.319F280000
N1071 LASER_STARTP(1)
N1072 LASER_ON(6)
N1073 G01X118.149
N1074 LASER_ON(1)
N1075 G03X109.274Y160.257I-4.437J-0.062
N1076 X118.15I4.438J0
N1077 LASER_OFF(0)
N1078 SUB1_8:SUB="1_8"; (DXFPAR0105) pz1 Cont=8
N1079 G00Z40
N1080 G01X135.212Y160.319F280000
N1081 LASER_STARTP(1)
N1082 LASER_ON(6)
N1083 G01X138.149
N1084 LASER_ON(1)
N1085 G03X129.274Y160.257I-4.437J-0.062
N1086 X138.15I4.438J0
N1087 LASER_OFF(0)
N1088 SUB1_9:SUB="1_9"; (DXFPAR0105) pz1 Cont=9
N1089 G00Z40
N1090 G01X92.959Y100.777F280000
N1091 LASER_STARTP(1)
N1092 LASER_ON(6)
N1093 G01X94.548Y98.306
N1094 LASER_ON(1)
N1095 G03X103.65Y115.042I-10.836J16.736
N1096 G01Y172.257
N1097 G02X106.712Y175.319I3.062J0
N1098 G01X140.712
N1099 G02X143.774Y172.257I0J-3.062
N1100 G01Y115.042
N1101 G03X158.599Y95.77I19.938J0
N1102 G02X202.097Y75.472I-34.887J-131.513
N1103 X202.984Y71.438I-1.764J-2.503
N1104 G01X185.891Y41.831
N1105 G02X181.398Y40.915I-2.652J1.531
N1106 G03X35.425Y1.802I-57.686J-76.658
N1107 G02X31.076Y0.348I-2.818J1.198
N1108 G01X1.469Y17.442
N1109 G02X0.221Y21.379I1.531J2.652
N1110 X88.824Y95.77I123.491J-57.122
N1111 G03X94.496Y98.272I-5.112J19.272
N1112 LASER_OFF(0)
N1113 END:
