(* Postprocesor: Mar 24 2022 | 10:53:05 *)
(* C:/Lantek/Expert/CNC/1269.CNC : 06/22/22 | 12:30:13 *)
(* Al99 245.262 x 106.989 x 0.8 *)
G90
M6 T111
G0 X236.65 Y78.65
G41
M20
M3
G1 X235.25 Y76
G2 X157.85 Y14 I126.85 J132
G2 X156.65 Y14.8 I157.6 J14.95
G3 X124.9 Y11.1 I140.85 J12
G2 X123.85 Y10.05 I123.9 J11.05
G2 X57.45 Y31.7 I126.85 J132
G2 X57.2 Y33.1 I58 J32.5
G3 X44.75 Y43.15 I50.85 J38
G2 X43.35 Y43.1 I44 J43.8
G2 X10.4 Y95.7 I126.85 J132
G2 X11.35 Y97 I11.35 J96
G1 X19.85 Y97
G2 X20.85 Y96 I19.85 J96
G1 X20.85 Y94
G3 X21.85 Y93 I21.85 J94
G1 X41.85 Y93
G3 X42.85 Y94 I41.85 J94
G1 X42.85 Y96
G2 X43.85 Y97 I43.85 J96
G1 X54.6 Y97
G2 X55.1 Y96.85 I54.6 J96
G1 X96 Y74.8
G3 X141.85 Y68.75 I126.85 J132
G3 X142.35 Y69 I141.6 J69.7
G1 X159.6 Y86.7
G2 X160.3 Y87 I160.3 J86
G1 X169.5 Y87
G2 X170.5 Y86.1 I169.5 J86
G1 X171.75 Y75.85
G3 X172.75 Y75 I172.75 J76
G1 X181 Y75
G3 X182 Y75.85 I181 J76
G1 X183.25 Y86.1
G2 X184.25 Y87 I184.25 J86
G1 X193.65 Y87
G2 X194.65 Y86.05 I193.65 J86
G1 X194.9 Y81.5
G3 X210.25 Y75.65 I203.85 J82
G1 X217.15 Y82.55
G2 X218.85 Y81.85 I217.85 J81.85
G1 X218.85 Y77
G3 X219.85 Y76 I219.85 J77
G1 X235.25 Y76
G1 X238.25 Y76
M5
M21
G40
M30
