(* Postprocesor: Mar 24 2022 | 10:53:05 *)
(* C:/Lantek/Expert/CNC/1270.CNC : 06/22/22 | 12:30:13 *)
(* Al99 200 x 135 x 0.8 *)
G90
M6 T111
G0 X133.45 Y58.25
G41
M20
M3
G1 X136.45 Y58.25
G1 X165.3 Y58.25
G3 X165.3 Y78.25 I165.3 J68.25
G1 X137.2 Y78.25
G2 X136.25 Y78.95 I137.2 J79.25
G3 X111 Y104.15 I100.3 J68.25
G2 X110.3 Y105.1 I111.3 J105.1
G1 X110.3 Y113.35
G3 X109.3 Y114.35 I109.3 J113.35
G1 X91.3 Y114.35
G3 X90.3 Y113.35 I91.3 J113.35
G1 X90.3 Y105.1
G2 X89.6 Y104.15 I89.3 J105.1
G3 X64.35 Y78.95 I100.3 J68.25
G2 X63.4 Y78.25 I63.4 J79.25
G1 X35.3 Y78.25
G3 X35.3 Y58.25 I35.3 J68.25
G1 X63.4 Y58.25
G2 X64.35 Y57.5 I63.4 J57.25
G3 X89.6 Y32.3 I100.3 J68.25
G2 X90.3 Y31.35 I89.3 J31.35
G1 X90.3 Y23.1
G3 X91.3 Y22.1 I91.3 J23.1
G1 X109.3 Y22.1
G3 X110.3 Y23.1 I109.3 J23.1
G1 X110.3 Y31.35
G2 X111 Y32.3 I111.3 J31.35
G3 X136.45 Y58.25 I100.3 J68.25
G1 X137.25 Y61.1
M5
M21
G40
G0 X169 Y35
G41
M20
M3
G1 X175 Y35
G3 X155 Y35 I165 J35
G3 X175 Y35 I165 J35
G1 X172.9 Y37.1
M5
M21
G40
G0 X169 Y100
G41
M20
M3
G1 X175 Y100
G3 X155 Y100 I165 J100
G3 X175 Y100 I165 J100
G1 X172.9 Y102.1
M5
M21
G40
G0 X39 Y100
G41
M20
M3
G1 X45 Y100
G3 X25 Y100 I35 J100
G3 X45 Y100 I35 J100
G1 X42.9 Y102.1
M5
M21
G40
G0 X39 Y35
G41
M20
M3
G1 X45 Y35
G3 X25 Y35 I35 J35
G3 X45 Y35 I35 J35
G1 X42.9 Y37.1
M5
M21
G40
G0 X186.9 Y13.1
G41
M20
M3
G3 X182.7 Y17.3 I184.8 J15.2
G2 X165 Y10 I165 J35
G1 X35 Y10
G2 X10 Y35 I35 J35
G1 X10 Y100
G2 X35 Y125 I35 J100
G1 X165 Y125
G2 X190 Y100 I165 J100
G1 X190 Y35
G2 X182.7 Y17.3 I165 J35
G3 X182.55 Y13.2 I184.8 J15.2
M5
M21
G40
M30
