(* Postprocesor: Mar 24 2022 | 10:53:05 *)
(* C:/Lantek/Expert/CNC/1272.CNC : 06/22/22 | 12:30:16 *)
(* Al99 120 x 120 x 0.8 *)
G90
M22
M6 T111
G0 X79 Y60
G41
M20
M3
G1 X85 Y60
G3 X35 Y60 I60 J60
G3 X83.027 Y50.265 I60 J60
M23
M90 K159 L70
G3 X85 Y60 I60 J60
G1 X82.9 Y62.1
M5
M22
M21
G40
G0 X42.3 Y77.7
M20
M3
G1 X10 Y110
M5
M21
G0 X111.5 Y10
G41
M20
M3
G1 X110 Y10
G1 X20 Y10
G2 X10 Y20 I20 J20
G1 X10 Y110
M23
M22
G1 X100 Y110
G2 X110 Y100 I100 J100
G1 X110 Y20
M23
M90 K159 L70
G1 X110 Y10
G1 X110 Y7
M5
M22
M21
G40
M30
