(* Postprocesor: Mar 24 2022 | 10:53:05 *)
(* C:/Lantek/Expert/CNC/1273.CNC : 06/22/22 | 12:30:16 *)
(* Al99 245.262 x 106.989 x 0.8 *)
G90
M22
M6 T111
G0 X157.1 Y10.75
G41
M20
M3
G1 X156.8 Y13.7
G3 X125 Y10 I140.85 J12
G2 X56.5 Y32.3 I126.85 J132
G3 X44.15 Y42.3 I50.85 J38
G2 X10 Y97 I126.85 J132
G1 X20.85 Y97
G1 X20.85 Y93
G1 X42.85 Y93
G1 X42.85 Y97
G1 X54.85 Y97
G1 X96 Y74.8
G3 X142.15 Y68.8 I126.85 J132
G1 X159.85 Y87
G1 X170.4 Y87
G1 X171.85 Y75
G1 X181.85 Y75
G1 X183.35 Y87
G1 X194.6 Y87
G1 X194.9 Y81.5
G3 X210.25 Y75.65 I203.85 J82
G1 X218.85 Y84.25
G1 X218.85 Y76
G1 X235.25 Y76
G2 X166.535 Y16.624 I126.85 J132
M23
M90 K159 L70
G2 X156.8 Y13.7 I126.85 J132
G1 X153.85 Y13
M22
M5
M21
G40
M30
