(* Postprocesor: Mar 24 2022 | 10:53:05 *)
(* C:/Lantek/Expert/CNC/1274.CNC : 06/22/22 | 12:30:16 *)
(* Al99 200 x 135 x 0.8 *)
G90
M22
M6 T111
G0 X133.45 Y58.25
G41
M20
M3
G1 X136.45 Y58.25
G1 X165.3 Y58.25
G3 X165.3 Y78.25 I165.3 J68.25
G1 X136.45 Y78.25
G3 X110.3 Y104.35 I100.3 J68.25
G1 X110.3 Y114.35
G1 X90.3 Y114.35
G1 X90.3 Y104.35
G3 X64.15 Y78.25 I100.3 J68.25
G1 X35.3 Y78.25
G3 X35.3 Y58.25 I35.3 J68.25
G1 X64.15 Y58.25
G3 X90.3 Y32.1 I100.3 J68.25
G1 X90.3 Y22.1
G1 X110.3 Y22.1
G1 X110.3 Y32.1
G3 X132.569 Y49.13 I100.3 J68.25
M23
M90 K159 L70
G3 X136.45 Y58.25 I100.3 J68.25
G1 X137.25 Y61.1
M5
M22
M21
G40
G0 X169 Y35
G41
M20
M3
G1 X175 Y35
G3 X155 Y35 I165 J35
G3 X170.403 Y26.585 I165 J35
M23
M90 K159 L70
G3 X175 Y35 I165 J35
G1 X172.9 Y37.1
M5
M22
M21
G40
G0 X169 Y100
G41
M20
M3
G1 X175 Y100
G3 X155 Y100 I165 J100
G3 X170.403 Y91.585 I165 J100
M23
M90 K159 L70
G3 X175 Y100 I165 J100
G1 X172.9 Y102.1
M5
M22
M21
G40
G0 X39 Y100
G41
M20
M3
G1 X45 Y100
G3 X25 Y100 I35 J100
G3 X40.403 Y91.585 I35 J100
M23
M90 K159 L70
G3 X45 Y100 I35 J100
G1 X42.9 Y102.1
M5
M22
M21
G40
G0 X39 Y35
G41
M20
M3
G1 X45 Y35
G3 X25 Y35 I35 J35
G3 X40.403 Y26.585 I35 J35
M23
M90 K159 L70
G3 X45 Y35 I35 J35
G1 X42.9 Y37.1
M5
M22
M21
G40
G0 X186.9 Y13.1
G41
M20
M3
G3 X182.7 Y17.3 I184.8 J15.2
G2 X165 Y10 I165 J35
G1 X35 Y10
G2 X10 Y35 I35 J35
G1 X10 Y100
G2 X35 Y125 I35 J100
G1 X165 Y125
G2 X190 Y100 I165 J100
G1 X190 Y35
G2 X188.14 Y25.537 I165 J35
M23
M90 K159 L70
G2 X182.7 Y17.3 I165 J35
G3 X182.55 Y13.2 I184.8 J15.2
M5
M22
M21
G40
M30
