(* Postprocesor: Mar 24 2022 | 10:53:05 *)
(* C:/Lantek/Expert/CNC/1275.CNC : 06/22/22 | 12:30:16 *)
(* Al99 223.333 x 195.257 x 0.8 *)
G90
M22
M6 T111
G0 X51.35 Y56.65
G41
M20
M3
G3 X55.6 Y52.4 I53.45 J54.5
G2 X78.45 Y69.95 I133.7 J-25.75
G3 X72.95 Y79.5 I75.7 J74.7
G3 X28.5 Y35 I133.7 J-25.75
G3 X38 Y29.5 I33.25 J32.25
G2 X48.838 Y45.028 I133.7 J-25.75
M23
M90 K159 L70
G2 X55.6 Y52.4 I133.7 J-25.75
G3 X55.6 Y56.6 I53.45 J54.5
M5
M22
M21
G40
G0 X163.85 Y86.8
G41
M20
M3
G3 X162.3 Y81 I163.1 J83.9
G2 X188.95 Y69.95 I133.7 J-25.75
G3 X194.45 Y79.5 I191.7 J74.7
G3 X133.7 Y95.75 I133.7 J-25.75
G3 X133.7 Y84.75 I133.7 J90.25
G2 X152.605 Y83.121 I133.7 J-25.75
M23
M90 K159 L70
G2 X162.3 Y81 I133.7 J-25.75
G3 X165.95 Y83.1 I163.1 J83.9
M5
M22
M21
G40
G0 X143.7 Y113.75
G41
M20
M3
G1 X148.2 Y113.75
G3 X139.2 Y113.75 I143.7 J113.75
G3 X140.972 Y110.172 I143.7 J113.75
M23
M90 K159 L70
G3 X148.2 Y113.75 I143.7 J113.75
G1 X146.1 Y115.9
M22
M5
M21
G40
G0 X143.7 Y134.75
G41
M20
M3
G1 X148.2 Y134.75
G3 X139.2 Y134.75 I143.7 J134.75
G3 X140.972 Y131.172 I143.7 J134.75
M23
M90 K159 L70
G3 X148.2 Y134.75 I143.7 J134.75
G1 X146.1 Y136.9
M22
M5
M21
G40
G0 X123.7 Y134.75
G41
M20
M3
G1 X128.2 Y134.75
G3 X119.2 Y134.75 I123.7 J134.75
G3 X120.972 Y131.172 I123.7 J134.75
M23
M90 K159 L70
G3 X128.2 Y134.75 I123.7 J134.75
G1 X126.1 Y136.9
M22
M5
M21
G40
G0 X123.7 Y113.75
G41
M20
M3
G1 X128.2 Y113.75
G3 X119.2 Y113.75 I123.7 J113.75
G3 X120.972 Y110.172 I123.7 J113.75
M23
M90 K159 L70
G3 X128.2 Y113.75 I123.7 J113.75
G1 X126.1 Y115.9
M22
M5
M21
G40
G0 X123.7 Y170.25
G41
M20
M3
G1 X128.2 Y170.25
G3 X119.2 Y170.25 I123.7 J170.25
G3 X120.972 Y166.672 I123.7 J170.25
M23
M90 K159 L70
G3 X128.2 Y170.25 I123.7 J170.25
G1 X126.1 Y172.4
M22
M5
M21
G40
G0 X143.7 Y170.25
G41
M20
M3
G1 X148.2 Y170.25
G3 X139.2 Y170.25 I143.7 J170.25
G3 X140.972 Y166.672 I143.7 J170.25
M23
M90 K159 L70
G3 X148.2 Y170.25 I143.7 J170.25
G1 X146.1 Y172.4
M22
M5
M21
G40
G0 X209.6 Y63.65
G41
M20
M3
G3 X204.4 Y66.65 I207 J65.15
G1 X195.85 Y51.85
G2 X191.45 Y50.95 I193.25 J53.35
G3 X45.35 Y11.85 I133.7 J-25.75
G2 X41.1 Y10.4 I42.6 J13
G1 X11.5 Y27.5
G2 X10.3 Y31.35 I13 J30.1
G2 X98.85 Y105.7 I133.7 J-25.75
G3 X113.7 Y125.05 I93.7 J125.05
G1 X113.7 Y182.25
G2 X116.7 Y185.25 I116.7 J182.25
G1 X150.7 Y185.25
G2 X153.7 Y182.25 I150.7 J182.25
G1 X153.7 Y125.05
G3 X168.6 Y105.7 I173.7 J125.05
G2 X212.05 Y85.4 I133.7 J-25.75
G2 X212.95 Y81.45 I210.35 J82.95
G1 X209.389 Y75.285
M23
M90 K159 L70
G1 X204.4 Y66.65
G3 X205.5 Y62.55 I207 J65.15
M5
M22
M21
G40
M30
