N10 EXTERN MACHINE_ON (INT)
N11 EXTERN MACHINE_OFF (INT)
N12 EXTERN LASER_ON (INT)
N13 EXTERN LASER_OFF (INT)
N14 EXTERN LASER_STARTP (INT)
N15 EXTERN ORIGEM (INT,INT)
N16 EXTERN TRANSF (INT,INT)
N17 ; CHAPA : 203.3X175.3X0.8 MATERIAL : Al99
N18 ; ORDEM : (Smartdeploy -> JOB000003)
N19 INIT_VAR
N20 SS0800
N21 MACHINE_ON(0)
N22 ;ORIGEM(203.333,175.257)
N23 ;TRANSF (PX,PY)
N24 G53G00Z95
N25 ;GOTOF "PZ"<<PZ
N26 PZ1:PZ="1";PECA=DXFPAR0105 SUB_1 pz1
N27 TRANS X=0 Y=0
N28 REPEAT SUB_1 END
N29 END_VAR
N30 G53G00Z95
N31 MACHINE_OFF(0)
N32 M30

N1000 ;PECA=DXFPAR0105
N1001 SUB_1:
N1002 SUB1_1:SUB="1_1"; (DXFPAR0105) pz1 Cont=1
N1003 G00Z40
N1004 G00X22.364Y21.189F280000
N1005 LASER_STARTP(1)
N1006 LASER_ON(6)
N1007 G01X20.324Y18.989
N1008 LASER_ON(1)
N1009 G03X20.54Y17.559I0.679J-0.629
N1010 X27.951Y19.545I2.713J4.698
N1011 G02X68.424Y60.018I95.761J-55.288
N1012 G03X62.999Y69.414I-2.712J4.698
N1013 X18.554Y24.97I60.713J-105.157
N1014 X20.54Y17.559I4.699J-2.713
N1015 LASER_OFF(0)
N1016 SUB1_2:SUB="1_2"; (DXFPAR0105) pz1 Cont=2
N1017 G00Z40
N1018 G01X122.342Y80.492F280000
N1019 LASER_STARTP(1)
N1020 LASER_ON(6)
N1021 G01X119.417Y81.159
N1022 LASER_ON(1)
N1023 G03X118.287Y80.257I-0.205J-0.902
N1024 X123.712Y74.832I5.425J0
N1025 G02X178.999Y60.018I0J-110.575
N1026 G03X184.424Y69.414I2.713J4.698
N1027 X123.712Y85.682I-60.712J-105.157
N1028 X118.287Y80.257I0J-5.425
N1029 LASER_OFF(0)
N1030 SUB1_3:SUB="1_3"; (DXFPAR0105) pz1 Cont=3
N1031 G00Z40
N1032 G01X116.212Y103.832F280000
N1033 LASER_STARTP(1)
N1034 LASER_ON(6)
N1035 G01X118.136
N1036 LASER_ON(1)
N1037 G03X109.287Y103.757I-4.424J-0.075
N1038 X118.137I4.425J0
N1039 LASER_OFF(0)
N1040 SUB1_4:SUB="1_4"; (DXFPAR0105) pz1 Cont=4
N1041 G00Z40
N1042 G01X136.212Y103.832F280000
N1043 LASER_STARTP(1)
N1044 LASER_ON(6)
N1045 G01X138.136
N1046 LASER_ON(1)
N1047 G03X129.287Y103.757I-4.424J-0.075
N1048 X138.137I4.425J0
N1049 LASER_OFF(0)
N1050 SUB1_5:SUB="1_5"; (DXFPAR0105) pz1 Cont=5
N1051 G00Z40
N1052 G01X136.212Y124.832F280000
N1053 LASER_STARTP(1)
N1054 LASER_ON(6)
N1055 G01X138.136
N1056 LASER_ON(1)
N1057 G03X129.287Y124.757I-4.424J-0.075
N1058 X138.137I4.425J0
N1059 LASER_OFF(0)
N1060 SUB1_6:SUB="1_6"; (DXFPAR0105) pz1 Cont=6
N1061 G00Z40
N1062 G01X116.212Y124.832F280000
N1063 LASER_STARTP(1)
N1064 LASER_ON(6)
N1065 G01X118.136
N1066 LASER_ON(1)
N1067 G03X109.287Y124.757I-4.424J-0.075
N1068 X118.137I4.425J0
N1069 LASER_OFF(0)
N1070 SUB1_7:SUB="1_7"; (DXFPAR0105) pz1 Cont=7
N1071 G00Z40
N1072 G01X116.212Y160.332F280000
N1073 LASER_STARTP(1)
N1074 LASER_ON(6)
N1075 G01X118.136
N1076 LASER_ON(1)
N1077 G03X109.287Y160.257I-4.424J-0.075
N1078 X118.137I4.425J0
N1079 LASER_OFF(0)
N1080 SUB1_8:SUB="1_8"; (DXFPAR0105) pz1 Cont=8
N1081 G00Z40
N1082 G01X136.212Y160.332F280000
N1083 LASER_STARTP(1)
N1084 LASER_ON(6)
N1085 G01X138.136
N1086 LASER_ON(1)
N1087 G03X129.287Y160.257I-4.424J-0.075
N1088 X138.137I4.425J0
N1089 LASER_OFF(0)
N1090 SUB1_9:SUB="1_9"; (DXFPAR0105) pz1 Cont=9
N1091 G00Z40
N1092 G01X91.698Y101.208F280000
N1093 LASER_STARTP(1)
N1094 LASER_ON(6)
N1095 G01X93.185Y98.602
N1096 LASER_ON(1)
N1097 G03X94.489Y98.283I0.803J0.459
N1098 X103.637Y115.042I-10.777J16.759
N1099 G01Y172.257
N1100 G02X106.712Y175.332I3.075J0
N1101 G01X140.712
N1102 G02X143.787Y172.257I0J-3.075
N1103 G01Y115.042
N1104 G03X158.603Y95.783I19.925J0
N1105 G02X202.104Y75.482I-34.891J-131.526
N1106 X202.996Y71.431I-1.771J-2.513
N1107 G01X185.902Y41.824
N1108 G02X181.39Y40.905I-2.663J1.538
N1109 G03X35.437Y1.797I-57.678J-76.648
N1110 G02X31.07Y0.337I-2.83J1.203
N1111 G01X1.462Y17.431
N1112 G02X0.209Y21.385I1.538J2.663
N1113 X88.821Y95.783I123.503J-57.128
N1114 G03X94.489Y98.283I-5.109J19.259
N1115 LASER_OFF(0)
N1116 END:
