N10 EXTERN MACHINE_ON (INT)
N11 EXTERN MACHINE_OFF (INT)
N12 EXTERN LASER_ON (INT)
N13 EXTERN LASER_OFF (INT)
N14 EXTERN LASER_STARTP (INT)
N15 EXTERN ORIGEM (INT,INT)
N16 EXTERN TRANSF (INT,INT)
N17 ; CHAPA : 110X110X0.8 MATERIAL : Al99
N18 ; ORDEM : (Smartdeploy -> JOB000003)
N19 INIT_VAR
N20 AL0100
N21 MACHINE_ON(0)
N22 ;ORIGEM(110,110)
N23 ;TRANSF (PX,PY)
N24 G53G00Z95
N25 ;GOTOF "PZ"<<PZ
N26 PZ1:PZ="1";PECA=Pieza_prueba_Maxwell SUB_1 pz1
N27 TRANS X=5 Y=5
N28 REPEAT SUB_1 END
N29 END_VAR
N30 G53G00Z95
N31 MACHINE_OFF(0)
N32 M30

N1000 ;PECA=Pieza_prueba_Maxwell
N1001 SUB_1:
N1002 SUB1_1:SUB="1_1"; (Pieza_prueba_Maxwell) pz1 Cont=1
N1003 G00Z40
N1004 G00X72Y50.005F280000
N1005 LASER_STARTP(1)
N1006 LASER_ON(1)
N1007 G01X74.995Y50
N1008 G03X25.005I-24.995J0
N1009 X74.975Y49I24.995J0
N1010 LASER_OFF(0)
N1011 SUB1_2:SUB="1_2"; (Pieza_prueba_Maxwell) pz1 Cont=2
N1012 G00Z40
N1013 G01X32.322Y67.678F280000
N1014 LASER_STARTP(1)
N1015 LASER_ON(1)
N1016 G01X0Y100
N1017 LASER_OFF(0)
N1018 SUB1_3:SUB="1_3"; (Pieza_prueba_Maxwell) pz1 Cont=3
N1019 G00Z40
N1020 G00X103Y89.995F280000
N1021 LASER_STARTP(1)
N1022 LASER_ON(1)
N1023 G01X100
N1024 X100.005Y0
N1025 X10Y-0.005
N1026 G02X-0.005Y10I0J10.005
N1027 G01Y100
N1028 X90Y100.005
N1029 G02X99.955Y90.998I0J-10.005
N1030 LASER_OFF(0)
N1031 END:
