N10 EXTERN MACHINE_ON (INT)
N11 EXTERN MACHINE_OFF (INT)
N12 EXTERN LASER_ON (INT)
N13 EXTERN LASER_OFF (INT)
N14 EXTERN LASER_STARTP (INT)
N15 EXTERN ORIGEM (INT,INT)
N16 EXTERN TRANSF (INT,INT)
N17 ; CHAPA : 190X125X0.8 MATERIAL : Al99
N18 ; ORDEM : (Smartdeploy -> JOB000003)
N19 INIT_VAR
N20 AL0100
N21 MACHINE_ON(0)
N22 ;ORIGEM(190,125)
N23 ;TRANSF (PX,PY)
N24 G53G00Z95
N25 ;GOTOF "PZ"<<PZ
N26 PZ1:PZ="1";PECA=Pieza_prueba_Maxwell_2 SUB_1 pz1
N27 TRANS X=5 Y=5
N28 REPEAT SUB_1 END
N29 END_VAR
N30 G53G00Z95
N31 MACHINE_OFF(0)
N32 M30

N1000 ;PECA=Pieza_prueba_Maxwell_2
N1001 SUB_1:
N1002 SUB1_1:SUB="1_1"; (Pieza_prueba_Maxwell_2) pz1 Cont=1
N1003 G00Z40
N1004 G00X32Y25.005F280000
N1005 LASER_STARTP(1)
N1006 LASER_ON(1)
N1007 G01X34.995Y25
N1008 G03X15.005I-9.995J0
N1009 X34.995I9.995J0
N1010 LASER_OFF(0)
N1011 SUB1_2:SUB="1_2"; (Pieza_prueba_Maxwell_2) pz1 Cont=2
N1012 G00Z40
N1013 G01X32Y90.005F280000
N1014 LASER_STARTP(1)
N1015 LASER_ON(1)
N1016 G01X34.995Y90
N1017 G03X15.005I-9.995J0
N1018 X34.995I9.995J0
N1019 LASER_OFF(0)
N1020 SUB1_3:SUB="1_3"; (Pieza_prueba_Maxwell_2) pz1 Cont=3
N1021 G00Z40
N1022 G01X53.353Y51.119F280000
N1023 LASER_STARTP(1)
N1024 LASER_ON(1)
N1025 G01X54.153Y48.228
N1026 G03X80.292Y22.089I36.138J9.999
N1027 G01X80.296Y12.085
N1028 X100.291Y12.09
N1029 X100.289Y22.089
N1030 G03X126.428Y48.228I-9.998J36.138
N1031 G01X155.291Y48.232
N1032 G03Y68.222I0J9.995
N1033 G01X126.428Y68.225
N1034 G03X100.289Y94.364I-36.137J-9.998
N1035 G01X100.286Y104.369
N1036 X80.291Y104.364
N1037 X80.292Y94.364
N1038 G03X54.153Y68.225I9.999J-36.137
N1039 G01X25.291Y68.222
N1040 G03Y48.232I0J-9.995
N1041 G01X54.148
N1042 LASER_OFF(0)
N1043 SUB1_4:SUB="1_4"; (Pieza_prueba_Maxwell_2) pz1 Cont=4
N1044 G00Z40
N1045 G00X162Y90.005F280000
N1046 LASER_STARTP(1)
N1047 LASER_ON(1)
N1048 G01X164.995Y90
N1049 G03X145.005I-9.995J0
N1050 X164.995I9.995J0
N1051 LASER_OFF(0)
N1052 SUB1_5:SUB="1_5"; (Pieza_prueba_Maxwell_2) pz1 Cont=5
N1053 G00Z40
N1054 G01X162Y25.005F280000
N1055 LASER_STARTP(1)
N1056 LASER_ON(1)
N1057 G01X164.995Y25
N1058 G03X145.005I-9.995J0
N1059 X164.995I9.995J0
N1060 LASER_OFF(0)
N1061 SUB1_6:SUB="1_6"; (Pieza_prueba_Maxwell_2) pz1 Cont=6
N1062 G00Z40
N1063 G00X5.205Y5.197F280000
N1064 LASER_STARTP(1)
N1065 LASER_ON(1)
N1066 G01X7.319Y7.319
N1067 G03X25Y-0.005I17.681J17.681
N1068 G01X155
N1069 G03X180.005Y25I0J25.005
N1070 G01Y90
N1071 G03X155Y115.005I-25.005J0
N1072 G01X25
N1073 G03X-0.005Y90I0J-25.005
N1074 G01Y25
N1075 G03X7.319Y7.319I25.005J0
N1076 LASER_OFF(0)
N1077 END:
