N10 EXTERN MACHINE_ON (INT)
N11 EXTERN MACHINE_OFF (INT)
N12 EXTERN LASER_ON (INT)
N13 EXTERN LASER_OFF (INT)
N14 EXTERN LASER_STARTP (INT)
N15 EXTERN ORIGEM (INT,INT)
N16 EXTERN TRANSF (INT,INT)
N17 ; CHAPA : 235.3X97X0.8 MATERIAL : Al99
N18 ; ORDEM : (Smartdeploy -> JOB000003)
N19 INIT_VAR
N20 AL0100
N21 MACHINE_ON(0)
N22 ;ORIGEM(235.262,96.989)
N23 ;TRANSF (PX,PY)
N24 G53G00Z95
N25 ;GOTOF "PZ"<<PZ
N26 PZ1:PZ="1";PECA=DXFPART7 SUB_1 pz1
N27 TRANS X=5 Y=5
N28 REPEAT SUB_1 END
N29 END_VAR
N30 G53G00Z95
N31 MACHINE_OFF(0)
N32 M30

N1000 ;PECA=DXFPART7
N1001 SUB_1:
N1002 SUB1_1:SUB="1_1"; (DXFPART7) pz1 Cont=1
N1003 G00Z40
N1004 G00X32.525Y29.792F280000
N1005 LASER_STARTP(1)
N1006 LASER_ON(1)
N1007 G01X34.148Y32.315
N1008 G02X46.51Y22.321I6.724J-4.326
N1009 G03X114.992Y-0.001I70.362J99.669
N1010 G02X146.774Y3.709I15.88J1.99
N1011 G03X225.265Y65.988I-29.902J118.281
N1012 G01X208.872Y65.994
N1013 X208.877Y74.259
N1014 X200.232Y65.629
N1015 G02X184.889Y71.52I-6.36J6.36
N1016 G01X184.607Y76.99
N1017 X173.342Y76.994
N1018 X171.867Y64.99
N1019 X161.872Y64.994
N1020 X160.407Y76.99
N1021 X149.872Y76.994
N1022 X132.125Y58.81
N1023 G02X85.995Y64.797I-15.253J63.179
N1024 G01X44.874Y86.994
N1025 X32.872
N1026 X32.867Y82.989
N1027 X10.872Y82.994
N1028 X10.877Y86.989
N1029 X-0.005Y86.988
N1030 G03X33.409Y33I116.877J35.002
N1031 LASER_OFF(0)
N1032 END:
