N10 EXTERN MACHINE_ON (INT)
N11 EXTERN MACHINE_OFF (INT)
N12 EXTERN LASER_ON (INT)
N13 EXTERN LASER_OFF (INT)
N14 EXTERN LASER_STARTP (INT)
N15 EXTERN ORIGEM (INT,INT)
N16 EXTERN TRANSF (INT,INT)
N17 ; CHAPA : 303X172X0.8 MATERIAL : Al99
N18 ; ORDEM : (Smartdeploy -> JOB000003)
N19 INIT_VAR
N20 AL0100
N21 MACHINE_ON(0)
N22 ;ORIGEM(303,172)
N23 ;TRANSF (PX,PY)
N24 G53G00Z95
N25 ;GOTOF "PZ"<<PZ
N26 PZ1:PZ="1";PECA=DXFPUNC0 SUB_1 pz1
N27 TRANS X=5 Y=4.5
N28 REPEAT SUB_1 END
N29 END_VAR
N30 G53G00Z95
N31 MACHINE_OFF(0)
N32 M30

N1000 ;PECA=DXFPUNC0
N1001 SUB_1:
N1002 SUB1_1:SUB="1_1"; (DXFPUNC0) pz1 Cont=1
N1003 G00Z40
N1004 G00X25.4Y50.505F280000
N1005 LASER_STARTP(1)
N1006 LASER_ON(1)
N1007 G01X28.395Y50.5
N1008 G03X22.205I-3.095J0
N1009 X28.395I3.095J0
N1010 LASER_OFF(0)
N1011 SUB1_2:SUB="1_2"; (DXFPUNC0) pz1 Cont=2
N1012 G00Z40
N1013 G01X42.6Y39.505F280000
N1014 LASER_STARTP(1)
N1015 LASER_ON(1)
N1016 G01X44.845Y39.5
N1017 G03X40.355I-2.245J0
N1018 X44.845I2.245J0
N1019 LASER_OFF(0)
N1020 SUB1_3:SUB="1_3"; (DXFPUNC0) pz1 Cont=3
N1021 G00Z40
N1022 G01X48.972Y60.076F280000
N1023 LASER_STARTP(1)
N1024 LASER_ON(1)
N1025 G01X51.217Y60.071
N1026 G03X46.727I-2.245J0
N1027 X51.217I2.245J0
N1028 LASER_OFF(0)
N1029 SUB1_4:SUB="1_4"; (DXFPUNC0) pz1 Cont=4
N1030 G00Z40
N1031 G01X59.036Y53.541F280000
N1032 LASER_STARTP(1)
N1033 LASER_ON(1)
N1034 G01X60.631Y53.536
N1035 G03X57.441I-1.595J0
N1036 X60.631I1.595J0
N1037 LASER_OFF(0)
N1038 SUB1_5:SUB="1_5"; (DXFPUNC0) pz1 Cont=5
N1039 G00Z40
N1040 G01X69.1Y47.005F280000
N1041 LASER_STARTP(1)
N1042 LASER_ON(1)
N1043 G01X71.345Y47
N1044 G03X66.855I-2.245J0
N1045 X71.345I2.245J0
N1046 LASER_OFF(0)
N1047 SUB1_6:SUB="1_6"; (DXFPUNC0) pz1 Cont=6
N1048 G00Z40
N1049 G01X64.992Y62.784F280000
N1050 LASER_STARTP(1)
N1051 LASER_ON(1)
N1052 G01X63.358Y60.268
N1053 X76.985Y51.425
N1054 G03X82.425Y59.803I2.72J4.189
N1055 G01X55.169Y77.504
N1056 G03X49.728Y69.125I-2.721J-4.19
N1057 G01X63.356Y60.275
N1058 LASER_OFF(0)
N1059 SUB1_7:SUB="1_7"; (DXFPUNC0) pz1 Cont=7
N1060 G00Z40
N1061 G01X89.6Y39.505F280000
N1062 LASER_STARTP(1)
N1063 LASER_ON(1)
N1064 G01X91.845Y39.5
N1065 G03X87.355I-2.245J0
N1066 X91.845I2.245J0
N1067 LASER_OFF(0)
N1068 SUB1_8:SUB="1_8"; (DXFPUNC0) pz1 Cont=8
N1069 G00Z40
N1070 G01X94.346Y76.304F280000
N1071 LASER_STARTP(1)
N1072 LASER_ON(1)
N1073 G01X91.747Y74.804
N1074 X91.755Y84.8
N1075 X98.25Y84.795
N1076 X98.245Y74.8
N1077 X91.75Y74.805
N1078 LASER_OFF(0)
N1079 SUB1_9:SUB="1_9"; (DXFPUNC0) pz1 Cont=9
N1080 G00Z40
N1081 G01X66.424Y116.292F280000
N1082 LASER_STARTP(1)
N1083 LASER_ON(1)
N1084 G01X66.707Y116.009
N1085 X69.068Y118.378
N1086 G03X68.51Y118.936I-0.279J0.279
N1087 G01X63.772Y114.199
N1088 G03X64.331Y113.64I0.279J-0.28
N1089 G01X66.699Y116.009
N1090 LASER_OFF(0)
N1091 SUB1_10:SUB="1_10"; (DXFPUNC0) pz1 Cont=10
N1092 G00Z40
N1093 G01X32.6Y78.005F280000
N1094 LASER_STARTP(1)
N1095 LASER_ON(1)
N1096 G01X35.595Y78
N1097 G03X29.405I-3.095J0
N1098 X35.595I3.095J0
N1099 LASER_OFF(0)
N1100 SUB1_11:SUB="1_11"; (DXFPUNC0) pz1 Cont=11
N1101 G00Z40
N1102 G01X106.5Y148.505F280000
N1103 LASER_STARTP(1)
N1104 LASER_ON(1)
N1105 G01X108.245Y148.5
N1106 G03X104.755I-1.745J0
N1107 X108.245I1.745J0
N1108 LASER_OFF(0)
N1109 SUB1_12:SUB="1_12"; (DXFPUNC0) pz1 Cont=12
N1110 G00Z40
N1111 G01X146.495Y149.458F280000
N1112 LASER_STARTP(1)
N1113 LASER_ON(1)
N1114 G01Y149.058
N1115 X143.15Y149.063
N1116 G02Y149.853I0J0.395
N1117 G01X149.85
N1118 G02Y149.063I0J-0.395
N1119 G01X146.5
N1120 LASER_OFF(0)
N1121 SUB1_13:SUB="1_13"; (DXFPUNC0) pz1 Cont=13
N1122 G00Z40
N1123 G01X186.5Y148.505F280000
N1124 LASER_STARTP(1)
N1125 LASER_ON(1)
N1126 G01X188.245Y148.5
N1127 G03X184.755I-1.745J0
N1128 X188.245I1.745J0
N1129 LASER_OFF(0)
N1130 SUB1_14:SUB="1_14"; (DXFPUNC0) pz1 Cont=14
N1131 G00Z40
N1132 G01X226.576Y116.292F280000
N1133 LASER_STARTP(1)
N1134 LASER_ON(1)
N1135 G01X226.293Y116.009
N1136 X223.932Y118.378
N1137 G02X224.49Y118.936I0.279J0.279
N1138 G01X229.228Y114.199
N1139 G02X228.669Y113.64I-0.279J-0.28
N1140 G01X226.301Y116.009
N1141 LASER_OFF(0)
N1142 SUB1_15:SUB="1_15"; (DXFPUNC0) pz1 Cont=15
N1143 G00Z40
N1144 G01X197.346Y76.304F280000
N1145 LASER_STARTP(1)
N1146 LASER_ON(1)
N1147 G01X194.747Y74.804
N1148 X194.755Y84.8
N1149 X201.25Y84.795
N1150 X201.245Y74.8
N1151 X194.75Y74.805
N1152 LASER_OFF(0)
N1153 SUB1_16:SUB="1_16"; (DXFPUNC0) pz1 Cont=16
N1154 G00Z40
N1155 G01X260.6Y78.005F280000
N1156 LASER_STARTP(1)
N1157 LASER_ON(1)
N1158 G01X263.595Y78
N1159 G03X257.405I-3.095J0
N1160 X263.595I3.095J0
N1161 LASER_OFF(0)
N1162 SUB1_17:SUB="1_17"; (DXFPUNC0) pz1 Cont=17
N1163 G00Z40
N1164 G01X267.8Y50.505F280000
N1165 LASER_STARTP(1)
N1166 LASER_ON(1)
N1167 G01X270.795Y50.5
N1168 G03X264.605I-3.095J0
N1169 X270.795I3.095J0
N1170 LASER_OFF(0)
N1171 SUB1_18:SUB="1_18"; (DXFPUNC0) pz1 Cont=18
N1172 G00Z40
N1173 G01X214.6Y10.505F280000
N1174 LASER_STARTP(1)
N1175 LASER_ON(1)
N1176 G01X215.595Y10.5
N1177 G03X213.605I-0.995J0
N1178 X215.595I0.995J0
N1179 LASER_OFF(0)
N1180 SUB1_19:SUB="1_19"; (DXFPUNC0) pz1 Cont=19
N1181 G00Z40
N1182 G01X211.2Y10.505F280000
N1183 LASER_STARTP(1)
N1184 LASER_ON(1)
N1185 G01X212.195Y10.5
N1186 G03X210.205I-0.995J0
N1187 X212.195I0.995J0
N1188 LASER_OFF(0)
N1189 SUB1_20:SUB="1_20"; (DXFPUNC0) pz1 Cont=20
N1190 G00Z40
N1191 G01X207.8Y10.505F280000
N1192 LASER_STARTP(1)
N1193 LASER_ON(1)
N1194 G01X208.795Y10.5
N1195 G03X206.805I-0.995J0
N1196 X208.795I0.995J0
N1197 LASER_OFF(0)
N1198 SUB1_21:SUB="1_21"; (DXFPUNC0) pz1 Cont=21
N1199 G00Z40
N1200 G01X204.4Y10.505F280000
N1201 LASER_STARTP(1)
N1202 LASER_ON(1)
N1203 G01X205.395Y10.5
N1204 G03X203.405I-0.995J0
N1205 X205.395I0.995J0
N1206 LASER_OFF(0)
N1207 SUB1_22:SUB="1_22"; (DXFPUNC0) pz1 Cont=22
N1208 G00Z40
N1209 G00X9.495Y0F280000
N1210 LASER_STARTP(1)
N1211 LASER_ON(1)
N1212 G01Y3
N1213 Y16
N1214 X0Y15.995
N1215 X-0.005Y32.5
N1216 X10.7Y32.505
N1217 X10.695Y45
N1218 X20.3Y45.005
N1219 X20.295Y57
N1220 X27.496Y64.204
N1221 X27.495Y93.5
N1222 X86.996Y153.004
N1223 X111Y153.005
N1224 X110.995Y162.5
N1225 X182Y162.505
N1226 X182.005Y153
N1227 X206Y153.005
N1228 X265.504Y93.504
N1229 Y64.2
N1230 X272.704Y57.004
N1231 Y45
N1232 X282.3Y45.005
N1233 X282.305Y32.5
N1234 X293Y32.505
N1235 X293.005Y16
N1236 X283.5Y15.995
N1237 X283.505Y3
N1238 X272.7Y2.995
N1239 X272.705Y0.5
N1240 X222.5Y0.495
N1241 X222.495Y10.5
N1242 X216Y10.495
N1243 X216.005Y0.5
N1244 X203Y0.495
N1245 X202.995Y10.5
N1246 X196.5Y10.495
N1247 X196.505Y0.5
N1248 X96Y0.495
N1249 X95.995Y12.5
N1250 X36Y12.495
N1251 X36.005Y0.5
N1252 X20.3Y0.495
N1253 X20.295Y3
N1254 X9.5Y2.995
N1255 LASER_OFF(0)
N1256 END:
