N10 EXTERN MACHINE_ON (INT)
N11 EXTERN MACHINE_OFF (INT)
N12 EXTERN LASER_ON (INT)
N13 EXTERN LASER_OFF (INT)
N14 EXTERN LASER_STARTP (INT)
N15 EXTERN ORIGEM (INT,INT)
N16 EXTERN TRANSF (INT,INT)
N17 ; CHAPA : 213.3X185.3X0.8 MATERIAL : Al99
N18 ; ORDEM : (Smartdeploy -> JOB000003)
N19 INIT_VAR
N20 AL0100
N21 MACHINE_ON(0)
N22 ;ORIGEM(213.333,185.257)
N23 ;TRANSF (PX,PY)
N24 G53G00Z95
N25 ;GOTOF "PZ"<<PZ
N26 PZ1:PZ="1";PECA=DXFPAR0105 SUB_1 pz1
N27 TRANS X=2.28 Y=5
N28 REPEAT SUB_1 END
N29 END_VAR
N30 G53G00Z95
N31 MACHINE_OFF(0)
N32 M30

N1000 ;PECA=DXFPAR0105
N1001 SUB_1:
N1002 SUB1_1:SUB="1_1"; (DXFPAR0105) pz1 Cont=1
N1003 G00Z40
N1004 G00X24.726Y20.09F280000
N1005 LASER_STARTP(1)
N1006 LASER_ON(1)
N1007 G01X23.225Y17.498
N1008 G03X30.731Y19.51I2.747J4.759
N1009 G02X71.179Y59.957I95.7J-55.253
N1010 G03X65.684Y69.475I-2.748J4.759
N1011 X21.213Y25.005I60.747J-105.218
N1012 X22.409Y18.074I4.759J-2.748
N1013 LASER_OFF(0)
N1014 SUB1_2:SUB="1_2"; (DXFPAR0105) pz1 Cont=2
N1015 G00Z40
N1016 G00X117.931Y103.762F280000
N1017 LASER_STARTP(1)
N1018 LASER_ON(1)
N1019 G01X120.926Y103.757
N1020 G03X111.936I-4.495J0
N1021 X120.926I4.495J0
N1022 LASER_OFF(0)
N1023 SUB1_3:SUB="1_3"; (DXFPAR0105) pz1 Cont=3
N1024 G00Z40
N1025 G01X137.931Y103.762F280000
N1026 LASER_STARTP(1)
N1027 LASER_ON(1)
N1028 G01X140.926Y103.757
N1029 G03X131.936I-4.495J0
N1030 X140.926I4.495J0
N1031 LASER_OFF(0)
N1032 SUB1_4:SUB="1_4"; (DXFPAR0105) pz1 Cont=4
N1033 G00Z40
N1034 G01X137.931Y124.762F280000
N1035 LASER_STARTP(1)
N1036 LASER_ON(1)
N1037 G01X140.926Y124.757
N1038 G03X131.936I-4.495J0
N1039 X140.926I4.495J0
N1040 LASER_OFF(0)
N1041 SUB1_5:SUB="1_5"; (DXFPAR0105) pz1 Cont=5
N1042 G00Z40
N1043 G01X117.931Y124.762F280000
N1044 LASER_STARTP(1)
N1045 LASER_ON(1)
N1046 G01X120.926Y124.757
N1047 G03X111.936I-4.495J0
N1048 X120.926I4.495J0
N1049 LASER_OFF(0)
N1050 SUB1_6:SUB="1_6"; (DXFPAR0105) pz1 Cont=6
N1051 G00Z40
N1052 G01X117.931Y160.262F280000
N1053 LASER_STARTP(1)
N1054 LASER_ON(1)
N1055 G01X120.926Y160.257
N1056 G03X111.936I-4.495J0
N1057 X120.926I4.495J0
N1058 LASER_OFF(0)
N1059 SUB1_7:SUB="1_7"; (DXFPAR0105) pz1 Cont=7
N1060 G00Z40
N1061 G01X137.931Y160.262F280000
N1062 LASER_STARTP(1)
N1063 LASER_ON(1)
N1064 G01X140.926Y160.257
N1065 G03X131.936I-4.495J0
N1066 X140.926I4.495J0
N1067 LASER_OFF(0)
N1068 SUB1_8:SUB="1_8"; (DXFPAR0105) pz1 Cont=8
N1069 G00Z40
N1070 G01X123.931Y80.252F280000
N1071 LASER_STARTP(1)
N1072 LASER_ON(1)
N1073 G01X120.936Y80.257
N1074 G03X126.431Y74.762I5.495J0
N1075 G02X181.684Y59.957I0J-110.505
N1076 G03X187.179Y69.475I2.747J4.759
N1077 X126.431Y85.752I-60.748J-105.218
N1078 X121.027Y81.252I0J-5.495
N1079 LASER_OFF(0)
N1080 SUB1_9:SUB="1_9"; (DXFPAR0105) pz1 Cont=9
N1081 G00Z40
N1082 G00X-0.002Y18.285F280000
N1083 LASER_STARTP(1)
N1084 LASER_ON(1)
N1085 G01X2.855Y19.186
N1086 G02X2.992Y21.355I2.865J0.908
N1087 X91.558Y95.715I123.439J-57.098
N1088 G03X106.426Y115.042I-5.127J19.327
N1089 G01Y172.257
N1090 G02X109.431Y175.262I3.005J0
N1091 G01X143.431
N1092 G02X146.436Y172.257I0J-3.005
N1093 G01Y115.042
N1094 G03X161.304Y95.715I19.995J0
N1095 G02X204.783Y75.425I-34.873J-131.458
N1096 X205.655Y71.466I-1.731J-2.456
N1097 G01X188.561Y41.859
N1098 G02X184.152Y40.961I-2.603J1.503
N1099 G03X38.092Y1.824I-57.721J-76.704
N1100 G02X33.824Y0.398I-2.765J1.176
N1101 G01X4.217Y17.491
N1102 G02X2.855Y19.186I1.503J2.603
N1103 LASER_OFF(0)
N1104 END:
