%
<0001>
N10(Nukon Vento315-Fanuc31i-LB-2000W)
N11(SHEET SIZE:[mm]: 190 x 125)
N12(MATERIAL: Al99)
N13(THICKNESS:[mm]: 0.8)
N14(STRATEGY:/0)
N15(DATE: 2022  12:37:41)
N16(RUNTIME:[hour min sec]: 00:00:12.55)
N17(SHEET WEIGHT:[kg]: 0.0513)
N18(FOCAL LENGTH: 0.00)
N19(NOZZLE DIAMETER: 0.00)
N20G54 (WORKPIECE COORDINATE SYSTEM)
N21#650=190  (SHEET SIZE X[mm])
N22#651=125  (SHEET SIZE Y[mm])
N23#652=1 (TOTAL PARTS IN JOB)
N24(JOB BOX X MIN:[mm]: 5)
N25(JOB BOX Y MIN:[mm]: 5)
N26(JOB BOX X MAX:[mm]: 185)
N27(JOB BOX Y MAX:[mm]: 120)
N28(JOB HEIGHT X:[mm]: 180)
N29(JOB WIDTH Y:[mm]: 115)
N30(LENGTH OF FIRST RAPID MOVEMENT:[mm]: 37.5073)
N31(NUMBER OF CONTOURS: 6)
N32(TOTAL RAPID MOVEMENT LENGTH:[mm]: 416.816)
N33(CUT 1 LENGTH:[mm]: 1243.48)
N34(CUT 2 LENGTH:[mm]: 0)
N35(CUT 3 LENGTH:[mm]: 0)
N36(VAPOURISING:[mm]: 0)
N37(HOLE LENGTH:[mm]: 552.594)
N38(MARKING LENGTH:[mm]: 0)
N39(FLY CUTTING LENGTH:[mm]: 0)
N40(FAST CUTTING LENGTH:[mm]: 0)
N41M98P9020 (PROGRAM START)

(Part:1 Contour:1)
N42#550=1 (PART NO)
N43#551=1 (CONTOUR NO)
N44#552=26.079 (X START POS)
N45#553=26.957 (Y START POS)
N46M98P9997 (START CONTOUR)
N47G00X26.079Y26.957
N48G41
N49E001 (CUT1)
N50E101 (PIERCE-1)
N51M98P9987
N52G01X22.998Y24.406
N53G03X22.929Y22.929I0.638J-0.770
N54G03X22.929Y22.929I7.071J7.071
N55#552=26.079 (X NEXT POS)
N56#553=91.957 (Y NEXT POS)
N57#554=69.1
N58G40
N59M98P9998 (END CONTOUR)

(Part:1 Contour:2)
N60#550=1
N61#551=2
N62#552=26.079
N63#553=91.957
N64M98P9997
N65G00X26.079Y91.957
N66G41
N67E001 (CUT1)
N68E101 (PIERCE-1)
N69M98P9987
N70G01X22.998Y89.406
N71G03X22.929Y87.929I0.638J-0.770
N72G03X22.929Y87.929I7.071J7.071
N73#552=58.082
N74#553=57.082
N75#554=46.768
N76G40
N77M98P9998

(Part:1 Contour:3)
N78#550=1
N79#551=3
N80#552=58.082
N81#553=57.082
N82M98P9997
N83G00X58.082Y57.082
N84G41
N85E001 (CUT1)
N86E101 (PIERCE-1)
N87M98P9987
N88G01X59.148Y53.227
N89G03X85.291Y27.085I36.143J10.000
N90G01X85.291Y17.085
N91G01X105.291Y17.085
N92G01X105.291Y27.085
N93G03X131.433Y53.227I-10.000J36.142
N94G01X160.291Y53.227
N95G03X160.291Y73.227I0.000J10.000
N96G01X131.433Y73.227
N97G03X105.291Y99.369I-36.142J-10.000
N98G01X105.291Y109.369
N99G01X85.291Y109.369
N100G01X85.291Y99.369
N101G03X59.148Y73.227I10.000J-36.142
N102G01X30.291Y73.227
N103G03X30.291Y53.227I0.000J-10.000
N104G01X59.148Y53.227
N105#552=156.079
N106#553=91.957
N107#554=104.382
N108G40
N109M98P9998

(Part:1 Contour:4)
N110#550=1
N111#551=4
N112#552=156.079
N113#553=91.957
N114M98P9997
N115G00X156.079Y91.957
N116G41
N117E001 (CUT1)
N118E101 (PIERCE-1)
N119M98P9987
N120G01X152.998Y89.406
N121G03X152.929Y87.929I0.638J-0.770
N122G03X152.929Y87.929I7.071J7.071
N123#552=156.079
N124#553=26.957
N125#554=61.053
N126G40
N127M98P9998

(Part:1 Contour:5)
N128#550=1
N129#551=5
N130#552=156.079
N131#553=26.957
N132M98P9997
N133G00X156.079Y26.957
N134G41
N135E001 (CUT1)
N136E101 (PIERCE-1)
N137M98P9987
N138G01X152.998Y24.406
N139G03X152.929Y22.929I0.638J-0.770
N140G03X152.929Y22.929I7.071J7.071
N141#552=180.305
N142#553=117.033
N143#554=98.005
N144G40
N145M98P9998

(Part:1 Contour:6)
N146#550=1
N147#551=6
N148#552=180.305
N149#553=117.033
N150M98P9997
N151G00X180.305Y117.033
N152G41
N153E001 (CUT1)
N154E101 (PIERCE-1)
N155M98P9987
N156G01X177.639Y114.051
N157G03X177.678Y112.678I0.746J-0.666
N158G02X185.000Y95.000I-17.678J-17.678
N159G01X185.000Y30.000
N160G02X160.000Y5.000I-25.000J0.000
N161G01X30.000Y5.000
N162G02X5.000Y30.000I0.000J25.000
N163G01X5.000Y95.000
N164G02X30.000Y120.000I25.000J0.000
N165G01X160.000Y120.000
N166G02X177.678Y112.678I0.000J-25.000
N167#552=0
N168#553=0
N169#554=0
N170G40
N171M98P9998

N172M98P9021(PROGRAM END)
N173G14(HEIGHT CTRL OFF)
N174G28Z0(Z AXIS HOME POS)
N175G28X0Y0(X,Y HOME POS)
N176G53 (MACHINE COORDINATE SYSTEM ON)
N177M30
%
