%
<0001>
N10(Nukon Vento315-Fanuc31i-LB-2000W)
N11(SHEET SIZE:[mm]: 303 x 172)
N12(MATERIAL: Al99)
N13(THICKNESS:[mm]: 0.8)
N14(STRATEGY:/0)
N15(DATE: 2022  12:37:42)
N16(RUNTIME:[hour min sec]: 00:00:22.15)
N17(SHEET WEIGHT:[kg]: 0.112571)
N18(FOCAL LENGTH: 0.00)
N19(NOZZLE DIAMETER: 0.00)
N20G54 (WORKPIECE COORDINATE SYSTEM)
N21#650=303  (SHEET SIZE X[mm])
N22#651=172  (SHEET SIZE Y[mm])
N23#652=1 (TOTAL PARTS IN JOB)
N24(JOB BOX X MIN:[mm]: 5)
N25(JOB BOX Y MIN:[mm]: 5)
N26(JOB BOX X MAX:[mm]: 298)
N27(JOB BOX Y MAX:[mm]: 167)
N28(JOB HEIGHT X:[mm]: 293)
N29(JOB WIDTH Y:[mm]: 162)
N30(LENGTH OF FIRST RAPID MOVEMENT:[mm]: 62.8043)
N31(NUMBER OF CONTOURS: 22)
N32(TOTAL RAPID MOVEMENT LENGTH:[mm]: 955.216)
N33(CUT 1 LENGTH:[mm]: 1188.11)
N34(CUT 2 LENGTH:[mm]: 77.1073)
N35(CUT 3 LENGTH:[mm]: 93.4944)
N36(VAPOURISING:[mm]: 0)
N37(HOLE LENGTH:[mm]: 899.855)
N38(MARKING LENGTH:[mm]: 0)
N39(FLY CUTTING LENGTH:[mm]: 0)
N40(FAST CUTTING LENGTH:[mm]: 0)
N41M98P9020 (PROGRAM START)

(Part:1 Contour:1)
N42#550=1 (PART NO)
N43#551=1 (CONTOUR NO)
N44#552=30.274 (X START POS)
N45#553=55.026 (Y START POS)
N46M98P9997 (START CONTOUR)
N47G00X30.274Y55.026
N48G41
N49E003 (CUT3)
N50E103 (PIERCE-3)
N51M98P9987
N52G01X28.513Y54.468
N53G03X28.108Y52.808I0.302J-0.953
N54G03X28.108Y52.808I2.192J2.192
N55#552=47.581 (X NEXT POS)
N56#553=44.018 (Y NEXT POS)
N57#554=21.365
N58G40
N59M98P9998 (END CONTOUR)

(Part:1 Contour:2)
N60#550=1
N61#551=2
N62#552=47.581
N63#553=44.018
N64M98P9997
N65G00X47.581Y44.018
N66G41
N67E004 (CUT4)
N68E104 (PIERCE-4)
N69M98P9987
N70G01X46.333Y43.660
N71G03X46.009Y42.409I0.206J-0.721
N72G03X46.009Y42.409I1.591J1.591
N73#552=53.953
N74#553=64.59
N75#554=23.561
N76G40
N77M98P9998

(Part:1 Contour:3)
N78#550=1
N79#551=3
N80#552=53.953
N81#553=64.59
N82M98P9997
N83G00X53.953Y64.590
N84G41
N85E004 (CUT4)
N86E104 (PIERCE-4)
N87M98P9987
N88G01X52.705Y64.232
N89G03X52.381Y62.980I0.206J-0.721
N90G03X52.381Y62.980I1.591J1.591
N91#552=64.023
N92#553=58.049
N93#554=12.643
N94G40
N95M98P9998

(Part:1 Contour:4)
N96#550=1
N97#551=4
N98#552=64.023
N99#553=58.049
N100M98P9997
N101G00X64.023Y58.049
N102G41
N103E004 (CUT4)
N104E104 (PIERCE-4)
N105M98P9987
N106G01X63.135Y57.794
N107G03X62.905Y56.904I0.147J-0.513
N108G03X62.905Y56.904I1.131J1.132
N109#552=74.081
N110#553=51.518
N111#554=12.406
N112G40
N113M98P9998

(Part:1 Contour:5)
N114#550=1
N115#551=5
N116#552=74.081
N117#553=51.518
N118M98P9997
N119G00X74.081Y51.518
N120G41
N121E004 (CUT4)
N122E104 (PIERCE-4)
N123M98P9987
N124G01X72.833Y51.160
N125G03X72.509Y49.909I0.206J-0.721
N126G03X72.509Y49.909I1.591J1.591
N127#552=57.573
N128#553=77.781
N129#554=31.622
N130G40
N131M98P9998

(Part:1 Contour:6)
N132#550=1
N133#551=6
N134#552=57.573
N135#553=77.781
N136M98P9997
N137G00X57.573Y77.781
N138G41
N139E001 (CUT1)
N140E101 (PIERCE-1)
N141M98P9987
N142G01X54.819Y80.682
N143G03X53.255Y80.538I-0.725J-0.689
N144G03X54.725Y73.621I4.193J-2.724
N145G01X81.982Y55.920
N146G03X87.428Y64.307I2.723J4.194
N147G01X60.171Y82.008
N148G03X53.255Y80.538I-2.723J-4.194
N149#552=94.581
N150#553=44.018
N151#554=55.15
N152G40
N153M98P9998

(Part:1 Contour:7)
N154#550=1
N155#551=7
N156#552=94.581
N157#553=44.018
N158M98P9997
N159G00X94.581Y44.018
N160G41
N161E004 (CUT4)
N162E104 (PIERCE-4)
N163M98P9987
N164G01X93.333Y43.660
N165G03X93.009Y42.409I0.206J-0.721
N166G03X93.009Y42.409I1.591J1.591
N167#552=98.93
N168#553=84.282
N169#554=42.29
N170G40
N171M98P9998

(Part:1 Contour:8)
N172#550=1
N173#551=8
N174#552=98.93
N175#553=84.282
N176M98P9997
N177G00X98.930Y84.282
N178G41
N179E002 (CUT2)
N180E102 (PIERCE-2)
N181M98P9987
N182G01X99.000Y80.283
N183G03X100.000Y79.300I1.000J0.017
N184G01X103.250Y79.300
N185G01X103.250Y89.300
N186G01X96.750Y89.300
N187G01X96.750Y79.300
N188G01X100.000Y79.300
N189#552=71.271
N190#553=120.689
N191#554=50.383
N192G40
N193M98P9998

(Part:1 Contour:9)
N194#550=1
N195#551=9
N196#552=71.271
N197#553=120.689
N198M98P9997
N199G00X71.271Y120.689
N200G41
N201E005 (SMALL HOLE)
N202E105 (PIERCE-5)
N203M98P9987
N204G01X71.463Y120.503
N205G03X71.703Y120.505I0.119J0.124
N206G01X74.072Y122.874
N207G03X73.506Y123.440I-0.283J0.283
N208G01X68.769Y118.702
N209G03X69.334Y118.137I0.282J-0.283
N210G01X71.703Y120.505
N211#552=37.474
N212#553=82.526
N213#554=51.128
N214G40
N215M98P9998

(Part:1 Contour:10)
N216#550=1
N217#551=10
N218#552=37.474
N219#553=82.526
N220M98P9997
N221G00X37.474Y82.526
N222G41
N223E003 (CUT3)
N224E103 (PIERCE-3)
N225M98P9987
N226G01X35.713Y81.968
N227G03X35.308Y80.308I0.302J-0.953
N228G03X35.308Y80.308I2.192J2.192
N229#552=111.485
N230#553=153.014
N231#554=105.305
N232G40
N233M98P9998

(Part:1 Contour:11)
N234#550=1
N235#551=11
N236#552=111.485
N237#553=153.014
N238M98P9997
N239G00X111.485Y153.014
N240G41
N241E004 (CUT4)
N242E104 (PIERCE-4)
N243M98P9987
N244G01X110.514Y152.736
N245G03X110.263Y151.763I0.161J-0.561
N246G03X110.263Y151.763I1.237J1.237
N247#552=151.324
N248#553=153.993
N249#554=41.122
N250G40
N251M98P9998

(Part:1 Contour:12)
N252#550=1
N253#551=12
N254#552=151.324
N255#553=153.993
N256M98P9997
N257G00X151.324Y153.993
N258G41
N259E005 (SMALL HOLE)
N260E105 (PIERCE-5)
N261M98P9987
N262G01X151.329Y153.727
N263G03X151.500Y153.558I0.171J0.003
N264G01X154.850Y153.558
N265G03X154.850Y154.358I0.000J0.400
N266G01X148.150Y154.358
N267G03X148.150Y153.558I0.000J-0.400
N268G01X151.500Y153.558
N269#552=191.485
N270#553=153.014
N271#554=39.989
N272G40
N273M98P9998

(Part:1 Contour:13)
N274#550=1
N275#551=13
N276#552=191.485
N277#553=153.014
N278M98P9997
N279G00X191.485Y153.014
N280G41
N281E004 (CUT4)
N282E104 (PIERCE-4)
N283M98P9987
N284G01X190.514Y152.736
N285G03X190.263Y151.763I0.161J-0.561
N286G03X190.263Y151.763I1.237J1.237
N287#552=231.48
N288#553=120.938
N289#554=51.469
N290G40
N291M98P9998

(Part:1 Contour:14)
N292#550=1
N293#551=14
N294#552=231.48
N295#553=120.938
N296M98P9997
N297G00X231.480Y120.938
N298G41
N299E005 (SMALL HOLE)
N300E105 (PIERCE-5)
N301M98P9987
N302G01X231.295Y120.746
N303G03X231.297Y120.505I0.123J-0.119
N304G01X233.666Y118.137
N305G03X234.231Y118.702I0.283J0.282
N306G01X229.494Y123.440
N307G03X228.928Y122.874I-0.283J-0.283
N308G01X231.297Y120.505
N309#552=201.93
N310#553=84.282
N311#554=46.632
N312G40
N313M98P9998

(Part:1 Contour:15)
N314#550=1
N315#551=15
N316#552=201.93
N317#553=84.282
N318M98P9997
N319G00X201.930Y84.282
N320G41
N321E002 (CUT2)
N322E102 (PIERCE-2)
N323M98P9987
N324G01X202.000Y80.283
N325G03X203.000Y79.300I1.000J0.017
N326G01X206.250Y79.300
N327G01X206.250Y89.300
N328G01X199.750Y89.300
N329G01X199.750Y79.300
N330G01X203.000Y79.300
N331#552=265.474
N332#553=82.526
N333#554=62.557
N334G40
N335M98P9998

(Part:1 Contour:16)
N336#550=1
N337#551=16
N338#552=265.474
N339#553=82.526
N340M98P9997
N341G00X265.474Y82.526
N342G41
N343E003 (CUT3)
N344E103 (PIERCE-3)
N345M98P9987
N346G01X263.713Y81.968
N347G03X263.308Y80.308I0.302J-0.953
N348G03X263.308Y80.308I2.192J2.192
N349#552=272.674
N350#553=55.026
N351#554=26.961
N352G40
N353M98P9998

(Part:1 Contour:17)
N354#550=1
N355#551=17
N356#552=272.674
N357#553=55.026
N358M98P9997
N359G00X272.674Y55.026
N360G41
N361E003 (CUT3)
N362E103 (PIERCE-3)
N363M98P9987
N364G01X270.913Y54.468
N365G03X270.508Y52.808I0.302J-0.953
N366G03X270.508Y52.808I2.192J2.192
N367#552=219.592
N368#553=15.008
N369#554=63.414
N370G40
N371M98P9998

(Part:1 Contour:18)
N372#550=1
N373#551=18
N374#552=219.592
N375#553=15.008
N376M98P9997
N377G00X219.592Y15.008
N378G41
N379E005 (SMALL HOLE)
N380E105 (PIERCE-5)
N381M98P9987
N382G01X219.037Y14.849
N383G03X218.893Y14.293I0.092J-0.320
N384G03X218.893Y14.293I0.707J0.707
N385#552=216.192
N386#553=15.008
N387#554=2.794
N388G40
N389M98P9998

(Part:1 Contour:19)
N390#550=1
N391#551=19
N392#552=216.192
N393#553=15.008
N394M98P9997
N395G00X216.192Y15.008
N396G41
N397E005 (SMALL HOLE)
N398E105 (PIERCE-5)
N399M98P9987
N400G01X215.637Y14.849
N401G03X215.493Y14.293I0.092J-0.320
N402G03X215.493Y14.293I0.707J0.707
N403#552=212.792
N404#553=15.008
N405#554=2.794
N406G40
N407M98P9998

(Part:1 Contour:20)
N408#550=1
N409#551=20
N410#552=212.792
N411#553=15.008
N412M98P9997
N413G00X212.792Y15.008
N414G41
N415E005 (SMALL HOLE)
N416E105 (PIERCE-5)
N417M98P9987
N418G01X212.237Y14.849
N419G03X212.093Y14.293I0.092J-0.320
N420G03X212.093Y14.293I0.707J0.707
N421#552=209.392
N422#553=15.008
N423#554=2.794
N424G40
N425M98P9998

(Part:1 Contour:21)
N426#550=1
N427#551=21
N428#552=209.392
N429#553=15.008
N430M98P9997
N431G00X209.392Y15.008
N432G41
N433E005 (SMALL HOLE)
N434E105 (PIERCE-5)
N435M98P9987
N436G01X208.837Y14.849
N437G03X208.693Y14.293I0.092J-0.320
N438G03X208.693Y14.293I0.707J0.707
N439#552=208.172
N440#553=160.328
N441#554=146.036
N442G40
N443M98P9998

(Part:1 Contour:22)
N444#550=1
N445#551=22
N446#552=208.172
N447#553=160.328
N448M98P9997
N449G00X208.172Y160.328
N450G41
N451E001 (CUT1)
N452E101 (PIERCE-1)
N453M98P9987
N454G01X211.000Y157.500
N455G01X270.500Y98.000
N456G01X270.500Y68.700
N457G01X277.700Y61.500
N458G01X277.700Y49.500
N459G01X287.300Y49.500
N460G01X287.300Y37.000
N461G01X298.000Y37.000
N462G01X298.000Y20.500
N463G01X288.500Y20.500
N464G01X288.500Y7.500
N465G01X277.700Y7.500
N466G01X277.700Y5.000
N467G01X227.500Y5.000
N468G01X227.500Y15.000
N469G01X221.000Y15.000
N470G01X221.000Y5.000
N471G01X208.000Y5.000
N472G01X208.000Y15.000
N473G01X201.500Y15.000
N474G01X201.500Y5.000
N475G01X101.000Y5.000
N476G01X101.000Y17.000
N477G01X41.000Y17.000
N478G01X41.000Y5.000
N479G01X25.300Y5.000
N480G01X25.300Y7.500
N481G01X14.500Y7.500
N482G01X14.500Y20.500
N483G01X5.000Y20.500
N484G01X5.000Y37.000
N485G01X15.700Y37.000
N486G01X15.700Y49.500
N487G01X25.300Y49.500
N488G01X25.300Y61.500
N489G01X32.500Y68.700
N490G01X32.500Y98.000
N491G01X92.000Y157.500
N492G01X116.000Y157.500
N493G01X116.000Y167.000
N494G01X187.000Y167.000
N495G01X187.000Y157.500
N496G01X211.000Y157.500
N497#552=0
N498#553=0
N499#554=0
N500G40
N501M98P9998

N502M98P9021(PROGRAM END)
N503G14(HEIGHT CTRL OFF)
N504G28Z0(Z AXIS HOME POS)
N505G28X0Y0(X,Y HOME POS)
N506G53 (MACHINE COORDINATE SYSTEM ON)
N507M30
%
