%
<0001>
N10(Nukon Vento315-Fanuc31i-LB-2000W)
N11(SHEET SIZE:[mm]: 213.333 x 185.257)
N12(MATERIAL: Al99)
N13(THICKNESS:[mm]: 0.8)
N14(STRATEGY:/0)
N15(DATE: 2022  12:37:41)
N16(RUNTIME:[hour min sec]: 00:00:13.61)
N17(SHEET WEIGHT:[kg]: 0.0853663)
N18(FOCAL LENGTH: 0.00)
N19(NOZZLE DIAMETER: 0.00)
N20G54 (WORKPIECE COORDINATE SYSTEM)
N21#650=213.333  (SHEET SIZE X[mm])
N22#651=185.257  (SHEET SIZE Y[mm])
N23#652=1 (TOTAL PARTS IN JOB)
N24(JOB BOX X MIN:[mm]: 5.277)
N25(JOB BOX Y MIN:[mm]: 5.402)
N26(JOB BOX X MAX:[mm]: 207.931)
N27(JOB BOX Y MAX:[mm]: 185.239)
N28(JOB HEIGHT X:[mm]: 202.654)
N29(JOB WIDTH Y:[mm]: 179.837)
N30(LENGTH OF FIRST RAPID MOVEMENT:[mm]: 38.8489)
N31(NUMBER OF CONTOURS: 9)
N32(TOTAL RAPID MOVEMENT LENGTH:[mm]: 470.094)
N33(CUT 1 LENGTH:[mm]: 968.696)
N34(CUT 2 LENGTH:[mm]: 200.838)
N35(CUT 3 LENGTH:[mm]: 0)
N36(VAPOURISING:[mm]: 0)
N37(HOLE LENGTH:[mm]: 645.077)
N38(MARKING LENGTH:[mm]: 0)
N39(FLY CUTTING LENGTH:[mm]: 0)
N40(FAST CUTTING LENGTH:[mm]: 0)
N41M98P9020 (PROGRAM START)

(Part:1 Contour:1)
N42#550=1 (PART NO)
N43#551=1 (CONTOUR NO)
N44#552=27.926 (X START POS)
N45#553=27.007 (Y START POS)
N46M98P9997 (START CONTOUR)
N47G00X27.926Y27.007
N48G41
N49E001 (CUT1)
N50E101 (PIERCE-1)
N51M98P9987
N52G01X25.258Y24.027
N53G03X25.503Y22.494I0.745J-0.667
N54G03X33.016Y24.507I2.750J4.763
N55G02X73.462Y64.953I95.696J-55.250
N56G03X67.962Y74.479I-2.750J4.763
N57G03X23.490Y30.007I60.750J-105.222
N58G03X25.503Y22.494I4.763J-2.750
N59#552=118.668 (X NEXT POS)
N60#553=108.8 (Y NEXT POS)
N61#554=126.998
N62G40
N63M98P9998 (END CONTOUR)

(Part:1 Contour:2)
N64#550=1
N65#551=2
N66#552=118.668
N67#553=108.8
N68M98P9997
N69G00X118.668Y108.800
N70G41
N71E002 (CUT2)
N72E102 (PIERCE-2)
N73M98P9987
N74G01X115.746Y107.154
N75G03X115.530Y105.575I0.491J-0.872
N76G03X115.530Y105.575I3.182J3.182
N77#552=138.668
N78#553=108.8
N79#554=23.362
N80G40
N81M98P9998

(Part:1 Contour:3)
N82#550=1
N83#551=3
N84#552=138.668
N85#553=108.8
N86M98P9997
N87G00X138.668Y108.800
N88G41
N89E002 (CUT2)
N90E102 (PIERCE-2)
N91M98P9987
N92G01X135.746Y107.154
N93G03X135.530Y105.575I0.491J-0.872
N94G03X135.530Y105.575I3.182J3.182
N95#552=138.668
N96#553=129.8
N97#554=24.427
N98G40
N99M98P9998

(Part:1 Contour:4)
N100#550=1
N101#551=4
N102#552=138.668
N103#553=129.8
N104M98P9997
N105G00X138.668Y129.800
N106G41
N107E002 (CUT2)
N108E102 (PIERCE-2)
N109M98P9987
N110G01X135.746Y128.154
N111G03X135.530Y126.575I0.491J-0.872
N112G03X135.530Y126.575I3.182J3.182
N113#552=118.668
N114#553=129.8
N115#554=17.168
N116G40
N117M98P9998

(Part:1 Contour:5)
N118#550=1
N119#551=5
N120#552=118.668
N121#553=129.8
N122M98P9997
N123G00X118.668Y129.800
N124G41
N125E002 (CUT2)
N126E102 (PIERCE-2)
N127M98P9987
N128G01X115.746Y128.154
N129G03X115.530Y126.575I0.491J-0.872
N130G03X115.530Y126.575I3.182J3.182
N131#552=118.668
N132#553=165.3
N133#554=38.852
N134G40
N135M98P9998

(Part:1 Contour:6)
N136#550=1
N137#551=6
N138#552=118.668
N139#553=165.3
N140M98P9997
N141G00X118.668Y165.300
N142G41
N143E002 (CUT2)
N144E102 (PIERCE-2)
N145M98P9987
N146G01X115.746Y163.654
N147G03X115.530Y162.075I0.491J-0.872
N148G03X115.530Y162.075I3.182J3.182
N149#552=138.668
N150#553=165.3
N151#554=23.362
N152G40
N153M98P9998

(Part:1 Contour:7)
N154#550=1
N155#551=7
N156#552=138.668
N157#553=165.3
N158M98P9997
N159G00X138.668Y165.300
N160G41
N161E002 (CUT2)
N162E102 (PIERCE-2)
N163M98P9987
N164G01X135.746Y163.654
N165G03X135.530Y162.075I0.491J-0.872
N166G03X135.530Y162.075I3.182J3.182
N167#552=128.332
N168#553=85.415
N169#554=76.997
N170G40
N171M98P9998

(Part:1 Contour:8)
N172#550=1
N173#551=8
N174#552=128.332
N175#553=85.415
N176M98P9997
N177G00X128.332Y85.415
N178G41
N179E001 (CUT1)
N180E101 (PIERCE-1)
N181M98P9987
N182G01X124.417Y86.236
N183G03X123.212Y85.257I-0.205J-0.979
N184G03X128.712Y79.757I5.500J0.000
N185G02X183.962Y64.953I0.000J-110.500
N186G03X189.462Y74.479I2.750J4.763
N187G03X128.712Y90.757I-60.750J-105.222
N188G03X123.212Y85.257I0.000J-5.500
N189#552=127.642
N190#553=185.239
N191#554=100.08
N192G40
N193M98P9998

(Part:1 Contour:9)
N194#550=1
N195#551=9
N196#552=127.642
N197#553=185.239
N198M98P9997
N199G00X127.642Y185.239
N200G41
N201E001 (CUT1)
N202E101 (PIERCE-1)
N203M98P9987
N204G01X127.712Y181.240
N205G03X128.712Y180.257I1.000J0.017
N206G01X145.712Y180.257
N207G02X148.712Y177.257I0.000J-3.000
N208G01X148.712Y120.042
N209G03X163.583Y100.711I20.000J0.000
N210G02X207.061Y80.421I-34.871J-131.454
N211G02X207.931Y76.469I-1.728J-2.452
N212G01X190.837Y46.862
N213G02X186.435Y45.965I-2.598J1.500
N214G03X40.368Y6.826I-57.723J-76.708
N215G02X36.107Y5.402I-2.761J1.174
N216G01X6.500Y22.496
N217G02X5.277Y26.353I1.500J2.598
N218G02X93.840Y100.711I123.435J-57.096
N219G03X108.712Y120.042I-5.128J19.331
N220G01X108.712Y177.257
N221G02X111.712Y180.257I3.000J0.000
N222G01X128.712Y180.257
N223#552=0
N224#553=0
N225#554=0
N226G40
N227M98P9998

N228M98P9021(PROGRAM END)
N229G14(HEIGHT CTRL OFF)
N230G28Z0(Z AXIS HOME POS)
N231G28X0Y0(X,Y HOME POS)
N232G53 (MACHINE COORDINATE SYSTEM ON)
N233M30
%
