;LANTEK
;MATERIAL: Al99
;SHEET DIMENTIONS:[mm]: 246.178 x 102.063 x 0.8
;MIN SHEET DIMENTIONS:[mm]: 236.178 x 92.063
;CUTTING AREA:[mm]: 226.178 x 82.0668
;DATE: 22/6/2022 12:38:5
;MACHINE: Nukon Fiber Laser
;CONTROL: Beckhoff C6920-0050
;RUNTIME: [hour min sec]: 00:00:04
;TOTAL NR OF PARTS: 1
;TOTAL NR OF CONTOURS: 1
;TOTAL RAPID MOVEMENT LENGHT: [mm]: 163.29
;STANDARD CUT LENGHT: [mm]: 613.129
;FINE CUT LENGHT: [mm]: 0
;MACRO CUT LENGHT: [mm]: 0
;FILM BURNING LENGHT: [mm]: 0
;MARKING LENGHT: [mm]: 0
V.E.PLCNC_PARAMS_3[40]=04
;---PROGRAM INFO END
[JOBREPEAT]
N10P4 = 246.178
N11P5 = 102.063
N12P130 = 001
N13P131 = 00800
N14 L LOAD_DEFAULTS.NC
N15 L EDGE_DETECT.NC
N16 L SET_PLATE_ZERO.NC
N17P60=163.29 P98=226 P99=82 P100=10 P101=10
;---(FILE NAME:DXFPART7)
;---(PART:1 CONTOUR:1)
N18G00X162.760Y13.141
N19 L SOP.NC
N20 L STANDARD.NC
N21 L BEAM_ON.NC
N22 L SLIN.NC
N23G41G01X162.231Y16.094
N24 L FLIN.NC
N25G03X130.784Y10.177I-15.749J-2.825
N26G02X60.911Y27.667I-6.639J121.823
N27G03X47.874Y36.776I-6.023J5.260
N28G02X10.000Y88.932I76.271J95.224
N29G01X20.845Y89.691
N30G01X21.124Y85.701
N31G01X43.070Y87.235
N32G01X42.791Y91.226
N33G01X54.762Y92.063
N34G01X97.331Y72.785
N35G03X143.770Y70.033I26.814J59.215
N36G01X160.204Y89.412
N37G01X170.708Y90.146
N38G01X173.012Y78.278
N39G01X182.988Y78.975
N40G01X183.617Y91.049
N41G01X194.849Y91.834
N42G01X195.510Y86.397
N43G03X211.238Y81.588I8.936J1.096
N44G01X219.251Y90.804
N45G01X219.828Y82.554
N46G01X236.178Y83.697
N47G02X162.707Y16.255I-112.033J48.303
N48G40
N49P60=0
N50 L BEAM_OFF.NC
N51 L FOP.NC
N52 L END_OF_PROG.NC
N53 $IF [V.E.PLCNC_PARAMS_3[26]==1]
N54 L JobRepeat.NC
N55 $GOTO [JOBREPEAT]
N56 $ENDIF
;---END OF PROGRAM---
N57M02
