;LANTEK
;MATERIAL: Al99
;SHEET DIMENTIONS:[mm]: 200 x 135 x 0.8
;MIN SHEET DIMENTIONS:[mm]: 190 x 125
;CUTTING AREA:[mm]: 180 x 115
;DATE: 22/6/2022 12:38:23
;MACHINE: Nukon Fiber Laser
;CONTROL: Beckhoff C6920-0050
;RUNTIME: [hour min sec]: 00:00:07
;TOTAL NR OF PARTS: 1
;TOTAL NR OF CONTOURS: 6
;TOTAL RAPID MOVEMENT LENGHT: [mm]: 397.343
;STANDARD CUT LENGHT: [mm]: 1229.3
;FINE CUT LENGHT: [mm]: 0
;MACRO CUT LENGHT: [mm]: 0
;FILM BURNING LENGHT: [mm]: 0
;MARKING LENGHT: [mm]: 0
V.E.PLCNC_PARAMS_3[40]=07
;---PROGRAM INFO END
[JOBREPEAT]
N10P4 = 200
N11P5 = 135
N12P130 = 001
N13P131 = 00800
N14 L LOAD_DEFAULTS.NC
N15 L EDGE_DETECT.NC
N16 L SET_PLATE_ZERO.NC
N17P60=49.99 P98=20 P99=20 P100=10 P101=10
;---(FILE NAME:Pieza_prueba_Maxwell_2)
;---(PART:1 CONTOUR:1)
N18G00X30.050Y39.950
N19 L SOP.NC
N20 L STANDARD.NC
N21 L BEAM_ON.NC
N22 L SLIN.NC
N23G41G01X27.929Y42.071
N24 L FLIN.NC
N25G03X27.929Y42.071I7.071J-7.071
N26G40
N27P60=62.915 P98=20 P99=20
N28 L BEAM_OFF.NC
;---(PART:1 CONTOUR:2)
N29G00X30.050Y104.950
N30 L BEAM_ON.NC
N31 L SLIN.NC
N32G41G01X27.929Y107.071
N33 L FLIN.NC
N34G03X27.929Y107.071I7.071J-7.071
N35G40
N36P60=65.281 P98=150 P99=92
N37 L BEAM_OFF.NC
;---(PART:1 CONTOUR:3)
N38G00X93.182Y105.169
N39 L BEAM_ON.NC
N40 L SLIN.NC
N41G41G01X90.291Y104.369
N42 L FLIN.NC
N43G03X64.148Y78.227I10.000J-36.142
N44G01X35.291Y78.227
N45G03X35.291Y58.227I0.000J-10.000
N46G01X64.148Y58.227
N47G03X90.291Y32.085I36.143J10.000
N48G01X90.291Y22.085
N49G01X110.291Y22.085
N50G01X110.291Y32.085
N51G03X136.433Y58.227I-10.000J36.142
N52G01X165.291Y58.227
N53G03X165.291Y78.227I0.000J10.000
N54G01X136.433Y78.227
N55G03X110.291Y104.369I-36.142J-10.000
N56G01X110.291Y114.369
N57G01X90.291Y114.369
N58G01X90.291Y104.369
N59G40
N60P60=69.761 P98=20 P99=20
N61 L BEAM_OFF.NC
;---(PART:1 CONTOUR:4)
N62G00X160.050Y104.950
N63 L BEAM_ON.NC
N64 L SLIN.NC
N65G41G01X157.929Y107.071
N66 L FLIN.NC
N67G03X157.929Y107.071I7.071J-7.071
N68G40
N69P60=67.155 P98=20 P99=20
N70 L BEAM_OFF.NC
;---(PART:1 CONTOUR:5)
N71G00X160.050Y39.950
N72 L BEAM_ON.NC
N73 L SLIN.NC
N74G41G01X157.929Y42.071
N75 L FLIN.NC
N76G03X157.929Y42.071I7.071J-7.071
N77G40
N78P60=82.241 P98=180 P99=115
N79 L BEAM_OFF.NC
;---(PART:1 CONTOUR:6)
N80G00X184.799Y119.799
N81 L BEAM_ON.NC
N82 L SLIN.NC
N83G41G01X182.678Y117.678
N84 L FLIN.NC
N85G02X190.000Y100.000I-17.678J-17.678
N86G01X190.000Y35.000
N87G02X165.000Y10.000I-25.000J0.000
N88G01X35.000Y10.000
N89G02X10.000Y35.000I0.000J25.000
N90G01X10.000Y100.000
N91G02X35.000Y125.000I25.000J0.000
N92G01X165.000Y125.000
N93G02X182.678Y117.678I0.000J-25.000
N94G40
N95P60=0
N96 L BEAM_OFF.NC
N97 L FOP.NC
N98 L END_OF_PROG.NC
N99 $IF [V.E.PLCNC_PARAMS_3[26]==1]
N100 L JobRepeat.NC
N101 $GOTO [JOBREPEAT]
N102 $ENDIF
;---END OF PROGRAM---
N103M02
