;LANTEK
;MATERIAL: Al99
;SHEET DIMENTIONS:[mm]: 229.633 x 162.619 x 0.8
;MIN SHEET DIMENTIONS:[mm]: 219.634 x 152.619
;CUTTING AREA:[mm]: 209.634 x 142.619
;DATE: 22/6/2022 12:38:29
;MACHINE: Nukon Fiber Laser
;CONTROL: Beckhoff C6920-0050
;RUNTIME: [hour min sec]: 00:00:08
;TOTAL NR OF PARTS: 1
;TOTAL NR OF CONTOURS: 9
;TOTAL RAPID MOVEMENT LENGHT: [mm]: 534.851
;STANDARD CUT LENGHT: [mm]: 1148.23
;FINE CUT LENGHT: [mm]: 0
;MACRO CUT LENGHT: [mm]: 0
;FILM BURNING LENGHT: [mm]: 0
;MARKING LENGHT: [mm]: 0
V.E.PLCNC_PARAMS_3[40]=08
;---PROGRAM INFO END
[JOBREPEAT]
N10P4 = 229.633
N11P5 = 162.619
N12P130 = 001
N13P131 = 00800
N14 L LOAD_DEFAULTS.NC
N15 L EDGE_DETECT.NC
N16 L SET_PLATE_ZERO.NC
N17P60=133.88 P98=4 P99=4 P100=10 P101=10
;---(FILE NAME:DXFPAR0105)
;---(PART:1 CONTOUR:1)
N18G00X23.898Y131.730
N19 L SOP.NC
N20 L STANDARD.NC
N21 L BEAM_ON.NC
N22 L SLIN.NC
N23G41G01X20.910Y131.469
N24 L FLIN.NC
N25G03X26.868Y126.469I5.479J0.479
N26G02X83.198Y116.537I9.631J-110.079
N27G03X87.847Y126.506I2.324J4.984
N28G03X25.909Y137.427I-51.348J-110.116
N29G03X20.910Y131.469I0.480J-5.479
N30G40
N31P60=125.742 P98=4 P99=4
N32 L BEAM_OFF.NC
;---(PART:1 CONTOUR:2)
N33G00X143.974Y105.656
N34 L BEAM_ON.NC
N35 L SLIN.NC
N36G41G01X141.853Y107.777
N37 L FLIN.NC
N38G03X141.853Y107.777I3.182J-3.182
N39G40
N40P60=22.96 P98=3 P99=3
N41 L BEAM_OFF.NC
;---(PART:1 CONTOUR:3)
N42G00X155.446Y89.273
N43 L BEAM_ON.NC
N44 L SLIN.NC
N45G41G01X153.324Y91.394
N46 L FLIN.NC
N47G03X153.324Y91.394I3.182J-3.182
N48G40
N49P60=21.723 P98=4 P99=4
N50 L BEAM_OFF.NC
;---(PART:1 CONTOUR:4)
N51G00X172.648Y101.318
N52 L BEAM_ON.NC
N53 L SLIN.NC
N54G41G01X170.526Y103.439
N55 L FLIN.NC
N56G03X170.526Y103.439I3.182J-3.182
N57G40
N58P60=17.054 P98=4 P99=4
N59 L BEAM_OFF.NC
;---(PART:1 CONTOUR:5)
N60G00X161.176Y117.701
N61 L BEAM_ON.NC
N62 L SLIN.NC
N63G41G01X159.055Y119.822
N64 L FLIN.NC
N65G03X159.055Y119.822I3.182J-3.182
N66G40
N67P60=36.142 P98=6 P99=6
N68 L BEAM_OFF.NC
;---(PART:1 CONTOUR:6)
N69G00X190.256Y138.063
N70 L BEAM_ON.NC
N71 L SLIN.NC
N72G41G01X188.135Y140.184
N73 L FLIN.NC
N74G03X188.135Y140.184I3.182J-3.182
N75G40
N76P60=22.96 P98=3 P99=3
N77 L BEAM_OFF.NC
;---(PART:1 CONTOUR:7)
N78G00X201.728Y121.680
N79 L BEAM_ON.NC
N80 L SLIN.NC
N81G41G01X199.606Y123.801
N82 L FLIN.NC
N83G03X199.606Y123.801I3.182J-3.182
N84G40
N85P60=79.629 P98=8 P99=1
N86 L BEAM_OFF.NC
;---(PART:1 CONTOUR:8)
N87G00X130.086Y84.972
N88 L BEAM_ON.NC
N89 L SLIN.NC
N90G41G01X128.366Y87.430
N91 L FLIN.NC
N92G03X127.015Y79.770I3.154J-4.506
N93G02X146.578Y26.020I-90.516J-63.380
N94G03X157.536Y26.979I5.479J0.480
N95G03X136.026Y86.079I-121.037J-10.589
N96G03X128.366Y87.430I-4.506J-3.155
N97G40
N98P60=74.761 P98=3 P99=3
N99 L BEAM_OFF.NC
;---(PART:1 CONTOUR:9)
N100G00X201.329Y103.727
N101 L BEAM_ON.NC
N102 L SLIN.NC
N103G41G01X199.609Y106.185
N104 L FLIN.NC
N105G01X171.486Y86.493
N106G03X164.181Y63.223I11.471J-16.383
N107G02X172.498Y15.970I-127.682J-46.833
N108G02X169.760Y12.991I-3.000J0.010
N109G01X135.702Y10.011
N110G02X132.442Y13.103I-0.261J2.989
N111G03X16.601Y110.305I-95.943J3.287
N112G02X12.991Y112.978I-0.621J2.935
N113G01X10.011Y147.036
N114G02X12.470Y150.250I2.989J0.261
N115G02X124.177Y120.353I24.029J-133.860
N116G03X148.543Y119.259I12.894J15.289
N117G01X195.411Y152.076
N118G02X199.589Y151.340I1.721J-2.457
N119G01X219.091Y123.489
N120G02X218.354Y119.310I-2.458J-1.721
N121G01X199.609Y106.185
N122G40
N123P60=0
N124 L BEAM_OFF.NC
N125 L FOP.NC
N126 L END_OF_PROG.NC
N127 $IF [V.E.PLCNC_PARAMS_3[26]==1]
N128 L JobRepeat.NC
N129 $GOTO [JOBREPEAT]
N130 $ENDIF
;---END OF PROGRAM---
N131M02
