;LANTEK
;MATERIAL: Al99
;SHEET DIMENTIONS:[mm]: 120 x 120 x 0.8
;MIN SHEET DIMENTIONS:[mm]: 110 x 110
;CUTTING AREA:[mm]: 100 x 100
;DATE: 22/6/2022 12:38:34
;MACHINE: Nukon Fiber Laser
;CONTROL: Beckhoff C6920-0050
;RUNTIME: [hour min sec]: 00:00:03
;TOTAL NR OF PARTS: 1
;TOTAL NR OF CONTOURS: 3
;TOTAL RAPID MOVEMENT LENGHT: [mm]: 186.854
;STANDARD CUT LENGHT: [mm]: 600.209
;FINE CUT LENGHT: [mm]: 0
;MACRO CUT LENGHT: [mm]: 0
;FILM BURNING LENGHT: [mm]: 0
;MARKING LENGHT: [mm]: 0
V.E.PLCNC_PARAMS_3[40]=03
;---PROGRAM INFO END
[JOBREPEAT]
N10P4 = 120
N11P5 = 120
N12P130 = 001
N13P131 = 00800
N14 L LOAD_DEFAULTS.NC
N15 L EDGE_DETECT.NC
N16 L SET_PLATE_ZERO.NC
N17P60=87.658 P98=0 P99=0 P100=0 P101=0
;---(FILE NAME:Pieza_prueba_Maxwell)
;---(PART:1 CONTOUR:1)
N18G00X44.444Y75.556
N19 L SOP.NC
N20 L STANDARD.NC
N21 L BEAM_ON.NC
N22 L SLIN.NC
N23G41G01X42.322Y77.678
N24 L FLIN.NC
N25G03X42.322Y77.678I17.678J-17.678
N26G40
N27P60=0 P98=0 P99=0
N28 L BEAM_OFF.NC
;---(PART:1 CONTOUR:2)
N29G00X42.322Y77.678
N30 L BEAM_ON.NC
N31G01X10.000Y110.000
N32P60=99.195 P98=0 P99=0
N33 L BEAM_OFF.NC
;---(PART:1 CONTOUR:3)
N34G00X109.192Y109.192
N35 L BEAM_ON.NC
N36 L SLIN.NC
N37G41G01X107.071Y107.071
N38 L FLIN.NC
N39G02X110.000Y100.000I-7.071J-7.071
N40G01X110.000Y10.000
N41G01X20.000Y10.000
N42G02X10.000Y20.000I0.000J10.000
N43G01X10.000Y110.000
N44G01X100.000Y110.000
N45G02X107.071Y107.071I0.000J-10.000
N46G40
N47P60=0
N48 L BEAM_OFF.NC
N49 L FOP.NC
N50 L END_OF_PROG.NC
N51 $IF [V.E.PLCNC_PARAMS_3[26]==1]
N52 L JobRepeat.NC
N53 $GOTO [JOBREPEAT]
N54 $ENDIF
;---END OF PROGRAM---
N55M02
