;LANTEK
;MATERIAL: Al99
;SHEET DIMENTIONS:[mm]: 313 x 182 x 0.8
;MIN SHEET DIMENTIONS:[mm]: 303 x 172
;CUTTING AREA:[mm]: 293 x 162
;DATE: 22/6/2022 12:38:54
;MACHINE: Nukon Fiber Laser
;CONTROL: Beckhoff C6920-0050
;RUNTIME: [hour min sec]: 00:00:41
;TOTAL NR OF PARTS: 1
;TOTAL NR OF CONTOURS: 22
;TOTAL RAPID MOVEMENT LENGHT: [mm]: 1198.79
;STANDARD CUT LENGHT: [mm]: 1159.68
;FINE CUT LENGHT: [mm]: 180.75
;MACRO CUT LENGHT: [mm]: 0
;FILM BURNING LENGHT: [mm]: 0
;MARKING LENGHT: [mm]: 0
V.E.PLCNC_PARAMS_3[40]=41
;---PROGRAM INFO END
[JOBREPEAT]
N10P4 = 313
N11P5 = 182
N12P130 = 001
N13P131 = 00800
N14 L LOAD_DEFAULTS.NC
N15 L EDGE_DETECT.NC
N16 L SET_PLATE_ZERO.NC
N17P60=71.887 P98=226 P99=82 P100=10 P101=10
;---(FILE NAME:DXFPUNC0)
;---(PART:1 CONTOUR:1)
N18G00X52.600Y49.000
N19 L SOP.NC
N20 L FINE.NC
N21 L BEAM_ON.NC
N22 L SLIN.NC
N23G41G01X51.009Y50.591
N24 L FLIN.NC
N25G03X51.009Y50.591I1.591J-1.591
N26G40
N27P60=20.583 P98=0 P99=0
N28 L BEAM_OFF.NC
;---(PART:1 CONTOUR:2)
N29G00X58.972Y69.571
N30 L BEAM_ON.NC
N31 L SLIN.NC
N32G41G01X57.381Y71.162
N33 L FLIN.NC
N34G03X57.381Y71.162I1.591J-1.591
N35G40
N36P60=14.208 P98=0 P99=0
N37 L BEAM_OFF.NC
;---(PART:1 CONTOUR:3)
N38G00X69.036Y63.036
N39 L BEAM_ON.NC
N40 L SLIN.NC
N41G41G01X67.905Y64.167
N42 L FLIN.NC
N43G03X67.905Y64.167I1.131J-1.131
N44G40
N45P60=13.569 P98=0 P99=0
N46 L BEAM_OFF.NC
;---(PART:1 CONTOUR:4)
N47G00X79.100Y56.500
N48 L BEAM_ON.NC
N49 L SLIN.NC
N50G41G01X77.509Y58.091
N51 L FLIN.NC
N52G03X77.509Y58.091I1.591J-1.591
N53G40
N54P60=23.888 P98=0 P99=0
N55 L BEAM_OFF.NC
;---(PART:1 CONTOUR:5)
N56G00X99.600Y49.000
N57 L BEAM_ON.NC
N58 L SLIN.NC
N59G41G01X98.009Y50.591
N60 L FLIN.NC
N61G03X98.009Y50.591I1.591J-1.591
N62G40
N63P60=78.235 P98=0 P99=0
N64 L BEAM_OFF.NC
;---(PART:1 CONTOUR:6)
N65G00X76.420Y125.788
N66 L BEAM_ON.NC
N67 L SLIN.NC
N68G41G01X76.137Y126.071
N69 L FLIN.NC
N70G01X73.769Y123.702
N71G03X74.334Y123.137I0.282J-0.283
N72G01X79.072Y127.874
N73G03X78.506Y128.440I-0.283J0.283
N74G01X76.137Y126.071
N75G40
N76P60=51.465 P98=0 P99=0
N77 L BEAM_OFF.NC
;---(PART:1 CONTOUR:7)
N78G00X116.500Y158.000
N79 L BEAM_ON.NC
N80 L SLIN.NC
N81G41G01X115.263Y159.237
N82 L FLIN.NC
N83G03X115.263Y159.237I1.237J-1.237
N84G40
N85P60=41.238 P98=0 P99=0
N86 L BEAM_OFF.NC
;---(PART:1 CONTOUR:8)
N87G00X156.500Y158.958
N88 L BEAM_ON.NC
N89 L SLIN.NC
N90G41G01X156.500Y159.358
N91 L FLIN.NC
N92G01X153.150Y159.358
N93G03X153.150Y158.558I0.000J-0.400
N94G01X159.850Y158.558
N95G03X159.850Y159.358I0.000J0.400
N96G01X156.500Y159.358
N97G40
N98P60=40.023 P98=0 P99=0
N99 L BEAM_OFF.NC
;---(PART:1 CONTOUR:9)
N100G00X196.500Y158.000
N101 L BEAM_ON.NC
N102 L SLIN.NC
N103G41G01X195.263Y159.237
N104 L FLIN.NC
N105G03X195.263Y159.237I1.237J-1.237
N106G40
N107P60=53.159 P98=0 P99=0
N108 L BEAM_OFF.NC
;---(PART:1 CONTOUR:10)
N109G00X236.580Y125.788
N110 L BEAM_ON.NC
N111 L SLIN.NC
N112G41G01X236.863Y126.071
N113 L FLIN.NC
N114G01X234.494Y128.440
N115G03X233.928Y127.874I-0.283J-0.283
N116G01X238.666Y123.137
N117G03X239.231Y123.702I0.283J0.282
N118G01X236.863Y126.071
N119G40
N120P60=106.778 P98=0 P99=0
N121 L BEAM_OFF.NC
;---(PART:1 CONTOUR:11)
N122G00X224.600Y20.000
N123 L BEAM_ON.NC
N124 L SLIN.NC
N125G41G01X223.893Y20.707
N126 L FLIN.NC
N127G03X223.893Y20.707I0.707J-0.707
N128G40
N129P60=2.784 P98=0 P99=0
N130 L BEAM_OFF.NC
;---(PART:1 CONTOUR:12)
N131G00X221.200Y20.000
N132 L BEAM_ON.NC
N133 L SLIN.NC
N134G41G01X220.493Y20.707
N135 L FLIN.NC
N136G03X220.493Y20.707I0.707J-0.707
N137G40
N138P60=2.784 P98=0 P99=0
N139 L BEAM_OFF.NC
;---(PART:1 CONTOUR:13)
N140G00X217.800Y20.000
N141 L BEAM_ON.NC
N142 L SLIN.NC
N143G41G01X217.093Y20.707
N144 L FLIN.NC
N145G03X217.093Y20.707I0.707J-0.707
N146G40
N147P60=2.784 P98=0 P99=0
N148 L BEAM_OFF.NC
;---(PART:1 CONTOUR:14)
N149G00X214.400Y20.000
N150 L BEAM_ON.NC
N151 L SLIN.NC
N152G41G01X213.693Y20.707
N153 L FLIN.NC
N154G03X213.693Y20.707I0.707J-0.707
N155G40
N156P60=70.822 P98=0 P99=0
N157 L BEAM_OFF.NC
;---(PART:1 CONTOUR:15)
N158G00X208.000Y91.300
N159 L STANDARD.NC
N160 L BEAM_ON.NC
N161 L SLIN.NC
N162G41G01X208.000Y94.300
N163 L FLIN.NC
N164G01X204.750Y94.300
N165G01X204.750Y84.300
N166G01X211.250Y84.300
N167G01X211.250Y94.300
N168G01X208.000Y94.300
N169G40
N170P60=62.791 P98=0 P99=0
N171 L BEAM_OFF.NC
;---(PART:1 CONTOUR:16)
N172G00X270.429Y87.571
N173 L BEAM_ON.NC
N174 L SLIN.NC
N175G41G01X268.308Y89.692
N176 L FLIN.NC
N177G03X268.308Y89.692I2.192J-2.192
N178G40
N179P60=31.053 P98=0 P99=0
N180 L BEAM_OFF.NC
;---(PART:1 CONTOUR:17)
N181G00X277.629Y60.071
N182 L BEAM_ON.NC
N183 L SLIN.NC
N184G41G01X275.508Y62.192
N185 L FLIN.NC
N186G03X275.508Y62.192I2.192J-2.192
N187G40
N188P60=172.975 P98=0 P99=0
N189 L BEAM_OFF.NC
;---(PART:1 CONTOUR:18)
N190G00X105.000Y91.300
N191 L BEAM_ON.NC
N192 L SLIN.NC
N193G41G01X105.000Y94.300
N194 L FLIN.NC
N195G01X101.750Y94.300
N196G01X101.750Y84.300
N197G01X108.250Y84.300
N198G01X108.250Y94.300
N199G01X105.000Y94.300
N200G40
N201P60=45.434 P98=0 P99=0
N202 L BEAM_OFF.NC
;---(PART:1 CONTOUR:19)
N203G00X60.771Y83.904
N204 L BEAM_ON.NC
N205 L SLIN.NC
N206G41G01X58.255Y85.538
N207 L FLIN.NC
N208G03X59.725Y78.621I4.193J-2.724
N209G01X86.982Y60.920
N210G03X92.428Y69.307I2.723J4.194
N211G01X65.171Y87.008
N212G03X58.255Y85.538I-2.723J-4.194
N213G40
N214P60=15.956 P98=0 P99=0
N215 L BEAM_OFF.NC
;---(PART:1 CONTOUR:20)
N216G00X42.429Y87.571
N217 L BEAM_ON.NC
N218 L SLIN.NC
N219G41G01X40.308Y89.692
N220 L FLIN.NC
N221G03X40.308Y89.692I2.192J-2.192
N222G40
N223P60=30.053 P98=0 P99=0
N224 L BEAM_OFF.NC
;---(PART:1 CONTOUR:21)
N225G00X35.229Y60.071
N226 L BEAM_ON.NC
N227 L SLIN.NC
N228G41G01X33.108Y62.192
N229 L FLIN.NC
N230G03X33.108Y62.192I2.192J-2.192
N231G40
N232P60=246.319 P98=0 P99=0
N233 L BEAM_OFF.NC
;---(PART:1 CONTOUR:22)
N234G00X275.500Y106.000
N235 L BEAM_ON.NC
N236 L SLIN.NC
N237G41G01X275.500Y103.000
N238 L FLIN.NC
N239G01X275.500Y73.700
N240G01X282.700Y66.500
N241G01X282.700Y54.500
N242G01X292.300Y54.500
N243G01X292.300Y42.000
N244G01X303.000Y42.000
N245G01X303.000Y25.500
N246G01X293.500Y25.500
N247G01X293.500Y12.500
N248G01X282.700Y12.500
N249G01X282.700Y10.000
N250G01X232.500Y10.000
N251G01X232.500Y20.000
N252G01X226.000Y20.000
N253G01X226.000Y10.000
N254G01X213.000Y10.000
N255G01X213.000Y20.000
N256G01X206.500Y20.000
N257G01X206.500Y10.000
N258G01X106.000Y10.000
N259G01X106.000Y22.000
N260G01X46.000Y22.000
N261G01X46.000Y10.000
N262G01X30.300Y10.000
N263G01X30.300Y12.500
N264G01X19.500Y12.500
N265G01X19.500Y25.500
N266G01X10.000Y25.500
N267G01X10.000Y42.000
N268G01X20.700Y42.000
N269G01X20.700Y54.500
N270G01X30.300Y54.500
N271G01X30.300Y66.500
N272G01X37.500Y73.700
N273G01X37.500Y103.000
N274G01X97.000Y162.500
N275G01X121.000Y162.500
N276G01X121.000Y172.000
N277G01X192.000Y172.000
N278G01X192.000Y162.500
N279G01X216.000Y162.500
N280G01X275.146Y103.354
N281G40
N282P60=0
N283 L BEAM_OFF.NC
N284 L FOP.NC
N285 L END_OF_PROG.NC
N286 $IF [V.E.PLCNC_PARAMS_3[26]==1]
N287 L JobRepeat.NC
N288 $GOTO [JOBREPEAT]
N289 $ENDIF
;---END OF PROGRAM---
N290M02
