N0010 (Post processor: Lantek Apr 14 2022 / 10:42:32)
N0020 (Filename: 282.tap)
N0030 (Thickness: 0.8)
N0040 (Date: 06/22/22)
N0050 (Amperage : 85)
N0060 G21
N0070 G90
N0080 G90.1 G40
N0090 G00 X58.880 Y52.180
N0100 M11P5
N0110 M3
N0120 G01 X65.259 Y40.853 F210
N0130 M10P5
N0140 G01 X66.240 Y39.110 F147
N0150 G03 X70.930 Y38.410 I68.857 J40.585
N0160 G03 X72.325 Y39.850 I55.124 J55.118
N0170 M11P5
N0180 G03 X38.740 Y71.260 I55.124 J55.118 F210
N0190 G03 X65.509 Y34.495 I54.891 J54.892
N0200 M10P5
N0210 G03 X70.140 Y37.680 I54.891 J54.892 F147
N0220 G01 X68.040 Y39.700
N0230 M5
N0240 G00 X37.320 Y72.680
N0250 M11P5
N0260 M3
N0270 G01 X5.000 Y105.000 F210
N0280 M5
N0290 G00 X6.980 Y5.890
N0300 M10P5
N0310 M3
N0320 G01 X6.990 Y5.910 F147
N0330 G03 X6.950 Y6.100 I6.839 J5.977
N0340 G02 X3.000 Y15.000 I15.001 J15.000
N0350 G01 X3.000 Y16.995
N0360 M11P5
N0370 G01 X3.000 Y102.995 F210
N0380 M10P5
N0390 G01 X3.000 Y105.000 F147
N0400 G02 X5.000 Y107.000 I5.000 J105.000
N0410 G01 X6.995 Y107.000
N0420 M11P5
N0430 G01 X92.995 Y107.000 F210
N0440 M10P5
N0450 G01 X95.000 Y107.000 F147
N0460 G02 X107.000 Y95.000 I95.000 J95.000
N0470 G01 X107.000 Y93.005
N0480 M11P5
N0490 G01 X107.000 Y7.005 F210
N0500 M10P5
N0510 G01 X107.000 Y5.000 F147
N0520 G02 X105.000 Y3.000 I105.000 J5.000
N0530 G01 X103.005 Y3.000
N0540 M11P5
N0550 G01 X17.005 Y3.000 F210
N0560 M10P5
N0570 G01 X15.000 Y3.000 F147
N0580 G02 X6.100 Y6.950 I14.999 J15.000
N0590 M5
N0600 G00 X0.000 Y0.000
N0610 M30
