N0010 (Post processor: Lantek Apr 14 2022 / 10:42:32)
N0020 (Filename: 283.tap)
N0030 (Thickness: 0.8)
N0040 (Date: 06/22/22)
N0050 (Amperage : 85)
N0060 G21
N0070 G90
N0080 G90.1 G40
N0090 G00 X31.960 Y30.420
N0100 M11P5
N0110 M3
N0120 G01 X32.752 Y26.730 F210
N0130 M10P5
N0140 G01 X33.170 Y24.780 F147
N0150 G03 X35.370 Y24.070 I34.472 J25.051
N0160 G03 X24.340 Y35.660 I29.904 J29.912
N0170 G03 X34.400 Y23.320 I30.019 J30.019
N0180 G01 X32.370 Y25.160
N0190 M5
N0200 G00 X31.960 Y95.420
N0210 M11P5
N0220 M3
N0230 G01 X32.752 Y91.730 F210
N0240 M10P5
N0250 G01 X33.170 Y89.780 F147
N0260 G03 X35.370 Y89.070 I34.472 J90.051
N0270 G03 X24.340 Y100.660 I29.904 J94.912
N0280 G03 X34.400 Y88.320 I30.019 J95.019
N0290 G01 X32.370 Y90.160
N0300 M5
N0310 G00 X116.430 Y55.230
N0320 M11P5
N0330 M3
N0340 G01 X131.430 Y55.230 F210
N0350 G01 X158.288 Y55.230
N0360 M10P5
N0370 G01 X160.290 Y55.230 F147
N0380 G03 X160.290 Y71.230 I160.290 J63.230
N0390 G01 X158.292 Y71.230
N0400 M11P5
N0410 G01 X133.434 Y71.230 F210
N0420 M10P5
N0430 G01 X131.430 Y71.230 F147
N0440 G02 X129.510 Y72.690 I131.436 J73.230
N0450 G03 X128.920 Y74.610 I95.292 J63.222
N0460 M11P5
N0470 G03 X106.667 Y96.854 I95.292 J63.222 F210
N0480 M10P5
N0490 G03 X104.760 Y97.440 I95.292 J63.222 F147
N0500 G02 X103.290 Y99.370 I105.291 J99.370
N0510 G01 X103.290 Y101.371
N0520 M11P5
N0530 G01 X103.290 Y102.371
N0540 M10P5
N0550 G01 X103.290 Y107.370
N0560 G01 X98.289 Y107.370
N0570 M11P5
N0580 G01 X92.289 Y107.370 F210
N0590 M10P5
N0600 G01 X87.290 Y107.370 F147
N0610 G01 X87.290 Y102.369
N0620 M11P5
N0630 G01 X87.290 Y101.369
N0640 M10P5
N0650 G01 X87.290 Y99.370
N0660 G02 X85.820 Y97.440 I85.290 J99.368
N0670 G03 X83.913 Y96.854 I95.293 J63.231
N0680 M11P5
N0690 G03 X61.667 Y74.602 I95.293 J63.231 F210
N0700 M10P5
N0710 G03 X61.080 Y72.690 I95.293 J63.231 F147
N0720 G02 X59.150 Y71.230 I59.151 J73.234
N0730 G01 X57.146 Y71.230
N0740 M11P5
N0750 G01 X32.289 Y71.230 F210
N0760 M10P5
N0770 G01 X30.290 Y71.230 F147
N0780 G03 X30.290 Y55.230 I30.290 J63.230
N0790 G01 X32.291 Y55.230
N0800 M11P5
N0810 G01 X57.149 Y55.230 F210
N0820 M10P5
N0830 G01 X59.150 Y55.230 F147
N0840 G02 X61.080 Y53.760 I59.152 J53.230
N0850 G03 X61.665 Y51.854 I95.293 J63.219
N0860 M11P5
N0870 G03 X83.907 Y29.598 I95.293 J63.219 F210
N0880 M10P5
N0890 G03 X85.820 Y29.010 I95.293 J63.219 F147
N0900 G02 X87.290 Y27.080 I85.289 J27.080
N0910 G01 X87.290 Y25.086
N0920 M11P5
N0930 G01 X87.290 Y24.086
N0940 M10P5
N0950 G01 X87.290 Y19.080
N0960 G01 X92.284 Y19.080
N0970 M11P5
N0980 G01 X98.284 Y19.080 F210
N0990 M10P5
N1000 G01 X103.290 Y19.080 F147
N1010 G01 X103.290 Y24.074
N1020 M11P5
N1030 G01 X103.290 Y25.074 F210
N1040 M10P5
N1050 G01 X103.290 Y27.080 F147
N1060 G02 X104.760 Y29.010 I105.290 J27.082
N1070 G03 X106.661 Y29.594 I95.290 J63.230
N1080 M11P5
N1090 G03 X129.510 Y53.760 I95.290 J63.230 F210
N1100 G01 X130.040 Y55.690
N1110 M5
N1120 G00 X161.960 Y95.420
N1130 M11P5
N1140 M3
N1150 G01 X162.752 Y91.730 F210
N1160 M10P5
N1170 G01 X163.170 Y89.780 F147
N1180 G03 X165.370 Y89.070 I164.472 J90.051
N1190 G03 X154.340 Y100.660 I159.904 J94.912
N1200 G03 X164.400 Y88.320 I160.019 J95.019
N1210 G01 X162.370 Y90.160
N1220 M5
N1230 G00 X161.960 Y30.420
N1240 M11P5
N1250 M3
N1260 G01 X162.752 Y26.730 F210
N1270 M10P5
N1280 G01 X163.170 Y24.780 F147
N1290 G03 X165.370 Y24.070 I164.472 J25.051
N1300 G03 X154.340 Y35.660 I159.904 J29.912
N1310 G03 X164.400 Y23.320 I160.019 J30.019
N1320 G01 X162.370 Y25.160
N1330 M5
N1340 G00 X183.810 Y11.030
N1350 M10P5
N1360 M3
N1370 G01 X182.450 Y11.970 F147
N1380 G03 X179.840 Y11.690 I181.306 J10.333
N1390 G02 X178.430 Y10.272 I159.998 J29.998
N1400 M11P5
N1410 G02 X160.000 Y3.000 I159.998 J29.998 F210
N1420 G01 X30.000 Y3.000
N1430 G02 X3.000 Y30.000 I30.000 J30.000
N1440 G01 X3.000 Y95.000
N1450 G02 X30.000 Y122.000 I30.000 J95.000
N1460 G01 X160.000 Y122.000
N1470 G02 X187.000 Y95.000 I160.000 J95.000
N1480 G01 X187.000 Y30.000
N1490 G02 X179.090 Y10.910 I160.000 J30.004
N1500 M5
N1510 G00 X0.000 Y0.000
N1520 M30
