N0010 (Post processor: Lantek Apr 14 2022 / 10:42:32)
N0020 (Filename: 284.tap)
N0030 (Thickness: 0.8)
N0040 (Date: 06/22/22)
N0050 (Amperage : 85)
N0060 G21
N0070 G90
N0080 G90.1 G40
N0090 G00 X39.470 Y18.160
N0100 M11P5
N0110 M3
N0120 G01 X48.684 Y27.331 F210
N0130 M10P5
N0140 G01 X50.100 Y28.740 F147
N0150 G03 X40.830 Y36.240 I45.868 J32.988
N0160 G02 X37.790 Y35.850 I39.145 J37.328
N0170 G02 X36.310 Y37.238 I121.868 J126.992
N0180 M11P5
N0190 G02 X3.663 Y89.527 I121.868 J126.992 F210
N0200 M10P5
N0210 G02 X3.080 Y91.420 I121.868 J126.992 F147
N0220 G02 X5.000 Y93.990 I5.001 J91.987
N0230 G01 X7.026 Y93.990
N0240 M11P5
N0250 G01 X13.896 Y93.990 F210
N0260 M10P5
N0270 G01 X15.870 Y93.990 F147
N0280 G02 X17.870 Y91.990 I15.870 J91.990
N0290 G01 X17.870 Y89.990
N0300 G01 X18.896 Y89.990
N0310 M11P5
N0320 G01 X30.896 Y89.990 F210
N0330 M10P5
N0340 G01 X35.870 Y89.990 F147
N0350 G01 X35.870 Y91.990
N0360 G02 X37.870 Y93.990 I37.870 J91.990
N0370 G01 X39.896 Y93.990
N0380 M11P5
N0390 G01 X47.896 Y93.990 F210
N0400 M10P5
N0410 G01 X49.870 Y93.990 F147
N0420 G02 X50.820 Y93.750 I49.870 J91.990
N0430 G01 X52.603 Y92.788
N0440 M11P5
N0450 G01 X91.940 Y71.550 F210
N0460 G03 X131.213 Y64.688 I121.863 J126.994
N0470 M10P5
N0480 G03 X136.100 Y65.620 I121.863 J126.994 F147
N0490 G01 X136.815 Y66.353
N0500 M11P5
N0510 G01 X152.059 Y81.975 F210
N0520 M10P5
N0530 G01 X153.440 Y83.390 F147
N0540 G02 X154.870 Y83.990 I154.869 J81.989
N0550 G01 X156.896 Y83.990
N0560 M11P5
N0570 G01 X163.426 Y83.990 F210
N0580 M10P5
N0590 G01 X165.400 Y83.990 F147
N0600 G02 X167.390 Y82.230 I165.404 J81.990
N0610 G01 X167.635 Y80.227
N0620 M11P5
N0630 G01 X168.037 Y76.932 F210
N0640 M10P5
N0650 G01 X168.640 Y71.990 F147
N0660 G01 X169.662 Y71.990
N0670 M11P5
N0680 G01 X170.122 Y71.990
N0690 M10P5
N0700 G01 X175.100 Y71.990
N0710 G01 X175.225 Y73.004
N0720 M11P5
N0730 G01 X176.119 Y80.269 F210
N0740 M10P5
N0750 G01 X176.360 Y82.230 F147
N0760 G02 X178.340 Y83.990 I178.341 J81.996
N0770 G01 X180.365 Y83.990
N0780 M11P5
N0790 G01 X187.625 Y83.990 F210
N0800 M10P5
N0810 G01 X189.600 Y83.990 F147
N0820 G02 X191.600 Y82.090 I189.603 J81.990
N0830 G01 X191.703 Y80.072
N0840 M11P5
N0850 G01 X191.779 Y78.599 F210
N0860 M10P5
N0870 G01 X191.880 Y76.620 F147
N0880 G03 X203.820 Y72.040 I198.870 J76.989
N0890 G01 X205.250 Y73.469
N0900 M11P5
N0910 G01 X211.061 Y79.273 F210
N0920 M10P5
N0930 G01 X212.460 Y80.670 F147
N0940 G02 X215.870 Y79.260 I213.876 J79.266
N0950 G01 X215.870 Y72.990
N0960 G01 X216.891 Y72.990
N0970 M11P5
N0980 G01 X228.281 Y72.990 F210
N0990 M10P5
N1000 G01 X230.260 Y72.990 F147
N1010 G02 X232.040 Y70.070 I230.264 J70.990
N1020 G02 X231.102 Y68.290 I121.871 J126.991
N1030 M11P5
N1040 G02 X154.197 Y7.274 I121.871 J126.991 F210
N1050 M10P5
N1060 G02 X152.270 Y6.770 I121.871 J126.991 F147
N1070 G02 X149.790 Y8.490 I151.779 J8.710
N1080 G03 X121.980 Y5.250 I135.861 J7.076
N1090 G02 X119.960 Y3.000 I119.989 J5.005
N1100 G02 X118.133 Y3.042 I121.883 J126.990
N1110 M11P5
N1120 G02 X50.360 Y25.690 I121.883 J126.990 F210
N1130 G01 X48.730 Y26.840
N1140 M5
N1150 G00 X0.000 Y0.000
N1160 M30
