N0010 (Post processor: Lantek Apr 14 2022 / 10:42:32)
N0020 (Filename: 285.tap)
N0030 (Thickness: 0.8)
N0040 (Date: 06/22/22)
N0050 (Amperage : 85)
N0060 G21
N0070 G90
N0080 G90.1 G40
N0090 G00 X42.090 Y51.290
N0100 M11P5
N0110 M3
N0120 G01 X44.194 Y49.363 F210
N0130 M10P5
N0140 G01 X45.670 Y48.010 F147
N0150 G03 X48.450 Y48.080 I47.024 J49.487
N0160 G02 X49.860 Y49.492 I128.738 J-30.711
N0170 M11P5
N0180 G02 X70.733 Y65.672 I128.738 J-30.711 F210
N0190 M10P5
N0200 G02 X72.460 Y66.690 I128.738 J-30.711 F147
N0210 G03 X68.960 Y72.750 I70.710 J69.720
N0220 G03 X67.238 Y71.736 I128.710 J-30.740
N0230 M11P5
N0240 G03 X26.235 Y30.735 I128.710 J-30.740 F210
N0250 M10P5
N0260 G03 X25.220 Y29.010 I128.710 J-30.740 F147
N0270 G03 X31.280 Y25.510 I28.250 J27.260
N0280 G02 X32.296 Y27.234 I128.708 J-30.744
N0290 M11P5
N0300 G02 X49.160 Y48.810 I128.708 J-30.744 F210
N0310 M5
N0320 G00 X120.690 Y109.060
N0330 M10P5
N0340 M3
N0350 G01 X120.910 Y107.570 F147
N0360 G03 X116.940 Y110.530 I118.713 J108.766
N0370 G03 X118.630 Y106.260 I118.712 J108.762
N0380 G01 X117.460 Y107.190
N0390 M5
N0400 G00 X140.690 Y109.060
N0410 M10P5
N0420 M3
N0430 G01 X140.910 Y107.570 F147
N0440 G03 X136.940 Y110.530 I138.713 J108.766
N0450 G03 X138.630 Y106.260 I138.712 J108.762
N0460 G01 X137.460 Y107.190
N0470 M5
N0480 G00 X140.690 Y130.060
N0490 M10P5
N0500 M3
N0510 G01 X140.910 Y128.570 F147
N0520 G03 X136.940 Y131.530 I138.713 J129.766
N0530 G03 X138.630 Y127.260 I138.712 J129.762
N0540 G01 X137.460 Y128.190
N0550 M5
N0560 G00 X120.690 Y130.060
N0570 M10P5
N0580 M3
N0590 G01 X120.910 Y128.570 F147
N0600 G03 X116.940 Y131.530 I118.713 J129.766
N0610 G03 X118.630 Y127.260 I118.712 J129.762
N0620 G01 X117.460 Y128.190
N0630 M5
N0640 G00 X120.690 Y165.560
N0650 M10P5
N0660 M3
N0670 G01 X120.910 Y164.070 F147
N0680 G03 X116.940 Y167.030 I118.713 J165.266
N0690 G03 X118.630 Y162.760 I118.712 J165.262
N0700 G01 X117.460 Y163.690
N0710 M5
N0720 G00 X140.690 Y165.560
N0730 M10P5
N0740 M3
N0750 G01 X140.910 Y164.070 F147
N0760 G03 X136.940 Y167.030 I138.713 J165.266
N0770 G03 X138.630 Y162.760 I138.712 J165.262
N0780 G01 X137.460 Y163.690
N0790 M5
N0800 G00 X156.440 Y85.290
N0810 M11P5
N0820 M3
N0830 G01 X155.823 Y82.505 F210
N0840 M10P5
N0850 G01 X155.390 Y80.550 F147
N0860 G03 X156.840 Y78.180 I157.339 J80.114
N0870 G02 X158.769 Y77.664 I128.739 J-30.747
N0880 M11P5
N0890 G02 X183.217 Y67.675 I128.739 J-30.747 F210
N0900 M10P5
N0910 G02 X184.960 Y66.690 I128.739 J-30.747 F147
N0920 G03 X188.460 Y72.750 I186.710 J69.720
N0930 G03 X186.719 Y73.736 I128.710 J-30.740
N0940 M11P5
N0950 G03 X130.709 Y88.743 I128.710 J-30.740 F210
N0960 M10P5
N0970 G03 X128.710 Y88.760 I128.710 J-30.740 F147
N0980 G03 X128.710 Y81.760 I128.710 J85.260
N0990 G02 X130.711 Y81.742 I128.688 J-30.740
N1000 M11P5
N1010 G02 X157.830 Y77.920 I128.688 J-30.740 F210
N1020 M5
N1030 G00 X174.500 Y31.080
N1040 M11P5
N1050 M3
N1060 G01 X182.506 Y41.322 F210
N1070 M10P5
N1080 G01 X183.740 Y42.900 F147
N1090 G03 X183.330 Y45.760 I182.174 J44.135
N1100 G03 X181.695 Y46.902 I128.713 J-30.742
N1110 M11P5
N1120 G03 X43.015 Y7.878 I128.713 J-30.742 F210
N1130 M10P5
N1140 G03 X42.210 Y6.040 I128.713 J-30.742 F147
N1150 G02 X35.110 Y3.670 I37.610 J8.000
N1160 G01 X33.381 Y4.668
N1170 M11P5
N1180 G01 X7.236 Y19.758 F210
N1190 M10P5
N1200 G01 X5.500 Y20.760 F147
N1210 G02 X3.460 Y27.190 I7.998 J25.091
N1220 G02 X4.310 Y28.994 I128.707 J-30.746
N1230 M11P5
N1240 G02 X93.330 Y102.640 I128.707 J-30.746 F210
N1250 G03 X106.710 Y120.040 I88.707 J120.039
N1260 G01 X106.710 Y175.248
N1270 M10P5
N1280 G01 X106.710 Y177.260 F147
N1290 G02 X111.710 Y182.260 I111.710 J177.260
N1300 G01 X113.698 Y182.260
N1310 M11P5
N1320 G01 X143.698 Y182.260 F210
N1330 M10P5
N1340 G01 X145.710 Y182.260 F147
N1350 G02 X150.710 Y177.260 I145.710 J177.260
N1360 G01 X150.710 Y175.272
N1370 M11P5
N1380 G01 X150.710 Y120.040 F210
N1390 G03 X164.100 Y102.640 I168.710 J120.040
N1400 G02 X206.557 Y83.207 I128.724 J-30.744
N1410 M10P5
N1420 G02 X208.210 Y82.060 I128.724 J-30.744 F147
N1430 G02 X209.660 Y75.470 I205.328 J77.971
N1440 G01 X208.668 Y73.752
N1450 M11P5
N1460 G01 X193.578 Y47.606 F210
N1470 M10P5
N1480 G01 X192.570 Y45.860 F147
N1490 G02 X185.230 Y44.370 I188.241 J48.362
N1500 G03 X183.636 Y45.545 I128.668 J-30.708
N1510 M11P5
N1520 G03 X182.530 Y46.330 I128.668 J-30.708 F210
N1530 M5
N1540 G00 X0.000 Y0.000
N1550 M30
