%_N_E000145_MPF
;$PATH=/_N_WKS_DIR/_N_E000145_WPD
; (MAIN PROGRAM)
;*MODEL EAG1530
;PART SIZE: 110.1 X 110.1
;DATE: Wednesday, June 22, 2022
;*SHEET 120.0 120.0 0.8
;MATERIAL: Al99 0.8
;GAS: 
;*T100  B 0.2  
;PROCESS_END
V.E.MATERIAL="Al990.8"
;NumberOfSheets=1
G90
M40
#SET SLOPE PROFIL[2]
#MEAS MODE[1]
#ACS OFF
G131 100
G54
V.E.PROGRAM_TIME=0
V.E.PERFORATION=FALSE
G01 Z0 F10000
V.E.SHEET_X=120.0
V.E.SHEET_Y=120.0
$IF V.E.PS_ZERO_POSITION ;zero point
V.G.NP[2].V[0] = V.G.NP[1].V[0] 
V.G.NP[2].V[1] = V.G.NP[1].V[1] 
$ELSE
V.G.NP[2].V[0] = V.A.ABS.X 
V.G.NP[2].V[1] = V.A.ABS.Y 
$ENDIF
$IF V.E.PS_LAST_POSITION
V.G.NP[2].V[0] = V.E.LAST_POSX
V.G.NP[2].V[1] = V.E.LAST_POSY 
$ENDIF
$IF V.E.PS_SHEET
LMachine/MeasurementSheetPS.nc ;ignore sim
V.G.NP[2].V[0] = V.E.MS_SAVEX0
V.G.NP[2].V[1] = V.E.MS_SAVEY0
#ACS DEF [1][0,0,0,0,0,V.E.MS_SAVEANGLE]  
#ACS ON[1]
$ENDIF
$IF V.E.PS_SHEETCONTINUE
V.G.NP[2].V[0] = V.E.MS_SAVEX0
V.G.NP[2].V[1] = V.E.MS_SAVEY0
#ACS DEF [1][0,0,0,0,0,V.E.MS_SAVEANGLE]  
#ACS ON[1]
$ENDIF
G55
$IF V.E.PS_CALIBRATION
LMachine/CalibrationPS.nc ;ignore sim
$ENDIF
;End start
M100 ;Copy table
#FLUSH WAIT
G04 1
LAT/MainParam
LAT/L01
LAT/L02
LAT/L03
LAT/L04
LAT/L05
LAT/L06
LAT/L07
LAT/L08
LAT/L09
LAT/L10
LAT/L11
LAT/L12
LAT/L13
LAT/L14
LAT/L15
LAT/L16
LAT/L17
LAT/L18
G90
M20 ;gas
;M0
;
V.E.PROGRAM_TIME=1
$IF V.E.START_PART!="SP0SC0"
$GOTO V.E.START_PART
$ENDIF
;Start timer
V.E.PROGRAM_TIME=1
;
;DETAIL Pieza_prueba_Maxwell 1
;CONTOUR Pieza_prueba_Maxwell 1
V.E.START_PART="SP1SC1"
[SP1SC1]
N111 M101
N112 G1X43.8Y43.96 F200000 M12
N113 ;(Laser Start)
N114 M50
/N115 M9
N116 M113
N117 M50
/N118 M10
N119 G1X42.38Y42.55 FV.E.FEEDRATE[13]
N120 G3X42.38Y42.38I0.08J-0.09 
N121 M105
N122 FV.E.FEEDRATE[5]
N123 G3X42.38Y42.38I17.62J17.62 
M11
M13
;(Laser End)
M53
;DETAIL Pieza_prueba_Maxwell 1
;CONTOUR Pieza_prueba_Maxwell 2
V.E.START_PART="SP1SC2"
[SP1SC2]
N124 M101
N125 G1X42.32Y77.68 F200000 M12
N126 ;(Laser Start)
N127 M50
/N128 M9
N129 M105
N130 M50
/N131 M10
N132 G1X10.Y110. FV.E.FEEDRATE[5]
M11
M13
;(Laser End)
M53
;DETAIL Pieza_prueba_Maxwell 1
;CONTOUR Pieza_prueba_Maxwell 3
V.E.START_PART="SP1SC3"
[SP1SC3]
N133 M101
N134 G1X110.07Y54.96 F200000 M12
N135 ;(Laser Start)
N136 M50
/N137 M9
N138 M113
N139 M50
/N140 M10
N141 G1X110.07Y9.92 FV.E.FEEDRATE[13]
N142 G04 99999.999
N143 M105
N144 FV.E.FEEDRATE[5]
N145 G1X20.Y9.92 
N146 G2X9.92Y20.I0.J10.08 
N147 G1X9.92Y110.07 
N148 G04 99999.999
N149 G1X100.Y110.07 
N150 G2X110.07Y100.I0.J-10.07 
N151 G1X110.07Y54.96 
M11
M13
;(Laser End)
M53
M51
;PROCESS_END
[END]
M51
G01 Z0 F100000
V.E.PROGRAM_TIME=0
V.E.PERFORATION=FALSE
V.E.START_PART="SP0SC0"
V.E.END_PART="SP0SC0"
#ACS OFF
G131 100
$IF V.E.PS_AUTO_EXCHANGE
$ENDIF
M40
G04 1
V.E.AKTPROGRAM=0
M30
