%_N_E000146_MPF
;$PATH=/_N_WKS_DIR/_N_E000146_WPD
; (MAIN PROGRAM)
;*MODEL EAG1530
;PART SIZE: 190.1 X 125.1
;DATE: Wednesday, June 22, 2022
;*SHEET 200.0 135.0 0.8
;MATERIAL: Al99 0.8
;GAS: 
;*T100  B 0.2  
;PROCESS_END
V.E.MATERIAL="Al990.8"
;NumberOfSheets=1
G90
M40
#SET SLOPE PROFIL[2]
#MEAS MODE[1]
#ACS OFF
G131 100
G54
V.E.PROGRAM_TIME=0
V.E.PERFORATION=FALSE
G01 Z0 F10000
V.E.SHEET_X=200.0
V.E.SHEET_Y=135.0
$IF V.E.PS_ZERO_POSITION ;zero point
V.G.NP[2].V[0] = V.G.NP[1].V[0] 
V.G.NP[2].V[1] = V.G.NP[1].V[1] 
$ELSE
V.G.NP[2].V[0] = V.A.ABS.X 
V.G.NP[2].V[1] = V.A.ABS.Y 
$ENDIF
$IF V.E.PS_LAST_POSITION
V.G.NP[2].V[0] = V.E.LAST_POSX
V.G.NP[2].V[1] = V.E.LAST_POSY 
$ENDIF
$IF V.E.PS_SHEET
LMachine/MeasurementSheetPS.nc ;ignore sim
V.G.NP[2].V[0] = V.E.MS_SAVEX0
V.G.NP[2].V[1] = V.E.MS_SAVEY0
#ACS DEF [1][0,0,0,0,0,V.E.MS_SAVEANGLE]  
#ACS ON[1]
$ENDIF
$IF V.E.PS_SHEETCONTINUE
V.G.NP[2].V[0] = V.E.MS_SAVEX0
V.G.NP[2].V[1] = V.E.MS_SAVEY0
#ACS DEF [1][0,0,0,0,0,V.E.MS_SAVEANGLE]  
#ACS ON[1]
$ENDIF
G55
$IF V.E.PS_CALIBRATION
LMachine/CalibrationPS.nc ;ignore sim
$ENDIF
;End start
M100 ;Copy table
#FLUSH WAIT
G04 1
LAT/MainParam
LAT/L01
LAT/L02
LAT/L03
LAT/L04
LAT/L05
LAT/L06
LAT/L07
LAT/L08
LAT/L09
LAT/L10
LAT/L11
LAT/L12
LAT/L13
LAT/L14
LAT/L15
LAT/L16
LAT/L17
LAT/L18
G90
M20 ;gas
;M0
;
V.E.PROGRAM_TIME=1
$IF V.E.START_PART!="SP0SC0"
$GOTO V.E.START_PART
$ENDIF
;Start timer
V.E.PROGRAM_TIME=1
;
;DETAIL Pieza_prueba_Maxwell_2 1
;CONTOUR Pieza_prueba_Maxwell_2 1
V.E.START_PART="SP1SC1"
[SP1SC1]
N111 M101
N112 G1X36.02Y42.73 F200000 M12
N113 ;(Laser Start)
N114 M50
/N115 M9
N116 M113
N117 M50
/N118 M10
N119 G1X36.3Y44.71 FV.E.FEEDRATE[13]
N120 G3X36.19Y44.85I-0.13J0.02 
N121 M105
N122 FV.E.FEEDRATE[5]
N123 G3X36.19Y44.85I-1.19J-9.85 
M11
M13
;(Laser End)
M53
;DETAIL Pieza_prueba_Maxwell_2 1
;CONTOUR Pieza_prueba_Maxwell_2 2
V.E.START_PART="SP1SC2"
[SP1SC2]
N124 M101
N125 G1X42.78Y99.45 F200000 M12
N126 ;(Laser Start)
N127 M50
/N128 M9
N129 M113
N130 M50
/N131 M10
N132 G1X44.77Y99.29 FV.E.FEEDRATE[13]
N133 G3X44.91Y99.41I0.01J0.12 
N134 M105
N135 FV.E.FEEDRATE[5]
N136 G3X44.91Y99.41I-9.91J0.59 
M11
M13
;(Laser End)
M53
;DETAIL Pieza_prueba_Maxwell_2 1
;CONTOUR Pieza_prueba_Maxwell_2 3
V.E.START_PART="SP1SC3"
[SP1SC3]
N137 M101
N138 G1X165.32Y92.21 F200000 M12
N139 ;(Laser Start)
N140 M50
/N141 M9
N142 M113
N143 M50
/N144 M10
N145 G1X165.39Y90.21 FV.E.FEEDRATE[13]
N146 G3X165.52Y90.09I0.12J0. 
N147 M105
N148 FV.E.FEEDRATE[5]
N149 G3X165.52Y90.09I-0.52J9.91 
M11
M13
;(Laser End)
M53
;DETAIL Pieza_prueba_Maxwell_2 1
;CONTOUR Pieza_prueba_Maxwell_2 4
V.E.START_PART="SP1SC4"
[SP1SC4]
N150 M101
N151 G1X167.14Y60.65 F200000 M12
N152 ;(Laser Start)
N153 M50
/N154 M9
N155 M113
N156 M50
/N157 M10
N158 G1X167.59Y58.7 FV.E.FEEDRATE[13]
N159 G3X167.75Y58.61I0.13J0.03 
N160 M105
N161 FV.E.FEEDRATE[5]
N162 G3X165.29Y78.15I-2.46J9.62 
N163 G1X136.38Y78.15 
N164 G04 99999.999
N165 G3X110.22Y104.31I-36.09J-9.92 
N166 G1X110.22Y114.29 
N167 G04 99999.999
N168 G1X90.37Y114.29 
N169 G04 99999.999
N170 G1X90.37Y104.31 
N171 G04 99999.999
N172 G3X64.21Y78.15I9.92J-36.08 
N173 G1X35.29Y78.15 
N174 G3X35.29Y58.3I0.J-9.92 
N175 G1X64.21Y58.3 
N176 G04 99999.999
N177 G3X90.37Y32.14I36.08J9.93 
N178 G1X90.37Y22.16 
N179 G04 99999.999
N180 G1X110.22Y22.16 
N181 G04 99999.999
N182 G1X110.22Y32.14 
N183 G04 99999.999
N184 G3X136.38Y58.3I-9.93J36.09 
N185 G1X165.29Y58.3 
N186 G3X167.75Y58.61I0.J9.93 
M11
M13
;(Laser End)
M53
;DETAIL Pieza_prueba_Maxwell_2 1
;CONTOUR Pieza_prueba_Maxwell_2 5
V.E.START_PART="SP1SC5"
[SP1SC5]
N187 M101
N188 G1X166.62Y42.63 F200000 M12
N189 ;(Laser Start)
N190 M50
/N191 M9
N192 M113
N193 M50
/N194 M10
N195 G1X167.06Y44.58 FV.E.FEEDRATE[13]
N196 G3X166.96Y44.73I-0.12J0.03 
N197 M105
N198 FV.E.FEEDRATE[5]
N199 G3X166.96Y44.73I-1.96J-9.73 
M11
M13
;(Laser End)
M53
;DETAIL Pieza_prueba_Maxwell_2 1
;CONTOUR Pieza_prueba_Maxwell_2 6
V.E.START_PART="SP1SC6"
[SP1SC6]
N200 M101
N201 G1X182.26Y121.02 F200000 M12
N202 ;(Laser Start)
N203 M50
/N204 M9
N205 M113
N206 M50
/N207 M10
N208 G1X180.99Y119.48 FV.E.FEEDRATE[13]
N209 G2X180.82Y119.46I-0.1J0.08 
N210 M105
N211 FV.E.FEEDRATE[5]
N212 G3X165.Y125.07I-15.82J-19.46 
N213 G1X35.Y125.07 
N214 G3X9.92Y100.I0.J-25.07 
N215 G1X9.92Y35. 
N216 G3X35.Y9.92I25.08J0. 
N217 G1X165.Y9.92 
N218 G3X190.07Y35.I0.J25.08 
N219 G1X190.07Y100. 
N220 G3X180.82Y119.46I-25.07J0. 
M11
M13
;(Laser End)
M53
M51
;PROCESS_END
[END]
M51
G01 Z0 F100000
V.E.PROGRAM_TIME=0
V.E.PERFORATION=FALSE
V.E.START_PART="SP0SC0"
V.E.END_PART="SP0SC0"
#ACS OFF
G131 100
$IF V.E.PS_AUTO_EXCHANGE
$ENDIF
M40
G04 1
V.E.AKTPROGRAM=0
M30
