%_N_E000148_MPF
;$PATH=/_N_WKS_DIR/_N_E000148_WPD
; (MAIN PROGRAM)
;*MODEL EAG1530
;PART SIZE: 213.4 X 185.3
;DATE: Wednesday, June 22, 2022
;*SHEET 223.3 195.3 0.8
;MATERIAL: Al99 0.8
;GAS: 
;*T100  B 0.2  
;PROCESS_END
V.E.MATERIAL="Al990.8"
;NumberOfSheets=1
G90
M40
#SET SLOPE PROFIL[2]
#MEAS MODE[1]
#ACS OFF
G131 100
G54
V.E.PROGRAM_TIME=0
V.E.PERFORATION=FALSE
G01 Z0 F10000
V.E.SHEET_X=223.3
V.E.SHEET_Y=195.3
$IF V.E.PS_ZERO_POSITION ;zero point
V.G.NP[2].V[0] = V.G.NP[1].V[0] 
V.G.NP[2].V[1] = V.G.NP[1].V[1] 
$ELSE
V.G.NP[2].V[0] = V.A.ABS.X 
V.G.NP[2].V[1] = V.A.ABS.Y 
$ENDIF
$IF V.E.PS_LAST_POSITION
V.G.NP[2].V[0] = V.E.LAST_POSX
V.G.NP[2].V[1] = V.E.LAST_POSY 
$ENDIF
$IF V.E.PS_SHEET
LMachine/MeasurementSheetPS.nc ;ignore sim
V.G.NP[2].V[0] = V.E.MS_SAVEX0
V.G.NP[2].V[1] = V.E.MS_SAVEY0
#ACS DEF [1][0,0,0,0,0,V.E.MS_SAVEANGLE]  
#ACS ON[1]
$ENDIF
$IF V.E.PS_SHEETCONTINUE
V.G.NP[2].V[0] = V.E.MS_SAVEX0
V.G.NP[2].V[1] = V.E.MS_SAVEY0
#ACS DEF [1][0,0,0,0,0,V.E.MS_SAVEANGLE]  
#ACS ON[1]
$ENDIF
G55
$IF V.E.PS_CALIBRATION
LMachine/CalibrationPS.nc ;ignore sim
$ENDIF
;End start
M100 ;Copy table
#FLUSH WAIT
G04 1
LAT/MainParam
LAT/L01
LAT/L02
LAT/L03
LAT/L04
LAT/L05
LAT/L06
LAT/L07
LAT/L08
LAT/L09
LAT/L10
LAT/L11
LAT/L12
LAT/L13
LAT/L14
LAT/L15
LAT/L16
LAT/L17
LAT/L18
G90
M20 ;gas
;M0
;
V.E.PROGRAM_TIME=1
$IF V.E.START_PART!="SP0SC0"
$GOTO V.E.START_PART
$ENDIF
;Start timer
V.E.PROGRAM_TIME=1
;
;DETAIL DXFPAR0105 1
;CONTOUR DXFPAR0105 1
V.E.START_PART="SP1SC1"
[SP1SC1]
N111 M101
N112 G1X78.89Y75.58 F200000 M12
N113 ;(Laser Start)
N114 M50
/N115 M9
N116 M113
N117 M50
/N118 M10
N119 G1X80.83Y76.06 FV.E.FEEDRATE[13]
N120 G3X80.92Y76.22I-0.03J0.12 
N121 M105
N122 FV.E.FEEDRATE[5]
N123 G3X73.Y79.41I-5.21J-1.5 
N124 G3X28.55Y34.97I60.71J-105.15 
N125 G3X37.95Y29.54I4.7J-2.71 
N126 G2X78.42Y70.02I95.76J-55.28 
N127 G3X80.92Y76.22I-2.71J4.7 
M11
M13
;(Laser End)
M53
;DETAIL DXFPAR0105 1
;CONTOUR DXFPAR0105 2
V.E.START_PART="SP1SC2"
[SP1SC2]
N128 M101
N129 G1X140.42Y93.37 F200000 M12
N130 ;(Laser Start)
N131 M50
/N132 M9
N133 M113
N134 M50
/N135 M10
N136 G1X140.53Y95.37 FV.E.FEEDRATE[13]
N137 G3X140.42Y95.5I-0.12J0. 
N138 M105
N139 FV.E.FEEDRATE[5]
N140 G3X133.71Y95.68I-6.71J-121.24 
N141 G3X133.71Y84.83I0.J-5.42 
N142 G2X189.Y70.02I0.J-110.57 
N143 G3X194.42Y79.41I2.71J4.7 
N144 G3X140.42Y95.5I-60.71J-105.15 
M11
M13
;(Laser End)
M53
;DETAIL DXFPAR0105 1
;CONTOUR DXFPAR0105 3
V.E.START_PART="SP1SC3"
[SP1SC3]
N145 M101
N146 G1X141.43Y114.05 F200000 M12
N147 ;(Laser Start)
N148 M50
/N149 M9
N150 M113
N151 M50
/N152 M10
N153 G1X139.46Y114.37 FV.E.FEEDRATE[13]
N154 G3X139.32Y114.26I-0.02J-0.12 
N155 M105
N156 FV.E.FEEDRATE[5]
N157 G3X139.32Y114.26I4.39J-0.5 
M11
M13
;(Laser End)
M53
;DETAIL DXFPAR0105 1
;CONTOUR DXFPAR0105 4
V.E.START_PART="SP1SC4"
[SP1SC4]
N158 M101
N159 G1X123.99Y116.04 F200000 M12
N160 ;(Laser Start)
N161 M50
/N162 M9
N163 M113
N164 M50
/N165 M10
N166 G1X124.3Y118.01 FV.E.FEEDRATE[13]
N167 G3X124.19Y118.16I-0.13J0.02 
N168 M105
N169 FV.E.FEEDRATE[5]
N170 G3X124.19Y118.16I-0.48J-4.4 
M11
M13
;(Laser End)
M53
;DETAIL DXFPAR0105 1
;CONTOUR DXFPAR0105 5
V.E.START_PART="SP1SC5"
[SP1SC5]
N171 M101
N172 G1X126.Y134.99 F200000 M12
N173 ;(Laser Start)
N174 M50
/N175 M9
N176 M113
N177 M50
/N178 M10
N179 G1X127.99Y135.12 FV.E.FEEDRATE[13]
N180 G3X128.11Y135.26I-0.01J0.13 
N181 M105
N182 FV.E.FEEDRATE[5]
N183 G3X128.11Y135.26I-4.4J-0.5 
M11
M13
;(Laser End)
M53
;DETAIL DXFPAR0105 1
;CONTOUR DXFPAR0105 6
V.E.START_PART="SP1SC6"
[SP1SC6]
N184 M101
N185 G1X143.59Y137.05 F200000 M12
N186 ;(Laser Start)
N187 M50
/N188 M9
N189 M113
N190 M50
/N191 M10
N192 G1X143.56Y139.05 FV.E.FEEDRATE[13]
N193 G3X143.43Y139.17I-0.13J0. 
N194 M105
N195 FV.E.FEEDRATE[5]
N196 G3X143.43Y139.17I0.28J-4.41 
M11
M13
;(Laser End)
M53
;DETAIL DXFPAR0105 1
;CONTOUR DXFPAR0105 7
V.E.START_PART="SP1SC7"
[SP1SC7]
N197 M101
N198 G1X141.42Y170.08 F200000 M12
N199 ;(Laser Start)
N200 M50
/N201 M9
N202 M113
N203 M50
/N204 M10
N205 G1X139.42Y169.98 FV.E.FEEDRATE[13]
N206 G3X139.31Y169.85I0.01J-0.12 
N207 M105
N208 FV.E.FEEDRATE[5]
N209 G3X139.31Y169.85I4.4J0.41 
M11
M13
;(Laser End)
M53
;DETAIL DXFPAR0105 1
;CONTOUR DXFPAR0105 8
V.E.START_PART="SP1SC8"
[SP1SC8]
N210 M101
N211 G1X125.28Y168.58 F200000 M12
N212 ;(Laser Start)
N213 M50
/N214 M9
N215 M113
N216 M50
/N217 M10
N218 G1X126.6Y167.08 FV.E.FEEDRATE[13]
N219 G3X126.79Y167.07I0.1J0.08 
N220 M105
N221 FV.E.FEEDRATE[5]
N222 G3X126.79Y167.07I-3.08J3.19 
M11
M13
;(Laser End)
M53
;DETAIL DXFPAR0105 1
;CONTOUR DXFPAR0105 9
V.E.START_PART="SP1SC9"
[SP1SC9]
N223 M101
N224 G1X192.04Y99.55 F200000 M12
N225 ;(Laser Start)
N226 M50
/N227 M9
N228 M113
N229 M50
/N230 M10
N231 G1X191.2Y97.73 FV.E.FEEDRATE[13]
N232 G3X191.26Y97.57I0.11J-0.05 
N233 M105
N234 FV.E.FEEDRATE[5]
N235 G2X212.1Y85.48I-57.55J-123.31 
N236 G2X213.Y81.43I-1.77J-2.51 
N237 G1X195.9Y51.82 
N238 G2X191.39Y50.9I-2.66J1.54 
N239 G3X45.44Y11.8I-57.68J-76.64 
N240 G2X41.07Y10.34I-2.83J1.2 
N241 G1X11.46Y27.43 
N242 G2X10.21Y31.38I1.54J2.66 
N243 G2X98.82Y105.78I123.5J-57.12 
N244 G3X113.64Y125.04I-5.11J19.26 
N245 G1X113.64Y182.26 
N246 G2X116.71Y185.33I3.07J0. 
N247 G1X150.71Y185.33 
N248 G2X153.79Y182.26I0.J-3.07 
N249 G1X153.79Y125.04 
N250 G3X168.6Y105.78I19.92J0. 
N251 G2X191.26Y97.57I-34.89J-131.52 
M11
M13
;(Laser End)
M53
M51
;PROCESS_END
[END]
M51
G01 Z0 F100000
V.E.PROGRAM_TIME=0
V.E.PERFORATION=FALSE
V.E.START_PART="SP0SC0"
V.E.END_PART="SP0SC0"
#ACS OFF
G131 100
$IF V.E.PS_AUTO_EXCHANGE
$ENDIF
M40
G04 1
V.E.AKTPROGRAM=0
M30
