%_N_E000147_MPF
;$PATH=/_N_WKS_DIR/_N_E000147_WPD
; (MAIN PROGRAM)
;*MODEL EAG1530
;PART SIZE: 303.1 X 172.1
;DATE: Wednesday, June 22, 2022
;*SHEET 313.0 182.0 0.8
;MATERIAL: Al99 0.8
;GAS: 
;*T100  B 0.2  
;PROCESS_END
V.E.MATERIAL="Al990.8"
;NumberOfSheets=1
G90
M40
#SET SLOPE PROFIL[2]
#MEAS MODE[1]
#ACS OFF
G131 100
G54
V.E.PROGRAM_TIME=0
V.E.PERFORATION=FALSE
G01 Z0 F10000
V.E.SHEET_X=313.0
V.E.SHEET_Y=182.0
$IF V.E.PS_ZERO_POSITION ;zero point
V.G.NP[2].V[0] = V.G.NP[1].V[0] 
V.G.NP[2].V[1] = V.G.NP[1].V[1] 
$ELSE
V.G.NP[2].V[0] = V.A.ABS.X 
V.G.NP[2].V[1] = V.A.ABS.Y 
$ENDIF
$IF V.E.PS_LAST_POSITION
V.G.NP[2].V[0] = V.E.LAST_POSX
V.G.NP[2].V[1] = V.E.LAST_POSY 
$ENDIF
$IF V.E.PS_SHEET
LMachine/MeasurementSheetPS.nc ;ignore sim
V.G.NP[2].V[0] = V.E.MS_SAVEX0
V.G.NP[2].V[1] = V.E.MS_SAVEY0
#ACS DEF [1][0,0,0,0,0,V.E.MS_SAVEANGLE]  
#ACS ON[1]
$ENDIF
$IF V.E.PS_SHEETCONTINUE
V.G.NP[2].V[0] = V.E.MS_SAVEX0
V.G.NP[2].V[1] = V.E.MS_SAVEY0
#ACS DEF [1][0,0,0,0,0,V.E.MS_SAVEANGLE]  
#ACS ON[1]
$ENDIF
G55
$IF V.E.PS_CALIBRATION
LMachine/CalibrationPS.nc ;ignore sim
$ENDIF
;End start
M100 ;Copy table
#FLUSH WAIT
G04 1
LAT/MainParam
LAT/L01
LAT/L02
LAT/L03
LAT/L04
LAT/L05
LAT/L06
LAT/L07
LAT/L08
LAT/L09
LAT/L10
LAT/L11
LAT/L12
LAT/L13
LAT/L14
LAT/L15
LAT/L16
LAT/L17
LAT/L18
G90
M20 ;gas
;M0
;
V.E.PROGRAM_TIME=1
$IF V.E.START_PART!="SP0SC0"
$GOTO V.E.START_PART
$ENDIF
;Start timer
V.E.PROGRAM_TIME=1
;
;DETAIL DXFPUNC0 1
;CONTOUR DXFPUNC0 1
V.E.START_PART="SP1SC1"
[SP1SC1]
N111 M101
N112 G1X36.06Y59.53 F200000 M12
N113 ;(Laser Start)
N114 M50
/N115 M9
N116 M113
N117 M50
/N118 M10
N119 G1X37.68Y58.35 FV.E.FEEDRATE[13]
N120 G3X37.85Y58.38I0.07J0.1 
N121 M105
N122 FV.E.FEEDRATE[5]
N123 G3X37.85Y58.38I-2.55J1.62 
M11
M13
;(Laser End)
M53
;DETAIL DXFPUNC0 1
;CONTOUR DXFPUNC0 2
V.E.START_PART="SP1SC2"
[SP1SC2]
N124 M101
N125 G1X52.62Y49.08 F200000 M12
N126 ;(Laser Start)
N127 M50
/N128 M9
N129 M113
N130 M50
/N131 M10
N132 G1X54.56Y49.57 FV.E.FEEDRATE[13]
N133 G3X54.65Y49.73I-0.03J0.12 
N134 M105
N135 FV.E.FEEDRATE[5]
N136 G3X54.65Y49.73I-2.05J-0.73 
M11
M13
;(Laser End)
M53
;DETAIL DXFPUNC0 1
;CONTOUR DXFPUNC0 3
V.E.START_PART="SP1SC3"
[SP1SC3]
N137 M101
N138 G1X91.13Y62.71 F200000 M12
N139 ;(Laser Start)
N140 M50
/N141 M9
N142 M113
N143 M50
/N144 M10
N145 G1X92.1Y60.96 FV.E.FEEDRATE[13]
N146 G3X92.28Y60.91I0.11J0.06 
N147 M105
N148 FV.E.FEEDRATE[5]
N149 G3X92.39Y69.24I-2.57J4.2 
N150 G1X65.13Y86.94 
N151 G3X59.77Y78.68I-2.68J-4.13 
N152 G1X87.02Y60.98 
N153 G3X92.28Y60.91I2.69J4.13 
M11
M13
;(Laser End)
M53
;DETAIL DXFPUNC0 1
;CONTOUR DXFPUNC0 4
V.E.START_PART="SP1SC4"
[SP1SC4]
N154 M101
N155 G1X99.53Y48.95 F200000 M12
N156 ;(Laser Start)
N157 M50
/N158 M9
N159 M113
N160 M50
/N161 M10
N162 G1X97.73Y49.82 FV.E.FEEDRATE[13]
N163 G3X97.56Y49.75I-0.05J-0.11 
N164 M105
N165 FV.E.FEEDRATE[5]
N166 G3X97.56Y49.75I2.04J-0.75 
M11
M13
;(Laser End)
M53
;DETAIL DXFPUNC0 1
;CONTOUR DXFPUNC0 5
V.E.START_PART="SP1SC5"
[SP1SC5]
N167 M101
N168 G1X79.02Y56.47 F200000 M12
N169 ;(Laser Start)
N170 M50
/N171 M9
N172 M113
N173 M50
/N174 M10
N175 G1X77.46Y57.71 FV.E.FEEDRATE[13]
N176 G3X77.28Y57.68I-0.08J-0.09 
N177 M105
N178 FV.E.FEEDRATE[5]
N179 G3X77.28Y57.68I1.82J-1.18 
M11
M13
;(Laser End)
M53
;DETAIL DXFPUNC0 1
;CONTOUR DXFPUNC0 6
V.E.START_PART="SP1SC6"
[SP1SC6]
N180 M101
N181 G1X68.99Y62.98 F200000 M12
N182 ;(Laser Start)
N183 M50
/N184 M9
N185 M113
N186 M50
/N187 M10
N188 G1X67.95Y63.89 FV.E.FEEDRATE[13]
N189 G3X67.76Y63.87I-0.09J-0.09 
N190 M105
N191 FV.E.FEEDRATE[5]
N192 G3X67.76Y63.87I1.28J-0.83 
M11
M13
;(Laser End)
M53
;DETAIL DXFPUNC0 1
;CONTOUR DXFPUNC0 7
V.E.START_PART="SP1SC7"
[SP1SC7]
N193 M101
N194 G1X58.89Y69.56 F200000 M12
N195 ;(Laser Start)
N196 M50
/N197 M9
N198 M113
N199 M50
/N200 M10
N201 G1X57.74Y71.2 FV.E.FEEDRATE[13]
N202 G3X57.56Y71.23I-0.1J-0.07 
N203 M105
N204 FV.E.FEEDRATE[5]
N205 G3X57.56Y71.23I1.41J-1.66 
M11
M13
;(Laser End)
M53
;DETAIL DXFPUNC0 1
;CONTOUR DXFPUNC0 8
V.E.START_PART="SP1SC8"
[SP1SC8]
N206 M101
N207 G1X43.08Y88.18 F200000 M12
N208 ;(Laser Start)
N209 M50
/N210 M9
N211 M113
N212 M50
/N213 M10
N214 G1X44.51Y89.58 FV.E.FEEDRATE[13]
N215 G3X44.5Y89.77I-0.09J0.09 
N216 M105
N217 FV.E.FEEDRATE[5]
N218 G3X44.5Y89.77I-2.J-2.27 
M11
M13
;(Laser End)
M53
;DETAIL DXFPUNC0 1
;CONTOUR DXFPUNC0 9
V.E.START_PART="SP1SC9"
[SP1SC9]
N219 M101
N220 G1X76.33Y125.75 F200000 M12
N221 ;(Laser Start)
N222 M50
/N223 M9
N224 M113
N225 M50
/N226 M10
N227 G1X76.51Y125.56 FV.E.FEEDRATE[13]
N228 G3X76.65Y125.56I0.07J0.07 
N229 M105
N230 FV.E.FEEDRATE[5]
N231 G1X79.02Y127.93 
N232 G3X78.56Y128.39I-0.23J0.23 
N233 G1X73.82Y123.65 
N234 G3X74.28Y123.19I0.23J-0.23 
N235 G1X76.65Y125.56 
M11
M13
;(Laser End)
M53
;DETAIL DXFPUNC0 1
;CONTOUR DXFPUNC0 10
V.E.START_PART="SP1SC10"
[SP1SC10]
N236 M101
N237 G1X104.7Y92.12 F200000 M12
N238 ;(Laser Start)
N239 M50
/N240 M9
N241 M113
N242 M50
/N243 M10
N244 G1X104.88Y94.11 FV.E.FEEDRATE[13]
N245 G2X105.Y94.23I0.12J-0.01 
N246 M105
N247 FV.E.FEEDRATE[5]
N248 G1X108.17Y94.23 
N249 G04 99999.999
N250 G1X108.17Y84.38 
N251 G04 99999.999
N252 G1X101.82Y84.38 
N253 G04 99999.999
N254 G1X101.82Y94.23 
N255 G04 99999.999
N256 G1X105.Y94.23 
M11
M13
;(Laser End)
M53
;DETAIL DXFPUNC0 1
;CONTOUR DXFPUNC0 11
V.E.START_PART="SP1SC11"
[SP1SC11]
N257 M101
N258 G1X116.51Y158.07 F200000 M12
N259 ;(Laser Start)
N260 M50
/N261 M9
N262 M113
N263 M50
/N264 M10
N265 G1X118.04Y157.91 FV.E.FEEDRATE[13]
N266 G3X118.17Y158.04I0.01J0.13 
N267 M105
N268 FV.E.FEEDRATE[5]
N269 G3X118.17Y158.04I-1.67J-0.04 
M11
M13
;(Laser End)
M53
;DETAIL DXFPUNC0 1
;CONTOUR DXFPUNC0 12
V.E.START_PART="SP1SC12"
[SP1SC12]
N270 M101
N271 G1X156.6Y159. F200000 M12
N272 ;(Laser Start)
N273 M50
/N274 M9
N275 M113
N276 M50
/N277 M10
N278 G1X156.6Y158.73 FV.E.FEEDRATE[13]
N279 G2X156.5Y158.63I-0.1J0. 
N280 M105
N281 FV.E.FEEDRATE[5]
N282 G1X153.15Y158.63 
N283 G2X153.15Y159.28I0.J0.33 
N284 G1X159.85Y159.28 
N285 G2X159.85Y158.63I0.J-0.32 
N286 G1X156.5Y158.63 
M11
M13
;(Laser End)
M53
;DETAIL DXFPUNC0 1
;CONTOUR DXFPUNC0 13
V.E.START_PART="SP1SC13"
[SP1SC13]
N287 M101
N288 G1X196.55Y158.05 F200000 M12
N289 ;(Laser Start)
N290 M50
/N291 M9
N292 M113
N293 M50
/N294 M10
N295 G1X197.62Y156.94 FV.E.FEEDRATE[13]
N296 G3X197.81Y156.95I0.09J0.09 
N297 M105
N298 FV.E.FEEDRATE[5]
N299 G3X197.81Y156.95I-1.31J1.05 
M11
M13
;(Laser End)
M53
;DETAIL DXFPUNC0 1
;CONTOUR DXFPUNC0 14
V.E.START_PART="SP1SC14"
[SP1SC14]
N300 M101
N301 G1X236.67Y125.75 F200000 M12
N302 ;(Laser Start)
N303 M50
/N304 M9
N305 M113
N306 M50
/N307 M10
N308 G1X236.49Y125.56 FV.E.FEEDRATE[13]
N309 G2X236.35Y125.56I-0.07J0.07 
N310 M105
N311 FV.E.FEEDRATE[5]
N312 G1X233.98Y127.93 
N313 G2X234.44Y128.39I0.23J0.23 
N314 G1X239.18Y123.65 
N315 G2X238.72Y123.19I-0.23J-0.23 
N316 G1X236.35Y125.56 
M11
M13
;(Laser End)
M53
;DETAIL DXFPUNC0 1
;CONTOUR DXFPUNC0 15
V.E.START_PART="SP1SC15"
[SP1SC15]
N317 M101
N318 G1X209.07Y89.6 F200000 M12
N319 ;(Laser Start)
N320 M50
/N321 M9
N322 M113
N323 M50
/N324 M10
N325 G1X211.06Y89.42 FV.E.FEEDRATE[13]
N326 G2X211.17Y89.3I-0.01J-0.12 
N327 M105
N328 FV.E.FEEDRATE[5]
N329 G1X211.17Y84.38 
N330 G04 99999.999
N331 G1X204.82Y84.38 
N332 G04 99999.999
N333 G1X204.82Y94.23 
N334 G04 99999.999
N335 G1X211.17Y94.23 
N336 G04 99999.999
N337 G1X211.17Y89.3 
M11
M13
;(Laser End)
M53
;DETAIL DXFPUNC0 1
;CONTOUR DXFPUNC0 16
V.E.START_PART="SP1SC16"
[SP1SC16]
N338 M101
N339 G1X270.71Y86.63 F200000 M12
N340 ;(Laser Start)
N341 M50
/N342 M9
N343 M113
N344 M50
/N345 M10
N346 G1X271.03Y84.65 FV.E.FEEDRATE[13]
N347 G3X271.18Y84.55I0.12J0.02 
N348 M105
N349 FV.E.FEEDRATE[5]
N350 G3X271.18Y84.55I-0.68J2.95 
M11
M13
;(Laser End)
M53
;DETAIL DXFPUNC0 1
;CONTOUR DXFPUNC0 17
V.E.START_PART="SP1SC17"
[SP1SC17]
N351 M101
N352 G1X276.99Y59.45 F200000 M12
N353 ;(Laser Start)
N354 M50
/N355 M9
N356 M113
N357 M50
/N358 M10
N359 G1X275.32Y58.36 FV.E.FEEDRATE[13]
N360 G3X275.28Y58.18I0.06J-0.1 
N361 M105
N362 FV.E.FEEDRATE[5]
N363 G3X275.28Y58.18I2.42J1.82 
M11
M13
;(Laser End)
M53
;DETAIL DXFPUNC0 1
;CONTOUR DXFPUNC0 18
V.E.START_PART="SP1SC18"
[SP1SC18]
N364 M101
N365 G1X224.58Y19.93 F200000 M12
N366 ;(Laser Start)
N367 M50
/N368 M9
N369 M113
N370 M50
/N371 M10
N372 G1X223.83Y20.12 FV.E.FEEDRATE[13]
N373 G3X223.68Y20.I-0.03J-0.12 
N374 M105
N375 FV.E.FEEDRATE[5]
N376 G3X223.68Y20.I0.92J0. 
M11
M13
;(Laser End)
M53
;DETAIL DXFPUNC0 1
;CONTOUR DXFPUNC0 19
V.E.START_PART="SP1SC19"
[SP1SC19]
N377 M101
N378 G1X221.18Y19.93 F200000 M12
N379 ;(Laser Start)
N380 M50
/N381 M9
N382 M113
N383 M50
/N384 M10
N385 G1X220.43Y20.12 FV.E.FEEDRATE[13]
N386 G3X220.27Y20.I-0.03J-0.12 
N387 M105
N388 FV.E.FEEDRATE[5]
N389 G3X220.27Y20.I0.93J0. 
M11
M13
;(Laser End)
M53
;DETAIL DXFPUNC0 1
;CONTOUR DXFPUNC0 20
V.E.START_PART="SP1SC20"
[SP1SC20]
N390 M101
N391 G1X217.78Y19.93 F200000 M12
N392 ;(Laser Start)
N393 M50
/N394 M9
N395 M113
N396 M50
/N397 M10
N398 G1X217.03Y20.12 FV.E.FEEDRATE[13]
N399 G3X216.88Y20.I-0.03J-0.12 
N400 M105
N401 FV.E.FEEDRATE[5]
N402 G3X216.88Y20.I0.92J0. 
M11
M13
;(Laser End)
M53
;DETAIL DXFPUNC0 1
;CONTOUR DXFPUNC0 21
V.E.START_PART="SP1SC21"
[SP1SC21]
N403 M101
N404 G1X214.36Y20.06 F200000 M12
N405 ;(Laser Start)
N406 M50
/N407 M9
N408 M113
N409 M50
/N410 M10
N411 G1X215.01Y20.48 FV.E.FEEDRATE[13]
N412 G3X215.03Y20.68I-0.07J0.11 
N413 M105
N414 FV.E.FEEDRATE[5]
N415 G3X215.03Y20.68I-0.63J-0.68 
M11
M13
;(Laser End)
M53
;DETAIL DXFPUNC0 1
;CONTOUR DXFPUNC0 22
V.E.START_PART="SP1SC22"
[SP1SC22]
N416 M101
N417 G1X277.7Y88.47 F200000 M12
N418 ;(Laser Start)
N419 M50
/N420 M9
N421 M113
N422 M50
/N423 M10
N424 G1X275.7Y88.47 FV.E.FEEDRATE[13]
N425 G3X275.57Y88.35I0.J-0.12 
N426 M105
N427 FV.E.FEEDRATE[5]
N428 G1X275.57Y73.73 
N429 G04 99999.999
N430 G1X282.78Y66.53 
N431 G04 99999.999
N432 G1X282.78Y54.57 
N433 G04 99999.999
N434 G1X292.37Y54.57 
N435 G04 99999.999
N436 G1X292.37Y42.07 
N437 G04 99999.999
N438 G1X303.07Y42.07 
N439 G04 99999.999
N440 G1X303.07Y25.42 
N441 G04 99999.999
N442 G1X293.57Y25.42 
N443 G04 99999.999
N444 G1X293.57Y12.42 
N445 G04 99999.999
N446 G1X282.78Y12.42 
N447 G04 99999.999
N448 G1X282.78Y9.92 
N449 G04 99999.999
N450 G1X232.42Y9.92 
N451 G04 99999.999
N452 G1X232.42Y19.92 
N453 G04 99999.999
N454 G1X226.07Y19.92 
N455 G04 99999.999
N456 G1X226.07Y9.92 
N457 G04 99999.999
N458 G1X212.92Y9.92 
N459 G04 99999.999
N460 G1X212.92Y19.92 
N461 G04 99999.999
N462 G1X206.57Y19.92 
N463 G04 99999.999
N464 G1X206.57Y9.92 
N465 G04 99999.999
N466 G1X105.92Y9.92 
N467 G04 99999.999
N468 G1X105.92Y21.92 
N469 G04 99999.999
N470 G1X46.07Y21.92 
N471 G04 99999.999
N472 G1X46.07Y9.92 
N473 G04 99999.999
N474 G1X30.22Y9.92 
N475 G04 99999.999
N476 G1X30.22Y12.42 
N477 G04 99999.999
N478 G1X19.42Y12.42 
N479 G04 99999.999
N480 G1X19.42Y25.42 
N481 G04 99999.999
N482 G1X9.92Y25.42 
N483 G04 99999.999
N484 G1X9.92Y42.07 
N485 G04 99999.999
N486 G1X20.62Y42.07 
N487 G04 99999.999
N488 G1X20.62Y54.57 
N489 G04 99999.999
N490 G1X30.22Y54.57 
N491 G04 99999.999
N492 G1X30.22Y66.53 
N493 G04 99999.999
N494 G1X37.42Y73.73 
N495 G04 99999.999
N496 G1X37.42Y103.03 
N497 G04 99999.999
N498 G1X96.97Y162.57 
N499 G04 99999.999
N500 G1X120.92Y162.57 
N501 G04 99999.999
N502 G1X120.92Y172.07 
N503 G04 99999.999
N504 G1X192.07Y172.07 
N505 G04 99999.999
N506 G1X192.07Y162.57 
N507 G04 99999.999
N508 G1X216.03Y162.57 
N509 G04 99999.999
N510 G1X275.57Y103.03 
N511 G04 99999.999
N512 G1X275.57Y88.35 
M11
M13
;(Laser End)
M53
M51
;PROCESS_END
[END]
M51
G01 Z0 F100000
V.E.PROGRAM_TIME=0
V.E.PERFORATION=FALSE
V.E.START_PART="SP0SC0"
V.E.END_PART="SP0SC0"
#ACS OFF
G131 100
$IF V.E.PS_AUTO_EXCHANGE
$ENDIF
M40
G04 1
V.E.AKTPROGRAM=0
M30
