%
:0155 (0155)
G00 G40
M98 P8080
(MATERIAL    = AL99 * 0.8 MM)
(SHEET PLATE = X=180 * Y=115)
(ETIME = 18.20)
(RELEASE DATE 20-09-2021)
(MACHINE: ELECTRA FL 3015)
(10.CFZ)
#521=4 (SHEET METHOD REFERENCE)
#515=180 (X-LENGTH MEAS)
#708=180 (X LENGTH SHEET)
#709=115 (Y LENGTH SHEET)
#710=0.8 (THICKNESS)
#512=1.0 (UNITS = MM)
#128=0 (ENGRAVING)
#129=0 (PLASTIC FILM CUTTING)
#514=1 (Z-HEIGHT DISPLACEMENT)
#633=5 (FAST Z-HEIGHT)
#516=0 (SEPARATED PIERCING)
#517=0 (MEASURE Z-POS.)
#526=70 (MAX. G0-DIST. Z-DOWN )
N50  M00 (NO TECHNOLOGY)
M98 P8010
G920 X0 Y0 A#708 B#709 R0
N100 GOTO[#530+100]
N101 G980 S156 X0 Y0 R0 D0 T1
M98 P8047
IF[#129EQ-1]GOTO50
M98 P8048
IF[#516EQ-1]GOTO100
N9100 M98 P8050
N9999 M30
:0156 ( CUT PIEZA_PRUEBA_MAXWELL_2 )
(ETIME = 3.20)
#513=1 (Z-HEIGHT DISPLACEMENT)
M98 P8060
GOTO[#529*10]
N10 G0 G40 X25.377 Y29.986
M98 P8038
IF[#516GT0]GOTO19
G41
G1 X25.754 Y34.972 E001
G3 X24.246 Y15.028 I-0.754 J-9.972
X25.754 Y34.972 I0.754 J9.972
N19 G65 P8041 H#513 M1 D53.817
N20 G0 G40 X29.81 Y88.636
M98 P8038
IF[#516GT0]GOTO29
G41
G1 X34.621 Y87.271 E001
G3 X15.379 Y92.729 I-9.621 J2.729
X34.621 Y87.271 I9.621 J-2.729
N29 G65 P8041 H#513 M0 D124.766
N30 G0 G40 X154.653 Y53.227
M98 P8038
IF[#516GT0]GOTO39
G41
G1 Y48.227 E001
X155.291
G3 Y68.227 I0 J10
G1 X126.433
G3 X100.291 Y94.369 I-36.142 J-10
G1 Y104.369
X80.291
Y94.369
G3 X54.148 Y68.227 I10 J-36.142
G1 X25.291
G3 Y48.227 I0 J-10
G1 X54.148
G3 X80.291 Y22.085 I36.143 J10
G1 Y12.085
X100.291
Y22.085
G3 X126.433 Y48.227 I-10 J36.142
G1 X154.653
N39 G65 P8041 H#513 M1 D18.239
N40 G0 G40 X154.653 Y29.988
M98 P8038
IF[#516GT0]GOTO49
G41
G1 X154.307 Y34.976 E001
G3 X155.693 Y15.024 I0.693 J-9.976
X154.307 Y34.976 I-0.693 J9.976
N49 G65 P8041 H#513 M0 D52.675
N50 G0 G40 X150.656 Y87.524
M98 P8038
IF[#516GT0]GOTO59
G41
G1 X146.313 Y85.047 E001
G3 X163.687 Y94.953 I8.687 J4.953
X146.313 Y85.047 I-8.687 J-4.953
N59 G65 P8041 H#513 M0 D164.064
N60 G0 G40 X3.787 Y3.787
M98 P8038
IF[#516GT0]GOTO69
G42
G1 X7.322 Y7.322 E001
G14
G3 X25 Y0 I17.678 J17.678
G1 X105
X155
G3 X180 Y25 I0 J25
G1 Y40
Y90
G3 X155 Y115 I-25 J0
G1 X75
X25
G3 X0 Y90 I0 J-25
G1 Y75
Y25
G3 X7.322 Y7.322 I25 J0
N69 G65 P8041 H#513 M0 D0
N70
M98 P8045
N9999 M99
%
