%
:0156 (0156)
G00 G40
M98 P8080
(MATERIAL    = AL99 * 0.8 MM)
(SHEET PLATE = X=225.262 * Y=86.989)
(ETIME = 16.56)
(RELEASE DATE 20-09-2021)
(MACHINE: ELECTRA FL 3015)
(10.CFZ)
#521=4 (SHEET METHOD REFERENCE)
#515=225.262 (X-LENGTH MEAS)
#708=225.262 (X LENGTH SHEET)
#709=86.989 (Y LENGTH SHEET)
#710=0.8 (THICKNESS)
#512=1.0 (UNITS = MM)
#128=0 (ENGRAVING)
#129=0 (PLASTIC FILM CUTTING)
#514=1 (Z-HEIGHT DISPLACEMENT)
#633=5 (FAST Z-HEIGHT)
#516=0 (SEPARATED PIERCING)
#517=0 (MEASURE Z-POS.)
#526=70 (MAX. G0-DIST. Z-DOWN )
N50  M00 (NO TECHNOLOGY)
M98 P8010
G920 X0 Y0 A#708 B#709 R0
N100 GOTO[#530+100]
N101 G980 S157 X0 Y0 R0 D0 T1
M98 P8047
IF[#129EQ-1]GOTO50
M98 P8048
IF[#516EQ-1]GOTO100
N9100 M98 P8050
N9999 M30
:0157 ( CUT DXFPART7 )
(ETIME = 1.56)
#513=1 (Z-HEIGHT DISPLACEMENT)
M98 P8060
GOTO[#529*10]
N10 G0 G40 X34.777 Y27.358
M98 P8038
IF[#516GT0]GOTO19
G42
G1 X34.144 Y32.318 E001
G2 X46.513 Y22.318 I6.728 J-4.329
G3 X114.992 Y0.004 I70.359 J99.672
G2 X146.779 Y3.709 I15.88 J1.985
G3 X225.262 Y65.985 I-29.907 J118.281
X225.26 Y65.99 I-108.39 J56.005
G1 X208.872
Y74.259
X200.232 Y65.629
G2 X184.884 Y71.52 I-6.36 J6.36
G1 X184.602 Y76.989
X173.342
X171.872 Y64.989
X161.872
X160.402 Y76.989
X149.872
X132.126 Y58.805
G2 X85.993 Y64.792 I-15.254 J63.184
G1 X63.397 Y76.989
G14
X44.872 Y86.989
X32.872
Y82.989
IF[#129GT0]GOTO15
G13
N15 X10.872
G14
Y86.989
X0.002
G3 X3.476 Y76.989 I116.87 J35.001
IF[#129GT0]GOTO16
G13
N16 X34.144 Y32.322 I113.396 J45.001
N19 G65 P8041 H#513 M0 D0
N20
M98 P8045
N9999 M99
%
