%
:0157 (0157)
G00 G40
M98 P8080
(MATERIAL    = AL99 * 0.8 MM)
(SHEET PLATE = X=293 * Y=162)
(ETIME = 22.10)
(RELEASE DATE 20-09-2021)
(MACHINE: ELECTRA FL 3015)
(10.CFZ)
#521=4 (SHEET METHOD REFERENCE)
#515=293 (X-LENGTH MEAS)
#708=293 (X LENGTH SHEET)
#709=162 (Y LENGTH SHEET)
#710=0.8 (THICKNESS)
#512=1.0 (UNITS = MM)
#128=0 (ENGRAVING)
#129=0 (PLASTIC FILM CUTTING)
#514=1 (Z-HEIGHT DISPLACEMENT)
#633=5 (FAST Z-HEIGHT)
#516=0 (SEPARATED PIERCING)
#517=0 (MEASURE Z-POS.)
#526=70 (MAX. G0-DIST. Z-DOWN )
N50  M00 (NO TECHNOLOGY)
M98 P8010
G920 X0 Y0 A#708 B#709 R0
N100 GOTO[#530+100]
N101 G980 S158 X0 Y0 R0 D0 T1
M98 P8047
IF[#129EQ-1]GOTO50
M98 P8048
IF[#516EQ-1]GOTO100
N9100 M98 P8050
N9999 M30
:0158 ( CUT DXFPUNC0 )
(ETIME = 7.10)
#513=1 (Z-HEIGHT DISPLACEMENT)
M98 P8060
GOTO[#529*10]
N10 G0 G40 X25.3 Y50
M98 P8038
IF[#516GT0]GOTO19
G41
G1 X27.916 Y48.337 E002
G3 X22.684 Y51.663 I-2.616 J1.663
X27.916 Y48.337 I2.616 J-1.663
N19 G65 P8041 H#513 M1 D17.401
N20 G0 G40 X42.6 Y39
M98 P8038
IF[#516GT0]GOTO29
G41
G1 X43.484 Y41.069 E003
G3 X41.716 Y36.931 I-0.884 J-2.069
X43.484 Y41.069 I0.884 J2.069
N29 G65 P8041 H#513 M1 D31.978
N30 G0 G40 X56.052 Y70.474
M98 P8038
IF[#516GT0]GOTO39
G41
G1 X53.329 Y66.281 E001
X76.982 Y50.92
G3 X82.428 Y59.307 I2.723 J4.194
G1 X55.171 Y77.008
G3 X49.725 Y68.621 I-2.723 J-4.194
G1 X53.329 Y66.281
N39 G65 P8041 H#513 M1 D8
N40 G0 G40 X48.972 Y59.571
M98 P8038
IF[#516GT0]GOTO49
G41
G1 X50.859 Y58.346 E003
G3 X47.085 Y60.797 I-1.887 J1.225
X50.859 Y58.346 I1.887 J-1.226
N49 G65 P8041 H#513 M1 D9.75
N50 G0 G40 X59.036 Y53.036
M98 P8038
IF[#516GT0]GOTO59
G41
G1 X60.378 Y52.164 E003
G3 X57.694 Y53.907 I-1.342 J0.872
X60.378 Y52.164 I1.342 J-0.871
N59 G65 P8041 H#513 M1 D10.4
N60 G0 G40 X69.1 Y46.5
M98 P8038
IF[#516GT0]GOTO69
G41
G1 X71.213 Y45.727 E003
G3 X66.987 Y47.273 I-2.113 J0.773
X71.213 Y45.727 I2.113 J-0.773
N69 G65 P8041 H#513 M1 D19.579
N70 G0 G40 X89.6 Y39
M98 P8038
IF[#516GT0]GOTO79
G41
G1 X89.899 Y41.23 E003
G3 X89.301 Y36.77 I-0.299 J-2.23
X89.899 Y41.23 I0.299 J2.23
N79 G65 P8041 H#513 M1 D38.41
N80 G0 G40 X95 Y79.3
M98 P8038
IF[#516GT0]GOTO89
G42
G1 Y84.3 E002
X98.25
Y74.3
X91.75
Y84.3
X95
N89 G65 P8041 H#513 M1 D42.494
N90 G0 G40 X64.051 Y113.419
M98 P8038
IF[#516GT0]GOTO99
G41
G1 X63.769 Y113.702 E003
G3 X64.334 Y113.137 I0.282 J-0.283
G1 X69.072 Y117.874
G3 X68.506 Y118.44 I-0.283 J0.283
G1 X63.769 Y113.702
N99 G65 P8041 H#513 M1 D47.837
N100 G0 G40 X32.5 Y77.5
M98 P8038
IF[#516GT0]GOTO109
G41
G1 X34.744 Y79.638 E002
G3 X30.256 Y75.362 I-2.244 J-2.138
X34.744 Y79.638 I2.244 J2.138
N109 G65 P8041 H#513 M1 D99.107
N110 G0 G40 X106.5 Y148
M98 P8038
IF[#516GT0]GOTO119
G41
G1 X108.249 Y148.046 E003
G3 X104.751 Y147.954 I-1.749 J-0.046
X108.249 Y148.046 I1.749 J0.046
N119 G65 P8041 H#513 M1 D34.913
N120 G0 G40 X143.15 Y148.958
M98 P8038
IF[#516GT0]GOTO129
G42
G1 Y148.558 E003
G2 Y149.358 I0 J0.4
G1 X149.85
G2 Y148.558 I0 J-0.4
G1 X143.15
N129 G65 P8041 H#513 M1 D43.354
N130 G0 G40 X186.5 Y148
M98 P8038
IF[#516GT0]GOTO139
G41
G1 X187.872 Y146.914 E003
G3 X185.128 Y149.086 I-1.372 J1.086
X187.872 Y146.914 I1.372 J-1.086
N139 G65 P8041 H#513 M1 D46.341
N140 G0 G40 X224.211 Y118.157
M98 P8038
IF[#516GT0]GOTO149
G42
G1 X223.928 Y117.874 E003
G2 X224.494 Y118.44 I0.283 J0.283
G1 X229.231 Y113.702
G2 X228.666 Y113.137 I-0.282 J-0.283
G1 X223.928 Y117.874
N149 G65 P8041 H#513 M1 D47.983
N150 G0 G40 X198 Y77.5
M98 P8038
IF[#516GT0]GOTO159
G42
G1 X201.25 E002
Y74.3
X194.75
Y84.3
X201.25
Y77.5
N159 G65 P8041 H#513 M1 D59.25
N160 G0 G40 X260.5 Y77.5
M98 P8038
IF[#516GT0]GOTO169
G41
G1 X261.285 Y74.501 E002
G3 X259.715 Y80.499 I-0.785 J2.999
X261.285 Y74.501 I0.785 J-2.999
N169 G65 P8041 H#513 M1 D25.327
N170 G0 G40 X267.7 Y50
M98 P8038
IF[#516GT0]GOTO179
G41
G1 X265.224 Y48.135 E002
G3 X270.176 Y51.865 I2.476 J1.865
X265.224 Y48.135 I-2.476 J-1.865
N179 G65 P8041 H#513 M1 D63.38
N180 G0 G40 X214.6 Y10
M98 P8038
IF[#516GT0]GOTO189
G41
G1 X213.893 Y9.293 E003
G3 X215.307 Y10.707 I0.707 J0.707
X213.893 Y9.293 I-0.707 J-0.707
N189 G65 P8041 H#513 M1 D2.784
N190 G0 G40 X211.2 Y10
M98 P8038
IF[#516GT0]GOTO199
G41
G1 X210.493 Y9.293 E003
G3 X211.907 Y10.707 I0.707 J0.707
X210.493 Y9.293 I-0.707 J-0.707
N199 G65 P8041 H#513 M1 D2.784
N200 G0 G40 X207.8 Y10
M98 P8038
IF[#516GT0]GOTO209
G41
G1 X207.093 Y9.293 E003
G3 X208.507 Y10.707 I0.707 J0.707
X207.093 Y9.293 I-0.707 J-0.707
N209 G65 P8041 H#513 M1 D2.784
N210 G0 G40 X204.4 Y10
M98 P8038
IF[#516GT0]GOTO219
G41
G1 X203.693 Y9.293 E003
G3 X205.107 Y10.707 I0.707 J0.707
X203.693 Y9.293 I-0.707 J-0.707
N219 G65 P8041 H#513 M0 D196.11
N220 G0 G40 X7.768 Y0.768
M98 P8038
IF[#516GT0]GOTO229
G41
G1 X9.5 Y2.5 E001
Y15.5
G14
X0
Y32
X10
IF[#129GT0]GOTO225
G13
N225 X10.7
Y44.5
X20.3
Y56.5
X27.5 Y63.7
Y93
X87 Y152.5
X111
G14
Y162
X132
X182
Y152.5
IF[#129GT0]GOTO226
G13
N226 X206
X265.5 Y93
Y63.7
X272.7 Y56.5
Y44.5
X282.3
Y32
X283
G14
X293
Y15.5
X283.5
IF[#129GT0]GOTO227
G13
N227 Y2.5
X272.7
G14
Y0
X272.5
X222.5
Y10
IF[#129GT0]GOTO228
G13
N228 X216
Y0
G14
X203
Y10
IF[#129GT0]GOTO229
G13
N229 X196.5
Y0
X146
G14
X96
Y10
IF[#129GT0]GOTO230
G13
N230 Y12
X36
Y10
G14
Y0
X20.3
Y2.5
IF[#129GT0]GOTO231
G13
N231 X9.5
N229 G65 P8041 H#513 M0 D0
N230
M98 P8045
N9999 M99
%
