%
:0158 (0158)
G00 G40
M98 P8080
(MATERIAL    = AL99 * 0.8 MM)
(SHEET PLATE = X=203.333 * Y=175.257)
(ETIME = 17.98)
(RELEASE DATE 20-09-2021)
(MACHINE: ELECTRA FL 3015)
(10.CFZ)
#521=4 (SHEET METHOD REFERENCE)
#515=203.333 (X-LENGTH MEAS)
#708=203.333 (X LENGTH SHEET)
#709=175.257 (Y LENGTH SHEET)
#710=0.8 (THICKNESS)
#512=1.0 (UNITS = MM)
#128=0 (ENGRAVING)
#129=0 (PLASTIC FILM CUTTING)
#514=1 (Z-HEIGHT DISPLACEMENT)
#633=5 (FAST Z-HEIGHT)
#516=0 (SEPARATED PIERCING)
#517=0 (MEASURE Z-POS.)
#526=70 (MAX. G0-DIST. Z-DOWN )
N50  M00 (NO TECHNOLOGY)
M98 P8010
G920 X0 Y0 A#708 B#709 R0
N100 GOTO[#530+100]
N101 G980 S159 X0 Y0 R0 D0 T1
M98 P8047
IF[#129EQ-1]GOTO50
M98 P8048
IF[#516EQ-1]GOTO100
N9100 M98 P8050
N9999 M30
:0159 ( CUT DXFPAR0105 )
(ETIME = 2.98)
#513=1 (Z-HEIGHT DISPLACEMENT)
M98 P8060
GOTO[#529*10]
N10 G0 G40 X66.193 Y64.85
M98 P8038
IF[#516GT0]GOTO19
G41
G1 X71.012 Y66.184 E001
G3 X62.962 Y69.479 I-5.3 J-1.468
X18.49 Y25.007 I60.75 J-105.222
X28.016 Y19.507 I4.763 J-2.75
G2 X68.462 Y59.953 I95.696 J-55.25
G3 X71.012 Y66.184 I-2.75 J4.763
N19 G65 P8041 H#513 M1 D54.478
N20 G0 G40 X123.516 Y80.717
M98 P8038
IF[#516GT0]GOTO29
G41
G1 X121.558 Y85.318 E001
G3 X123.712 Y74.757 I2.154 J-5.061
G2 X178.962 Y59.953 I0 J-110.5
G3 X184.462 Y69.479 I2.75 J4.763
X123.712 Y85.757 I-60.75 J-105.222
X121.558 Y85.318 I0 J-5.5
N29 G65 P8041 H#513 M1 D20.039
N30 G0 G40 X113.712 Y103.757
M98 P8038
IF[#516GT0]GOTO39
G41
G1 X118.212 E002
G3 X109.212 I-4.5 J0
X118.212 I4.5 J0
N39 G65 P8041 H#513 M1 D15.5
N40 G0 G40 X133.712 Y103.757
M98 P8038
IF[#516GT0]GOTO49
G41
G1 Y108.257 E002
G3 Y99.257 I0 J-4.5
Y108.257 I0 J4.5
N49 G65 P8041 H#513 M1 D16.5
N50 G0 G40 X133.712 Y124.757
M98 P8038
IF[#516GT0]GOTO59
G41
G1 X129.212 E002
G3 X138.212 I4.5 J0
X129.212 I-4.5 J0
N59 G65 P8041 H#513 M1 D15.5
N60 G0 G40 X113.712 Y124.757
M98 P8038
IF[#516GT0]GOTO69
G41
G1 Y129.257 E002
G3 Y120.257 I0 J-4.5
Y129.257 I0 J4.5
N69 G65 P8041 H#513 M1 D31
N70 G0 G40 X113.712 Y160.257
M98 P8038
IF[#516GT0]GOTO79
G41
G1 X118.212 E002
G3 X109.212 I-4.5 J0
X118.212 I4.5 J0
N79 G65 P8041 H#513 M1 D15.5
N80 G0 G40 X133.712 Y160.257
M98 P8038
IF[#516GT0]GOTO89
G41
G1 X131.703 Y156.23 E002
G3 X135.72 Y164.284 I2.009 J4.027
X131.703 Y156.23 I-2.008 J-4.027
N89 G65 P8041 H#513 M0 D129.379
N90 G0 G40 X73.959 Y40.452
M98 P8038
IF[#516GT0]GOTO99
G41
G1 X71.225 Y44.639 E001
G3 X35.368 Y1.826 I52.487 J-80.382
G2 X32.644 Y0 I-2.761 J1.174
X32.57 I-0.037 J3
X31.107 Y0.402 I0.037 J3
G1 X1.5 Y17.496
G2 X0 Y20.074 I1.5 J2.598
Y20.114 I3 J0.02
X0.277 Y21.353 I3 J-0.02
X88.84 Y95.711 I123.435 J-57.096
G3 X103.712 Y115.042 I-5.128 J19.331
G1 Y172.257
G14
G2 X106.712 Y175.257 I3 J0
G1 X140.712
G2 X143.712 Y172.257 I0 J-3
IF[#129GT0]GOTO95
G13
N95 G1 Y115.042
G3 X158.583 Y95.711 I20 J0
G2 X202.061 Y75.421 I-34.871 J-131.454
X203.333 Y72.985 I-1.728 J-2.452
Y72.953 I-3 J-0.016
X202.931 Y71.469 I-3 J0.016
G1 X185.837 Y41.862
G2 X181.435 Y40.965 I-2.598 J1.5
G3 X71.225 Y44.639 I-57.723 J-76.708
N99 G65 P8041 H#513 M0 D0
N100
M98 P8045
N9999 M99
%
