%
:3000 (3000)
G00 G40
M98 P8080
(MATERIAL    = AL99 * 0.8 MM)
(SHEET PLATE = X=125 * Y=125)
(ETIME = 16.45)
(RELEASE DATE 20-09-2021)
(MACHINE: ELECTRA FL 3015)
(PSTLVD02.CFZ)
#521=0 (SHEET METHOD REFERENCE)
#515=125 (X-LENGTH MEAS)
#708=125 (X LENGTH SHEET)
#709=125 (Y LENGTH SHEET)
#710=0.8 (THICKNESS)
#512=1.0 (UNITS = MM)
#128=0 (ENGRAVING)
#129=0 (PLASTIC FILM CUTTING)
#514=20 (Z-HEIGHT DISPLACEMENT)
#633=5 (FAST Z-HEIGHT)
#516=0 (SEPARATED PIERCING)
#517=0 (MEASURE Z-POS.)
#526=70 (MAX. G0-DIST. Z-DOWN )
N50  M00 (NO TECHNOLOGY)
M98 P8010
G920 X0 Y0 A#708 B#709 R0
N100 GOTO[#530+100]
N101 G980 S3001 X13.799 Y15 R0 D0 T1
M98 P8047
IF[#129EQ-1]GOTO50
M98 P8048
IF[#516EQ-1]GOTO100
N9100 M98 P8050
N9999 M30
:3001 ( CUT PIEZA_PRUEBA_MAXWELL )
(ETIME = 1.45)
#513=20 (Z-HEIGHT DISPLACEMENT)
M98 P8060
GOTO[#529*10]
N10 G0 G40 X37.165 Y35.752
M98 P8038
IF[#516GT0]GOTO19
G1 X33.736 Y32.323 E001
G3 X68.773 Y67.572 I17.465 J17.677
X33.629 Y32.428 I-17.572 J-17.572
N19 G65 P8041 H#513 M0 D35.25
N20 G0 G40 X33.523 Y67.678
M98 P8036
IF[#516GT0]GOTO29
G1 X1.201 Y100 E001
N29 G65 P8041 H#513 M0 D1.209
N30 G0 G40 X0.001 Y100.15
M98 P8038
IF[#516GT0]GOTO39
G1 X1.201 E001
X91.201
G2 X101.351 Y90 I0 J-10.15
G1 Y-0.15
X11.201
G2 X1.051 Y10 I0 J10.15
G1 Y100
N39 G65 P8041 H#513 M0 D0
N40
M98 P8045
N9999 M99
%
