%
:3000 (3000)
G00 G40
M98 P8080
(MATERIAL    = AL99 * 0.8 MM)
(SHEET PLATE = X=318 * Y=187)
(ETIME = 21.64)
(RELEASE DATE 20-09-2021)
(MACHINE: ELECTRA FL 3015)
(PSTLVD02.CFZ)
#521=0 (SHEET METHOD REFERENCE)
#515=318 (X-LENGTH MEAS)
#708=318 (X LENGTH SHEET)
#709=187 (Y LENGTH SHEET)
#710=0.8 (THICKNESS)
#512=1.0 (UNITS = MM)
#128=0 (ENGRAVING)
#129=0 (PLASTIC FILM CUTTING)
#514=20 (Z-HEIGHT DISPLACEMENT)
#633=5 (FAST Z-HEIGHT)
#516=0 (SEPARATED PIERCING)
#517=0 (MEASURE Z-POS.)
#526=70 (MAX. G0-DIST. Z-DOWN )
N50  M00 (NO TECHNOLOGY)
M98 P8010
G920 X0 Y0 A#708 B#709 R0
N100 GOTO[#530+100]
N101 G980 S3001 X15 Y12.5 R0 D0 T1
M98 P8047
IF[#129EQ-1]GOTO50
M98 P8048
IF[#516EQ-1]GOTO100
N9100 M98 P8050
N9999 M30
:3001 ( CUT DXFPUNC0 )
(ETIME = 6.64)
#513=20 (Z-HEIGHT DISPLACEMENT)
M98 P8060
GOTO[#529*10]
N10 G0 G40 X42.457 Y41.544
M98 P8038
IF[#516GT0]GOTO19
G1 X43.076 Y43.545 E003
G3 X41.979 Y39.494 I-0.476 J-2.045
X43.221 Y43.506 I0.621 J2.006
N19 G65 P8041 H#513 M0 D19.58
N20 G0 G40 X49.054 Y62.197
M98 P8038
IF[#516GT0]GOTO29
G1 X50.81 Y61.056 E003
G3 X47.211 Y63.215 I-1.838 J1.015
X50.733 Y60.928 I1.761 J-1.144
N29 G65 P8041 H#513 M0 D9.902
N30 G0 G40 X59.118 Y55.661
M98 P8038
IF[#516GT0]GOTO39
G1 X60.327 Y54.876 E003
G3 X57.82 Y56.325 I-1.291 J0.66
X60.252 Y54.746 I1.216 J-0.789
N39 G65 P8041 H#513 M0 D10.518
N40 G0 G40 X69.152 Y49.141
M98 P8038
IF[#516GT0]GOTO49
G1 X71.119 Y48.421 E003
G3 X67.128 Y49.722 I-2.019 J0.579
X71.072 Y48.278 I1.972 J-0.722
N49 G65 P8041 H#513 M0 D19.613
N50 G0 G40 X89.458 Y41.451
M98 P8038
IF[#516GT0]GOTO59
G1 X88.778 Y43.432 E003
G3 X90.282 Y39.514 I0.822 J-1.932
X88.918 Y43.486 I-0.682 J1.986
N59 G65 P8041 H#513 M0 D76.517
N60 G0 G40 X63.945 Y115.813
M98 P8038
IF[#516GT0]GOTO69
G1 X63.804 Y115.955 E003
X63.94 Y115.696
X64.228 Y115.743
X68.966 Y120.48
Y120.834
X68.612
X63.875 Y116.096
N69 G65 P8041 H#513 M0 D54.868
N70 G0 G40 X106.496 Y150.65
M98 P8038
IF[#516GT0]GOTO79
G1 X108.088 Y150.692 E003
G3 X104.901 Y150.458 I-1.588 J-0.192
X108.099 Y150.542 I1.599 J0.042
N79 G65 P8041 H#513 M0 D34.913
N80 G0 G40 X143 Y151.458
M98 P8038
IF[#516GT0]GOTO89
G1 Y151.258 E003
X142.913 Y151.537
X143.15 Y151.708
X149.85
X150.1 Y151.458
X149.85 Y151.208
X143.15
N89 G65 P8041 H#513 M0 D43.447
N90 G0 G40 X186.593 Y150.618
M98 P8038
IF[#516GT0]GOTO99
G1 X187.842 Y149.629 E003
G3 X185.245 Y151.493 I-1.342 J0.871
X187.755 Y149.507 I1.255 J-0.993
N99 G65 P8041 H#513 M0 D46.342
N100 G0 G40 X224.105 Y120.763
M98 P8038
IF[#516GT0]GOTO109
G1 X223.964 Y120.622 E003
X224.099 Y120.881
X224.388 Y120.834
X229.125 Y116.096
Y115.743
X228.772
X224.034 Y120.48
N109 G65 P8041 H#513 M0 D108.488
N110 G0 G40 X214.706 Y12.394
M98 P8038
IF[#516GT0]GOTO119
G1 X214.114 Y11.802 E003
G3 X215.201 Y13.101 I0.486 J0.698
X213.999 Y11.899 I-0.601 J-0.601
N119 G65 P8041 H#513 M0 D2.738
N120 G0 G40 X211.306 Y12.394
M98 P8038
IF[#516GT0]GOTO129
G1 X210.714 Y11.802 E003
G3 X211.801 Y13.101 I0.486 J0.698
X210.599 Y11.899 I-0.601 J-0.601
N129 G65 P8041 H#513 M0 D2.738
N130 G0 G40 X207.906 Y12.394
M98 P8038
IF[#516GT0]GOTO139
G1 X207.314 Y11.802 E003
G3 X208.401 Y13.101 I0.486 J0.698
X207.199 Y11.899 I-0.601 J-0.601
N139 G65 P8041 H#513 M0 D2.738
N140 G0 G40 X204.506 Y12.394
M98 P8038
IF[#516GT0]GOTO149
G1 X203.914 Y11.802 E003
G3 X205.001 Y13.101 I0.486 J0.698
X203.799 Y11.899 I-0.601 J-0.601
N149 G65 P8041 H#513 M0 D68.198
N150 G0 G40 X198 Y79.85
M98 P8038
IF[#516GT0]GOTO159
G1 X201.1 E002
Y76.95
X194.9
Y86.65
X201.1
Y80
N159 G65 P8041 H#513 M0 D59.545
N160 G0 G40 X260.645 Y80.038
M98 P8038
IF[#516GT0]GOTO169
G1 X261.391 Y77.188 E002
G3 X259.753 Y82.854 I-0.891 J2.812
X261.247 Y77.146 I0.747 J-2.854
N169 G65 P8041 H#513 M0 D25.614
N170 G0 G40 X267.676 Y52.352
M98 P8038
IF[#516GT0]GOTO179
G1 X264.767 Y52.815 E002
G3 X270.613 Y52.036 I2.933 J-0.315
X264.787 Y52.964 I-2.913 J0.464
N179 G65 P8041 H#513 M0 D171.95
N180 G0 G40 X95 Y80.15
M98 P8038
IF[#516GT0]GOTO189
G1 X91.9 E002
Y86.65
X98.1
Y76.95
X91.9
Y80
N189 G65 P8041 H#513 M0 D59.255
N190 G0 G40 X32.645 Y79.962
M98 P8038
IF[#516GT0]GOTO199
G1 X31.899 Y77.112 E002
G3 X33.247 Y82.854 I0.601 J2.888
X31.753 Y77.146 I-0.747 J-2.854
N199 G65 P8041 H#513 M0 D25.39
N200 G0 G40 X25.203 Y52.615
M98 P8038
IF[#516GT0]GOTO209
G1 X27.459 Y54.51 E002
G3 X23.042 Y50.602 I-2.159 J-2.01
X27.558 Y54.398 I2.258 J1.898
N209 G65 P8041 H#513 M0 D32.556
N210 G0 G40 X52.574 Y75.233
M98 P8038
IF[#516GT0]GOTO219
G1 X49.933 Y71.165 E001
X77.064 Y53.546
G3 X82.347 Y61.681 I2.641 J4.068
G1 X55.09 Y79.382
G3 X49.807 Y71.247 I-2.642 J-4.068
N219 G65 P8041 H#513 M0 D81.932
N220 G0 G40 X9.35 Y0
M98 P8038
IF[#516GT0]GOTO229
G1 Y5 E001
Y17.85
X-0.15
Y34.65
X10.55
Y47.15
X20.15
Y59.062
X27.35 Y66.262
Y95.562
X86.938 Y155.15
X110.85
Y164.65
X182.15
Y155.15
X206.062
X265.65 Y95.562
Y66.262
X272.85 Y59.062
Y47.15
X282.45
Y34.65
X293.15
Y17.85
X283.65
Y4.85
X272.85
Y2.35
X222.35
Y12.35
X216.15
Y2.35
X202.85
Y12.35
X196.65
Y2.35
X95.85
Y14.35
X36.15
Y2.35
X20.15
Y4.85
X9.5
N229 G65 P8041 H#513 M0 D0
N230
M98 P8045
N9999 M99
%
