%
:3000 (3000)
G00 G40
M98 P8080
(MATERIAL    = AL99 * 0.8 MM)
(SHEET PLATE = X=205 * Y=140)
(ETIME = 18.28)
(RELEASE DATE 20-09-2021)
(MACHINE: ELECTRA FL 3015)
(PSTLVD02.CFZ)
#521=0 (SHEET METHOD REFERENCE)
#515=205 (X-LENGTH MEAS)
#708=205 (X LENGTH SHEET)
#709=140 (Y LENGTH SHEET)
#710=0.8 (THICKNESS)
#512=1.0 (UNITS = MM)
#128=0 (ENGRAVING)
#129=0 (PLASTIC FILM CUTTING)
#514=20 (Z-HEIGHT DISPLACEMENT)
#633=5 (FAST Z-HEIGHT)
#516=0 (SEPARATED PIERCING)
#517=0 (MEASURE Z-POS.)
#526=70 (MAX. G0-DIST. Z-DOWN )
N50  M00 (NO TECHNOLOGY)
M98 P8010
G920 X0 Y0 A#708 B#709 R0
N100 GOTO[#530+100]
N101 G980 S3001 X15 Y10 R0 D0 T1
M98 P8047
IF[#129EQ-1]GOTO50
M98 P8048
IF[#516EQ-1]GOTO100
N9100 M98 P8050
N9999 M30
:3001 ( CUT PIEZA_PRUEBA_MAXWELL_2 )
(ETIME = 3.28)
#513=20 (Z-HEIGHT DISPLACEMENT)
M98 P8060
GOTO[#529*10]
N10 G0 G40 X25.096 Y35.001
M98 P8038
IF[#516GT0]GOTO19
G1 X25.335 Y39.844 E001
G3 X24.515 Y20.162 I-0.335 J-9.844
X25.485 Y39.838 I0.485 J9.838
N19 G65 P8041 H#513 M0 D51.325
N20 G0 G40 X28.127 Y91.095
M98 P8038
IF[#516GT0]GOTO29
G1 X31.043 Y87.221 E001
G3 X19.076 Y102.87 I-6.043 J7.779
X30.924 Y87.13 I5.924 J-7.87
N29 G65 P8041 H#513 M0 D36.457
N30 G0 G40 X52.96 Y58.086
M98 P8038
IF[#516GT0]GOTO39
G1 X54.293 Y53.267 E001
G3 X80.441 Y27.199 I35.998 J9.96
G1 Y17.235
X100.141
Y27.199
G3 X126.318 Y53.377 I-9.85 J36.028
G1 X155.291
G3 Y73.077 I0 J9.85
G1 X126.318
G3 X100.141 Y99.255 I-36.027 J-9.85
G1 Y109.219
X80.441
Y99.255
G3 X54.263 Y73.077 I9.85 J-36.028
G1 X25.291
G3 Y53.377 I0 J-9.85
G1 X54.148
N39 G65 P8041 H#513 M0 D107.359
N40 G0 G40 X155.068 Y89.998
M98 P8038
IF[#516GT0]GOTO49
G1 X154.988 Y85.15 E001
G3 X155.162 Y104.849 I0.012 J9.85
X154.838 Y85.151 I-0.162 J-9.849
N49 G65 P8041 H#513 M0 D60.058
N50 G0 G40 X153.999 Y25.099
M98 P8038
IF[#516GT0]GOTO59
G1 X152.887 Y20.379 E001
G3 X157.26 Y39.587 I2.113 J9.621
X152.74 Y20.413 I-2.26 J-9.587
N59 G65 P8041 H#513 M0 D20.938
N60 G0 G40 X148.079 Y0
M98 P8038
IF[#516GT0]GOTO69
G1 Y4.85 E001
X155
G3 X180.15 Y30 I0 J25.15
G1 Y95
G3 X155 Y120.15 I-25.15 J0
G1 X25
G3 X-0.15 Y95 I0 J-25.15
G1 Y30
G3 X25 Y4.85 I25.15 J0
G1 X147.929
N69 G65 P8041 H#513 M0 D0
N70
M98 P8045
N9999 M99
%
