%
:3000 (3000)
G00 G40
M98 P8080
(MATERIAL    = AL99 * 0.8 MM)
(SHEET PLATE = X=228.333 * Y=200.257)
(ETIME = 18.01)
(RELEASE DATE 20-09-2021)
(MACHINE: ELECTRA FL 3015)
(PSTLVD02.CFZ)
#521=0 (SHEET METHOD REFERENCE)
#515=228.333 (X-LENGTH MEAS)
#708=228.333 (X LENGTH SHEET)
#709=200.257 (Y LENGTH SHEET)
#710=0.8 (THICKNESS)
#512=1.0 (UNITS = MM)
#128=0 (ENGRAVING)
#129=0 (PLASTIC FILM CUTTING)
#514=20 (Z-HEIGHT DISPLACEMENT)
#633=5 (FAST Z-HEIGHT)
#516=0 (SEPARATED PIERCING)
#517=0 (MEASURE Z-POS.)
#526=70 (MAX. G0-DIST. Z-DOWN )
N50  M00 (NO TECHNOLOGY)
M98 P8010
G920 X0 Y0 A#708 B#709 R0
N100 GOTO[#530+100]
N101 G980 S3001 X15 Y15 R0 D0 T1
M98 P8047
IF[#129EQ-1]GOTO50
M98 P8048
IF[#516EQ-1]GOTO100
N9100 M98 P8050
N9999 M30
:3001 ( CUT DXFPAR0105 )
(ETIME = 3.01)
#513=20 (Z-HEIGHT DISPLACEMENT)
M98 P8060
GOTO[#529*10]
N10 G0 G40 X113.712 Y103.907
M98 P8038
IF[#516GT0]GOTO19
G1 X118.059 E002
G3 X109.362 Y103.757 I-4.347 J-0.15
X118.062 I4.35 J0
N19 G65 P8041 H#513 M0 D15.5
N20 G0 G40 X133.562 Y103.757
M98 P8038
IF[#516GT0]GOTO29
G1 Y108.105 E002
G3 X133.712 Y99.407 I0.15 J-4.348
Y108.107 I0 J4.35
N29 G65 P8041 H#513 M0 D16.5
N30 G0 G40 X133.712 Y124.607
M98 P8038
IF[#516GT0]GOTO39
G1 X129.364 E002
G3 X138.062 Y124.757 I4.348 J0.15
X129.362 I-4.35 J0
N39 G65 P8041 H#513 M0 D15.8
N40 G0 G40 X113.562 Y124.757
M98 P8038
IF[#516GT0]GOTO49
G1 Y129.105 E002
G3 X113.712 Y120.407 I0.15 J-4.348
Y129.107 I0 J4.35
N49 G65 P8041 H#513 M0 D31.3
N50 G0 G40 X113.712 Y160.407
M98 P8038
IF[#516GT0]GOTO59
G1 X118.059 E002
G3 X109.362 Y160.257 I-4.347 J-0.15
X118.062 I4.35 J0
N59 G65 P8041 H#513 M0 D15.798
N60 G0 G40 X133.86 Y160.238
M98 P8038
IF[#516GT0]GOTO69
G1 X133.3 Y155.927 E002
G3 X134.272 Y164.571 I0.412 J4.33
X133.151 Y155.944 I-0.56 J-4.314
N69 G65 P8041 H#513 M0 D76.695
N70 G0 G40 X123.354 Y79.877
M98 P8038
IF[#516GT0]GOTO79
G1 X119.161 Y77.444 E001
G3 X123.712 Y74.907 I4.551 J2.813
G2 X179.037 Y60.083 I0 J-110.65
G3 X184.387 Y69.349 I2.675 J4.633
X123.712 Y85.607 I-60.675 J-105.092
X119.084 Y77.572 I0 J-5.35
N79 G65 P8041 H#513 M0 D111.008
N80 G0 G40 X23.133 Y21.749
M98 P8038
IF[#516GT0]GOTO89
G1 X20.709 Y17.551 E001
G3 X27.886 Y19.582 I2.544 J4.706
G2 X68.387 Y60.083 I95.826 J-55.325
G3 X63.037 Y69.349 I-2.675 J4.633
X18.619 Y24.932 I60.675 J-105.092
X20.578 Y17.624 I4.634 J-2.675
N89 G65 P8041 H#513 M0 D14.651
N90 G0 G40 X13.123 Y5.012
M98 P8038
IF[#516GT0]GOTO99
G1 X15.548 Y9.212 E001
X1.425 Y17.366
G2 X0.141 Y21.416 I1.575 J2.728
X88.801 Y95.856 I123.571 J-57.159
G3 X103.562 Y115.042 I-5.089 J19.186
G1 Y172.257
G2 X106.712 Y175.407 I3.15 J0
G1 X140.712
G2 X143.862 Y172.257 I0 J-3.15
G1 Y115.042
G3 X158.622 Y95.856 I19.85 J0
G2 X202.147 Y75.544 I-34.91 J-131.599
X203.061 Y71.394 I-1.814 J-2.575
G1 X185.967 Y41.787
G2 X181.345 Y40.845 I-2.728 J1.575
G3 X35.506 Y1.767 I-57.633 J-76.588
G2 X31.032 Y0.272 I-2.899 J1.233
G1 X15.678 Y9.137
N99 G65 P8041 H#513 M0 D0
N100
M98 P8045
N9999 M99
%
