N000000001:( ******* LASER CUTTING MACHINE    ****** )
N000000002 ( *************************************** )
N000000003 ( DATE      : 22/06/2022  )
N000000004 ( MATERIAL    : Al99  )
N000000005 ( THICKNESS   : 0.8  )
N000000006 ( SHEET SIZE  : 100 x 100  )
N000000007 ( TOTAL TIME   : 00:01:02  )
N000000008 ( *************************************** )
N000000009 V.E.Par[55] = 100
N000000010 V.E.Par[56] = 100
N000000011 V.E.Par[46] = 0
N000000012 V.E.Par[47] = 0.8
N000000013 V.E.Par[48] = 0
N000000014 V.E.Par[49] = 1
N000000015 V.E.Par[50] = 6
N000000016 V.E.Par[130] = 0
N000000017 V.E.Par[131] = 0
N000000018 V.E.Par[287] = 0
N000000019 V.E.Par[288] = 1
N000000020 M40=0
N000000021 G810
N000000022 G808
N000000023 G54
N000000024 $IF V.E.Kparams[0] == 1
N000000025 M121
N000000026 $GOTO V.E.LineNumber
N000000027 $ENDIF
N000000028 ( ************** START ***************** )
N000000029 ;( PART NAME 1    :Pieza_prueba_Maxwell)
N000000030 [100002] V.E.Kparams[2] = 1 V.E.Kparams[3] = 2
N000000031 V.E.Par[80] = 63.527 V.E.Par[81] = 36.473
N000000032 V.E.Par[82] = 67.586 V.E.Par[83] = 32.414
N000000033 M111 M101
N000000034 G812
N000000035 $IF V.E.Kparams[15] == 1 OR V.E.Kparams[15] == 2
N000000036 V.E.Par[17] = 63.527 V.E.Par[18] = 36.473
N000000037 V.E.Par[15] = 32.322 V.E.Par[16] = 67.678
N000000038 M111 M101
N000000039 G81
N000000040 $GOTO [100002]
N000000041 $ENDIF
N000000042 $IF V.E.Par[78] == 0
N000000043 D1 G41
N000000044 G01 X63.527 Y36.473 FP60
N000000045 G03 X67.586 Y32.414 I2.029 J-2.029
N000000046 $IF V.E.Par[84] == 1
N000000047 M43
N000000048 $ENDIF
N000000049 $ENDIF
N000000050 G806
N000000051 D1 G41
N000000052 G03 X32.414 Y67.586 I-17.586 J17.586 FP70
N000000053 G03 X67.586 Y32.414 I17.586 J-17.586
N000000054 G804
N000000055 G40 G01 X67.586 Y32.414
N000000056 V.E.Par[17] = 67.586 V.E.Par[18] = 32.414
N000000057 V.E.Par[15] = 32.322 V.E.Par[16] = 67.678
N000000058 V.E.Par[82] = 32.322 V.E.Par[83] = 67.678
N000000059 M111 M101
N000000060 G81
N000000061 [100003] V.E.Kparams[2] = 1 V.E.Kparams[3] = 3
N000000062 V.E.Par[80] = 32.322 V.E.Par[81] = 67.678
N000000063 V.E.Par[82] = 32.322 V.E.Par[83] = 67.678
N000000064 M111 M101
N000000065 G812
N000000066 $IF V.E.Kparams[15] == 1 OR V.E.Kparams[15] == 2
N000000067 V.E.Par[17] = 32.322 V.E.Par[18] = 67.678
N000000068 V.E.Par[15] = 100.13 V.E.Par[16] = 1.2
N000000069 M111 M101
N000000070 G81
N000000071 $GOTO [100003]
N000000072 $ENDIF
N000000073 $IF V.E.Par[78] == 0
N000000074 G01 X32.322 Y67.678 FP70
N000000075 G01 X0 Y100
N000000076 $IF V.E.Par[84] == 1
N000000077 M43
N000000078 $ENDIF
N000000079 $ENDIF
N000000080 G806
N000000081 G804
N000000082 G40 G01 X0 Y100
N000000083 V.E.Par[17] = 0 V.E.Par[18] = 100
N000000084 V.E.Par[15] = 100.13 V.E.Par[16] = 1.2
N000000085 V.E.Par[82] = 100.13 V.E.Par[83] = 1.2
N000000086 M111 M101
N000000087 G81
N000000088 [100004] V.E.Kparams[2] = 1 V.E.Kparams[3] = 4
N000000089 V.E.Par[80] = 100.13 V.E.Par[81] = 1.2
N000000090 V.E.Par[82] = 100.13 V.E.Par[83] = 1.2
N000000091 M111 M101
N000000092 G812
N000000093 $IF V.E.Kparams[15] == 1 OR V.E.Kparams[15] == 2
N000000094 V.E.Par[17] = 100.13 V.E.Par[18] = 1.2
N000000095 V.E.Par[15] = -0.13 V.E.Par[16] = 98.8
N000000096 M111 M101
N000000097 G81
N000000098 $GOTO [100004]
N000000099 $ENDIF
N000000100 G02 X98.8 Y-0.13 I-1.33 J0 FP70
N000000101 G804
N000000102 G40 G01 X98.8 Y-0.13
N000000103 V.E.Par[17] = 98.8 V.E.Par[18] = -0.13
N000000104 V.E.Par[15] = -0.13 V.E.Par[16] = 98.8
N000000105 V.E.Par[82] = -0.13 V.E.Par[83] = 98.8
N000000106 M111 M101
N000000107 M60=4
N000000108 G81
N000000109 [100005] V.E.Kparams[2] = 1 V.E.Kparams[3] = 5
N000000110 V.E.Par[80] = -0.13 V.E.Par[81] = 98.8
N000000111 V.E.Par[82] = -0.13 V.E.Par[83] = 98.8
N000000112 M111 M101
N000000113 M60=4
N000000114 M60=6
N000000115 G812
N000000116 $IF V.E.Kparams[15] == 1 OR V.E.Kparams[15] == 2
N000000117 V.E.Par[17] = -0.13 V.E.Par[18] = 98.8
N000000118 V.E.Par[15] = 90 V.E.Par[16] = 100.13
N000000119 M111 M101
N000000120 G81
N000000121 $GOTO [100005]
N000000122 $ENDIF
N000000123 G02 X1.2 Y100.13 I1.33 J0 FP70
N000000124 G804
N000000125 G40 G01 X1.2 Y100.13
N000000126 V.E.Par[17] = 1.2 V.E.Par[18] = 100.13
N000000127 V.E.Par[15] = 90 V.E.Par[16] = 100.13
N000000128 V.E.Par[82] = 90 V.E.Par[83] = 100.13
N000000129 M111 M101
N000000130 M60=4
N000000131 G81
N000000132 [100006] V.E.Kparams[2] = 1 V.E.Kparams[3] = 6
N000000133 V.E.Par[80] = 90 V.E.Par[81] = 100.13
N000000134 V.E.Par[82] = 90 V.E.Par[83] = 100.13
N000000135 M111 M101
N000000136 M60=4
N000000137 M60=6
N000000138 G812
N000000139 $IF V.E.Kparams[15] == 1 OR V.E.Kparams[15] == 2
N000000140 V.E.Par[17] = 90 V.E.Par[18] = 100.13
N000000141 V.E.Par[15] = 10 V.E.Par[16] = -0.13
N000000142 M111 M101
N000000143 G81
N000000144 $GOTO [100006]
N000000145 $ENDIF
N000000146 G02 X100.13 Y90 I0 J-10.13 FP70
N000000147 G804
N000000148 G40 G01 X100.13 Y90
N000000149 V.E.Par[17] = 100.13 V.E.Par[18] = 90
N000000150 V.E.Par[15] = 10 V.E.Par[16] = -0.13
N000000151 V.E.Par[82] = 10 V.E.Par[83] = -0.13
N000000152 M111 M101
N000000153 M60=4
N000000154 G81
N000000155 [100007] V.E.Kparams[2] = 1 V.E.Kparams[3] = 7
N000000156 V.E.Par[80] = 10 V.E.Par[81] = -0.13
N000000157 V.E.Par[82] = 10 V.E.Par[83] = -0.13
N000000158 M111 M101
N000000159 M60=4
N000000160 M60=6
N000000161 G812
N000000162 $IF V.E.Kparams[15] == 1 OR V.E.Kparams[15] == 2
N000000163 V.E.Par[17] = 10 V.E.Par[18] = -0.13
N000000164 V.E.Par[15] = 63.527 V.E.Par[16] = 36.473
N000000165 M111 M101
N000000166 G81
N000000167 G818
N000000168 $GOTO [100001]
N000000169 $ENDIF
N000000170 G02 X-0.13 Y10 I0 J10.13 FP70
N000000171 G804
N000000172 G40 D0
N000000173 G809
N000000174 G0 X0 Y0
N000000175 G53
N000000176 $IF V.E.Kparams[10] == 1
N000000177 G819
N000000178 $GOTO N000000001
N000000179 $ENDIF
N000000180 M30
