N000000001:( ******* LASER CUTTING MACHINE    ****** )
N000000002 ( *************************************** )
N000000003 ( DATE      : 22/06/2022  )
N000000004 ( MATERIAL    : Al99  )
N000000005 ( THICKNESS   : 0.8  )
N000000006 ( SHEET SIZE  : 209.633 x 142.619  )
N000000007 ( TOTAL TIME   : 00:02:55  )
N000000008 ( *************************************** )
N000000009 V.E.Par[55] = 209.633
N000000010 V.E.Par[56] = 142.619
N000000011 V.E.Par[46] = 0
N000000012 V.E.Par[47] = 0.8
N000000013 V.E.Par[48] = 0
N000000014 V.E.Par[49] = 1
N000000015 V.E.Par[50] = 9
N000000016 V.E.Par[130] = 0
N000000017 V.E.Par[131] = 0
N000000018 V.E.Par[287] = 0
N000000019 V.E.Par[288] = 1
N000000020 M40=0
N000000021 G810
N000000022 G808
N000000023 G54
N000000024 $IF V.E.Kparams[0] == 1
N000000025 M121
N000000026 $GOTO V.E.LineNumber
N000000027 $ENDIF
N000000028 ( ************** START ***************** )
N000000029 ;( PART NAME 1    :DXFPAR0105)
N000000030 [100002] V.E.Kparams[2] = 1 V.E.Kparams[3] = 2
N000000031 V.E.Par[80] = 75.64 V.E.Par[81] = 111.466
N000000032 V.E.Par[82] = 80.389 V.E.Par[83] = 109.252
N000000033 M111 M101
N000000034 G812
N000000035 $IF V.E.Kparams[15] == 1 OR V.E.Kparams[15] == 2
N000000036 V.E.Par[17] = 75.64 V.E.Par[18] = 111.466
N000000037 V.E.Par[15] = 135.127 V.E.Par[16] = 94.503
N000000038 M111 M101
N000000039 G81
N000000040 $GOTO [100002]
N000000041 $ENDIF
N000000042 $IF V.E.Par[78] == 0
N000000043 D1 G41
N000000044 G01 X75.64 Y111.466 FP60
N000000045 G03 X80.389 Y109.252 I2.375 J-1.107
N000000046 $IF V.E.Par[84] == 1
N000000047 M43
N000000048 $ENDIF
N000000049 $ENDIF
N000000050 G806
N000000051 D1 G41
N000000052 G03 X77.792 Y116.388 I-4.867 J2.269 FP70
N000000053 G03 X15.921 Y127.298 I-51.293 J-109.998
N000000054 G03 X16.857 Y116.599 I0.468 J-5.35
N000000055 G02 X73.253 Y106.654 I9.642 J-110.209
N000000056 G03 X80.389 Y109.252 I2.269 J4.867
N000000057 G804
N000000058 G40 G01 X80.389 Y109.252
N000000059 V.E.Par[17] = 80.389 V.E.Par[18] = 109.252
N000000060 V.E.Par[15] = 135.127 V.E.Par[16] = 94.503
N000000061 V.E.Par[82] = 138.125 V.E.Par[83] = 91.505
N000000062 M111 M101
N000000063 G81
N000000064 [100003] V.E.Kparams[2] = 1 V.E.Kparams[3] = 3
N000000065 V.E.Par[80] = 135.127 V.E.Par[81] = 94.503
N000000066 V.E.Par[82] = 138.125 V.E.Par[83] = 91.505
N000000067 M111 M101
N000000068 G812
N000000069 $IF V.E.Kparams[15] == 1 OR V.E.Kparams[15] == 2
N000000070 V.E.Par[17] = 135.127 V.E.Par[18] = 94.503
N000000071 V.E.Par[15] = 146.598 V.E.Par[16] = 78.12
N000000072 M111 M101
N000000073 G81
N000000074 $GOTO [100003]
N000000075 $ENDIF
N000000076 $IF V.E.Par[78] == 0
N000000077 D1 G41
N000000078 G01 X135.127 Y94.503 FP60
N000000079 G03 X138.125 Y91.505 I1.499 J-1.499
N000000080 $IF V.E.Par[84] == 1
N000000081 M43
N000000082 $ENDIF
N000000083 $ENDIF
N000000084 G806
N000000085 D1 G41
N000000086 G03 X131.945 Y97.685 I-3.09 J3.09 FP70
N000000087 G03 X138.125 Y91.505 I3.09 J-3.09
N000000088 G804
N000000089 G40 G01 X138.125 Y91.505
N000000090 V.E.Par[17] = 138.125 V.E.Par[18] = 91.505
N000000091 V.E.Par[15] = 146.598 V.E.Par[16] = 78.12
N000000092 V.E.Par[82] = 149.596 V.E.Par[83] = 75.122
N000000093 M111 M101
N000000094 G81
N000000095 [100004] V.E.Kparams[2] = 1 V.E.Kparams[3] = 4
N000000096 V.E.Par[80] = 146.598 V.E.Par[81] = 78.12
N000000097 V.E.Par[82] = 149.596 V.E.Par[83] = 75.122
N000000098 M111 M101
N000000099 G812
N000000100 $IF V.E.Kparams[15] == 1 OR V.E.Kparams[15] == 2
N000000101 V.E.Par[17] = 146.598 V.E.Par[18] = 78.12
N000000102 V.E.Par[15] = 163.8 V.E.Par[16] = 90.165
N000000103 M111 M101
N000000104 G81
N000000105 $GOTO [100004]
N000000106 $ENDIF
N000000107 $IF V.E.Par[78] == 0
N000000108 D1 G41
N000000109 G01 X146.598 Y78.12 FP60
N000000110 G03 X149.596 Y75.122 I1.499 J-1.499
N000000111 $IF V.E.Par[84] == 1
N000000112 M43
N000000113 $ENDIF
N000000114 $ENDIF
N000000115 G806
N000000116 D1 G41
N000000117 G03 X143.416 Y81.302 I-3.09 J3.09 FP70
N000000118 G03 X149.596 Y75.122 I3.09 J-3.09
N000000119 G804
N000000120 G40 G01 X149.596 Y75.122
N000000121 V.E.Par[17] = 149.596 V.E.Par[18] = 75.122
N000000122 V.E.Par[15] = 163.8 V.E.Par[16] = 90.165
N000000123 V.E.Par[82] = 166.798 V.E.Par[83] = 87.167
N000000124 M111 M101
N000000125 G81
N000000126 [100005] V.E.Kparams[2] = 1 V.E.Kparams[3] = 5
N000000127 V.E.Par[80] = 163.8 V.E.Par[81] = 90.165
N000000128 V.E.Par[82] = 166.798 V.E.Par[83] = 87.167
N000000129 M111 M101
N000000130 G812
N000000131 $IF V.E.Kparams[15] == 1 OR V.E.Kparams[15] == 2
N000000132 V.E.Par[17] = 163.8 V.E.Par[18] = 90.165
N000000133 V.E.Par[15] = 152.329 V.E.Par[16] = 106.548
N000000134 M111 M101
N000000135 G81
N000000136 $GOTO [100005]
N000000137 $ENDIF
N000000138 $IF V.E.Par[78] == 0
N000000139 D1 G41
N000000140 G01 X163.8 Y90.165 FP60
N000000141 G03 X166.798 Y87.167 I1.499 J-1.499
N000000142 $IF V.E.Par[84] == 1
N000000143 M43
N000000144 $ENDIF
N000000145 $ENDIF
N000000146 G806
N000000147 D1 G41
N000000148 G03 X160.618 Y93.347 I-3.09 J3.09 FP70
N000000149 G03 X166.798 Y87.167 I3.09 J-3.09
N000000150 G804
N000000151 G40 G01 X166.798 Y87.167
N000000152 V.E.Par[17] = 166.798 V.E.Par[18] = 87.167
N000000153 V.E.Par[15] = 152.329 V.E.Par[16] = 106.548
N000000154 V.E.Par[82] = 155.327 V.E.Par[83] = 103.55
N000000155 M111 M101
N000000156 G81
N000000157 [100006] V.E.Kparams[2] = 1 V.E.Kparams[3] = 6
N000000158 V.E.Par[80] = 152.329 V.E.Par[81] = 106.548
N000000159 V.E.Par[82] = 155.327 V.E.Par[83] = 103.55
N000000160 M111 M101
N000000161 G812
N000000162 $IF V.E.Kparams[15] == 1 OR V.E.Kparams[15] == 2
N000000163 V.E.Par[17] = 152.329 V.E.Par[18] = 106.548
N000000164 V.E.Par[15] = 181.409 V.E.Par[16] = 126.91
N000000165 M111 M101
N000000166 G81
N000000167 $GOTO [100006]
N000000168 $ENDIF
N000000169 $IF V.E.Par[78] == 0
N000000170 D1 G41
N000000171 G01 X152.329 Y106.548 FP60
N000000172 G03 X155.327 Y103.55 I1.499 J-1.499
N000000173 $IF V.E.Par[84] == 1
N000000174 M43
N000000175 $ENDIF
N000000176 $ENDIF
N000000177 G806
N000000178 D1 G41
N000000179 G03 X149.147 Y109.73 I-3.09 J3.09 FP70
N000000180 G03 X155.327 Y103.55 I3.09 J-3.09
N000000181 G804
N000000182 G40 G01 X155.327 Y103.55
N000000183 V.E.Par[17] = 155.327 V.E.Par[18] = 103.55
N000000184 V.E.Par[15] = 181.409 V.E.Par[16] = 126.91
N000000185 V.E.Par[82] = 184.407 V.E.Par[83] = 123.912
N000000186 M111 M101
N000000187 G81
N000000188 [100007] V.E.Kparams[2] = 1 V.E.Kparams[3] = 7
N000000189 V.E.Par[80] = 181.409 V.E.Par[81] = 126.91
N000000190 V.E.Par[82] = 184.407 V.E.Par[83] = 123.912
N000000191 M111 M101
N000000192 G812
N000000193 $IF V.E.Kparams[15] == 1 OR V.E.Kparams[15] == 2
N000000194 V.E.Par[17] = 181.409 V.E.Par[18] = 126.91
N000000195 V.E.Par[15] = 192.88 V.E.Par[16] = 110.527
N000000196 M111 M101
N000000197 G81
N000000198 $GOTO [100007]
N000000199 $ENDIF
N000000200 $IF V.E.Par[78] == 0
N000000201 D1 G41
N000000202 G01 X181.409 Y126.91 FP60
N000000203 G03 X184.407 Y123.912 I1.499 J-1.499
N000000204 $IF V.E.Par[84] == 1
N000000205 M43
N000000206 $ENDIF
N000000207 $ENDIF
N000000208 G806
N000000209 D1 G41
N000000210 G03 X178.227 Y130.092 I-3.09 J3.09 FP70
N000000211 G03 X184.407 Y123.912 I3.09 J-3.09
N000000212 G804
N000000213 G40 G01 X184.407 Y123.912
N000000214 V.E.Par[17] = 184.407 V.E.Par[18] = 123.912
N000000215 V.E.Par[15] = 192.88 V.E.Par[16] = 110.527
N000000216 V.E.Par[82] = 195.878 V.E.Par[83] = 107.529
N000000217 M111 M101
N000000218 G81
N000000219 [100008] V.E.Kparams[2] = 1 V.E.Kparams[3] = 8
N000000220 V.E.Par[80] = 192.88 V.E.Par[81] = 110.527
N000000221 V.E.Par[82] = 195.878 V.E.Par[83] = 107.529
N000000222 M111 M101
N000000223 G812
N000000224 $IF V.E.Kparams[15] == 1 OR V.E.Kparams[15] == 2
N000000225 V.E.Par[17] = 192.88 V.E.Par[18] = 110.527
N000000226 V.E.Par[15] = 142.069 V.E.Par[16] = 16.37
N000000227 M111 M101
N000000228 G81
N000000229 $GOTO [100008]
N000000230 $ENDIF
N000000231 $IF V.E.Par[78] == 0
N000000232 D1 G41
N000000233 G01 X192.88 Y110.527 FP60
N000000234 G03 X195.878 Y107.529 I1.499 J-1.499
N000000235 $IF V.E.Par[84] == 1
N000000236 M43
N000000237 $ENDIF
N000000238 $ENDIF
N000000239 G806
N000000240 D1 G41
N000000241 G03 X189.698 Y113.709 I-3.09 J3.09 FP70
N000000242 G03 X195.878 Y107.529 I3.09 J-3.09
N000000243 G804
N000000244 G40 G01 X195.878 Y107.529
N000000245 V.E.Par[17] = 195.878 V.E.Par[18] = 107.529
N000000246 V.E.Par[15] = 142.069 V.E.Par[16] = 16.37
N000000247 V.E.Par[82] = 142.525 V.E.Par[83] = 11.15
N000000248 M111 M101
N000000249 G81
N000000250 [100009] V.E.Kparams[2] = 1 V.E.Kparams[3] = 9
N000000251 V.E.Par[80] = 142.069 V.E.Par[81] = 16.37
N000000252 V.E.Par[82] = 142.525 V.E.Par[83] = 11.15
N000000253 M111 M101
N000000254 G812
N000000255 $IF V.E.Kparams[15] == 1 OR V.E.Kparams[15] == 2
N000000256 V.E.Par[17] = 142.069 V.E.Par[18] = 16.37
N000000257 V.E.Par[15] = 166.754 V.E.Par[16] = 70.454
N000000258 M111 M101
N000000259 G81
N000000260 $GOTO [100009]
N000000261 $ENDIF
N000000262 $IF V.E.Par[78] == 0
N000000263 D1 G41
N000000264 G01 X142.069 Y16.37 FP60
N000000265 G03 X142.525 Y11.15 I0.228 J-2.61
N000000266 $IF V.E.Par[84] == 1
N000000267 M43
N000000268 $ENDIF
N000000269 $ENDIF
N000000270 G806
N000000271 D1 G41
N000000272 G03 X147.407 Y16.968 I-0.468 J5.35 FP70
N000000273 G03 X125.919 Y76.005 I-120.908 J-10.578
N000000274 G03 X117.122 Y69.844 I-4.399 J-3.081
N000000275 G02 X136.708 Y16.032 I-90.623 J-63.454
N000000276 G03 X142.525 Y11.15 I5.349 J0.468
N000000277 G804
N000000278 G40 G01 X142.525 Y11.15
N000000279 V.E.Par[17] = 142.525 V.E.Par[18] = 11.15
N000000280 V.E.Par[15] = 166.754 V.E.Par[16] = 70.454
N000000281 V.E.Par[82] = 158.296 V.E.Par[83] = 73.521
N000000282 M111 M101
N000000283 G81
N000000284 [100010] V.E.Kparams[2] = 1 V.E.Kparams[3] = 10
N000000285 V.E.Par[80] = 166.754 V.E.Par[81] = 70.454
N000000286 V.E.Par[82] = 158.296 V.E.Par[83] = 73.521
N000000287 M111 M101
N000000288 G812
N000000289 $IF V.E.Kparams[15] == 1 OR V.E.Kparams[15] == 2
N000000290 V.E.Par[17] = 166.754 V.E.Par[18] = 70.454
N000000291 V.E.Par[15] = 75.64 V.E.Par[16] = 111.466
N000000292 M111 M101
N000000293 G81
N000000294 G818
N000000295 $GOTO [100001]
N000000296 $ENDIF
N000000297 $IF V.E.Par[78] == 0
N000000298 D2 G41
N000000299 G01 X166.754 Y70.454 FP60
N000000300 G03 X158.296 Y73.521 I-4.865 J-0.22
N000000301 $IF V.E.Par[84] == 1
N000000302 M43
N000000303 $ENDIF
N000000304 $ENDIF
N000000305 G806
N000000306 D2 G41
N000000307 G03 X154.303 Y53.267 I14.661 J-13.411 FP70
N000000308 G02 X162.628 Y5.97 I-127.804 J-46.877
N000000309 G02 X159.771 Y2.862 I-3.13 J0.01
N000000310 G01 X125.714 Y-0.118
N000000311 G02 X122.313 Y3.107 I-0.273 J3.118
N000000312 G03 X6.628 Y100.178 I-95.814 J3.283
N000000313 G02 X2.862 Y102.967 I-0.648 J3.062
N000000314 G01 X-0.118 Y137.024
N000000315 G02 X2.447 Y140.378 I3.118 J0.273
N000000316 G02 X114.261 Y110.453 I24.052 J-133.988
N000000317 G03 X138.468 Y109.366 I12.81 J15.189
N000000318 G01 X185.336 Y142.183
N000000319 G02 X189.696 Y141.414 I1.796 J-2.564
N000000320 G01 X209.197 Y113.563
N000000321 G02 X208.428 Y109.204 I-2.564 J-1.795
N000000322 G01 X161.56 Y76.387
N000000323 G03 X158.296 Y73.521 I11.397 J-16.277
N000000324 G804
N000000325 G40 D0
N000000326 G809
N000000327 G0 X0 Y0
N000000328 G53
N000000329 $IF V.E.Kparams[10] == 1
N000000330 G819
N000000331 $GOTO N000000001
N000000332 $ENDIF
N000000333 M30
