N000000001:( ******* LASER CUTTING MACHINE    ****** )
N000000002 ( *************************************** )
N000000003 ( DATE      : 22/06/2022  )
N000000004 ( MATERIAL    : Al99  )
N000000005 ( THICKNESS   : 0.8  )
N000000006 ( SHEET SIZE  : 293 x 162  )
N000000007 ( TOTAL TIME   : 00:04:41  )
N000000008 ( *************************************** )
N000000009 V.E.Par[55] = 293
N000000010 V.E.Par[56] = 162
N000000011 V.E.Par[46] = 0
N000000012 V.E.Par[47] = 0.8
N000000013 V.E.Par[48] = 0
N000000014 V.E.Par[49] = 1
N000000015 V.E.Par[50] = 28
N000000016 V.E.Par[130] = 0
N000000017 V.E.Par[131] = 0
N000000018 V.E.Par[287] = 0
N000000019 V.E.Par[288] = 1
N000000020 M40=0
N000000021 G810
N000000022 G808
N000000023 G54
N000000024 $IF V.E.Kparams[0] == 1
N000000025 M121
N000000026 $GOTO V.E.LineNumber
N000000027 $ENDIF
N000000028 ( ************** START ***************** )
N000000029 ;( PART NAME 1    :DXFPUNC0)
N000000030 [100002] V.E.Kparams[2] = 1 V.E.Kparams[3] = 2
N000000031 V.E.Par[80] = 25.392 V.E.Par[81] = 49.908
N000000032 V.E.Par[82] = 27.4 V.E.Par[83] = 47.9
N000000033 M111 M101
N000000034 G812
N000000035 $IF V.E.Kparams[15] == 1 OR V.E.Kparams[15] == 2
N000000036 V.E.Par[17] = 25.392 V.E.Par[18] = 49.908
N000000037 V.E.Par[15] = 42.692 V.E.Par[16] = 38.908
N000000038 M111 M101
N000000039 G81
N000000040 $GOTO [100002]
N000000041 $ENDIF
N000000042 $IF V.E.Par[78] == 0
N000000043 D1 G41
N000000044 G01 X25.392 Y49.908 FP60
N000000045 G03 X27.4 Y47.9 I1.004 J-1.004
N000000046 $IF V.E.Par[84] == 1
N000000047 M43
N000000048 $ENDIF
N000000049 $ENDIF
N000000050 G806
N000000051 D1 G41
N000000052 G03 X23.2 Y52.1 I-2.1 J2.1 FP70
N000000053 G03 X27.4 Y47.9 I2.1 J-2.1
N000000054 G804
N000000055 G40 G01 X27.4 Y47.9
N000000056 V.E.Par[17] = 27.4 V.E.Par[18] = 47.9
N000000057 V.E.Par[15] = 42.692 V.E.Par[16] = 38.908
N000000058 V.E.Par[82] = 44.099 V.E.Par[83] = 37.501
N000000059 M111 M101
N000000060 G81
N000000061 [100003] V.E.Kparams[2] = 1 V.E.Kparams[3] = 3
N000000062 V.E.Par[80] = 42.692 V.E.Par[81] = 38.908
N000000063 V.E.Par[82] = 44.099 V.E.Par[83] = 37.501
N000000064 M111 M101
N000000065 G812
N000000066 $IF V.E.Kparams[15] == 1 OR V.E.Kparams[15] == 2
N000000067 V.E.Par[17] = 42.692 V.E.Par[18] = 38.908
N000000068 V.E.Par[15] = 49.064 V.E.Par[16] = 59.479
N000000069 M111 M101
N000000070 G81
N000000071 $GOTO [100003]
N000000072 $ENDIF
N000000073 $IF V.E.Par[78] == 0
N000000074 D1 G41
N000000075 G01 X42.692 Y38.908 FP60
N000000076 G03 X44.099 Y37.501 I0.703 J-0.703
N000000077 $IF V.E.Par[84] == 1
N000000078 M43
N000000079 $ENDIF
N000000080 $ENDIF
N000000081 G806
N000000082 D1 G41
N000000083 G03 X41.101 Y40.499 I-1.499 J1.499 FP70
N000000084 G03 X44.099 Y37.501 I1.499 J-1.499
N000000085 G804
N000000086 G40 G01 X44.099 Y37.501
N000000087 V.E.Par[17] = 44.099 V.E.Par[18] = 37.501
N000000088 V.E.Par[15] = 49.064 V.E.Par[16] = 59.479
N000000089 V.E.Par[82] = 50.471 V.E.Par[83] = 58.072
N000000090 M111 M101
N000000091 G81
N000000092 [100004] V.E.Kparams[2] = 1 V.E.Kparams[3] = 4
N000000093 V.E.Par[80] = 49.064 V.E.Par[81] = 59.479
N000000094 V.E.Par[82] = 50.471 V.E.Par[83] = 58.072
N000000095 M111 M101
N000000096 G812
N000000097 $IF V.E.Kparams[15] == 1 OR V.E.Kparams[15] == 2
N000000098 V.E.Par[17] = 49.064 V.E.Par[18] = 59.479
N000000099 V.E.Par[15] = 59.128 V.E.Par[16] = 52.944
N000000100 M111 M101
N000000101 G81
N000000102 $GOTO [100004]
N000000103 $ENDIF
N000000104 $IF V.E.Par[78] == 0
N000000105 D1 G41
N000000106 G01 X49.064 Y59.479 FP60
N000000107 G03 X50.471 Y58.072 I0.703 J-0.703
N000000108 $IF V.E.Par[84] == 1
N000000109 M43
N000000110 $ENDIF
N000000111 $ENDIF
N000000112 G806
N000000113 D1 G41
N000000114 G03 X47.473 Y61.07 I-1.499 J1.499 FP70
N000000115 G03 X50.471 Y58.072 I1.499 J-1.499
N000000116 G804
N000000117 G40 G01 X50.471 Y58.072
N000000118 V.E.Par[17] = 50.471 V.E.Par[18] = 58.072
N000000119 V.E.Par[15] = 59.128 V.E.Par[16] = 52.944
N000000120 V.E.Par[82] = 60.075 V.E.Par[83] = 51.996
N000000121 M111 M101
N000000122 G81
N000000123 [100005] V.E.Kparams[2] = 1 V.E.Kparams[3] = 5
N000000124 V.E.Par[80] = 59.128 V.E.Par[81] = 52.944
N000000125 V.E.Par[82] = 60.075 V.E.Par[83] = 51.996
N000000126 M111 M101
N000000127 G812
N000000128 $IF V.E.Kparams[15] == 1 OR V.E.Kparams[15] == 2
N000000129 V.E.Par[17] = 59.128 V.E.Par[18] = 52.944
N000000130 V.E.Par[15] = 69.192 V.E.Par[16] = 46.408
N000000131 M111 M101
N000000132 G81
N000000133 $GOTO [100005]
N000000134 $ENDIF
N000000135 $IF V.E.Par[78] == 0
N000000136 D1 G41
N000000137 G01 X59.128 Y52.944 FP60
N000000138 G03 X60.075 Y51.996 I0.474 J-0.474
N000000139 $IF V.E.Par[84] == 1
N000000140 M43
N000000141 $ENDIF
N000000142 $ENDIF
N000000143 G806
N000000144 D1 G41
N000000145 G03 X57.997 Y54.075 I-1.039 J1.04 FP70
N000000146 G03 X60.075 Y51.996 I1.039 J-1.039
N000000147 G804
N000000148 G40 G01 X60.075 Y51.996
N000000149 V.E.Par[17] = 60.075 V.E.Par[18] = 51.996
N000000150 V.E.Par[15] = 69.192 V.E.Par[16] = 46.408
N000000151 V.E.Par[82] = 70.599 V.E.Par[83] = 45.001
N000000152 M111 M101
N000000153 G81
N000000154 [100006] V.E.Kparams[2] = 1 V.E.Kparams[3] = 6
N000000155 V.E.Par[80] = 69.192 V.E.Par[81] = 46.408
N000000156 V.E.Par[82] = 70.599 V.E.Par[83] = 45.001
N000000157 M111 M101
N000000158 G812
N000000159 $IF V.E.Kparams[15] == 1 OR V.E.Kparams[15] == 2
N000000160 V.E.Par[17] = 69.192 V.E.Par[18] = 46.408
N000000161 V.E.Par[15] = 79.814 V.E.Par[16] = 55.043
N000000162 M111 M101
N000000163 G81
N000000164 $GOTO [100006]
N000000165 $ENDIF
N000000166 $IF V.E.Par[78] == 0
N000000167 D1 G41
N000000168 G01 X69.192 Y46.408 FP60
N000000169 G03 X70.599 Y45.001 I0.703 J-0.703
N000000170 $IF V.E.Par[84] == 1
N000000171 M43
N000000172 $ENDIF
N000000173 $ENDIF
N000000174 G806
N000000175 D1 G41
N000000176 G03 X67.601 Y47.999 I-1.499 J1.499 FP70
N000000177 G03 X70.599 Y45.001 I1.499 J-1.499
N000000178 G804
N000000179 G40 G01 X70.599 Y45.001
N000000180 V.E.Par[17] = 70.599 V.E.Par[18] = 45.001
N000000181 V.E.Par[15] = 79.814 V.E.Par[16] = 55.043
N000000182 V.E.Par[82] = 83.789 V.E.Par[83] = 52.461
N000000183 M111 M101
N000000184 G81
N000000185 [100007] V.E.Kparams[2] = 1 V.E.Kparams[3] = 7
N000000186 V.E.Par[80] = 79.814 V.E.Par[81] = 55.043
N000000187 V.E.Par[82] = 83.789 V.E.Par[83] = 52.461
N000000188 M111 M101
N000000189 G812
N000000190 $IF V.E.Kparams[15] == 1 OR V.E.Kparams[15] == 2
N000000191 V.E.Par[17] = 79.814 V.E.Par[18] = 55.043
N000000192 V.E.Par[15] = 89.692 V.E.Par[16] = 38.908
N000000193 M111 M101
N000000194 G81
N000000195 $GOTO [100007]
N000000196 $ENDIF
N000000197 $IF V.E.Par[78] == 0
N000000198 D1 G41
N000000199 G01 X79.814 Y55.043 FP60
N000000200 G03 X83.789 Y52.461 I1.988 J-1.291
N000000201 $IF V.E.Par[84] == 1
N000000202 M43
N000000203 $ENDIF
N000000204 $ENDIF
N000000205 G806
N000000206 D1 G41
N000000207 G03 X82.357 Y59.198 I-4.084 J2.653 FP70
N000000208 G01 X55.101 Y76.899
N000000209 G03 X49.796 Y68.73 I-2.653 J-4.085
N000000210 G01 X77.053 Y51.029
N000000211 G03 X83.789 Y52.461 I2.652 J4.085
N000000212 G804
N000000213 G40 G01 X83.789 Y52.461
N000000214 V.E.Par[17] = 83.789 V.E.Par[18] = 52.461
N000000215 V.E.Par[15] = 89.692 V.E.Par[16] = 38.908
N000000216 V.E.Par[82] = 91.099 V.E.Par[83] = 37.501
N000000217 M111 M101
N000000218 G81
N000000219 [100008] V.E.Kparams[2] = 1 V.E.Kparams[3] = 8
N000000220 V.E.Par[80] = 89.692 V.E.Par[81] = 38.908
N000000221 V.E.Par[82] = 91.099 V.E.Par[83] = 37.501
N000000222 M111 M101
N000000223 G812
N000000224 $IF V.E.Kparams[15] == 1 OR V.E.Kparams[15] == 2
N000000225 V.E.Par[17] = 89.692 V.E.Par[18] = 38.908
N000000226 V.E.Par[15] = 97.142 V.E.Par[16] = 75.408
N000000227 M111 M101
N000000228 G81
N000000229 $GOTO [100008]
N000000230 $ENDIF
N000000231 $IF V.E.Par[78] == 0
N000000232 D1 G41
N000000233 G01 X89.692 Y38.908 FP60
N000000234 G03 X91.099 Y37.501 I0.703 J-0.703
N000000235 $IF V.E.Par[84] == 1
N000000236 M43
N000000237 $ENDIF
N000000238 $ENDIF
N000000239 G806
N000000240 D1 G41
N000000241 G03 X88.101 Y40.499 I-1.499 J1.499 FP70
N000000242 G03 X91.099 Y37.501 I1.499 J-1.499
N000000243 G804
N000000244 G40 G01 X91.099 Y37.501
N000000245 V.E.Par[17] = 91.099 V.E.Par[18] = 37.501
N000000246 V.E.Par[15] = 97.142 V.E.Par[16] = 75.408
N000000247 V.E.Par[82] = 97.807 V.E.Par[83] = 74.743
N000000248 M111 M101
N000000249 G81
N000000250 [100009] V.E.Kparams[2] = 1 V.E.Kparams[3] = 9
N000000251 V.E.Par[80] = 97.142 V.E.Par[81] = 75.408
N000000252 V.E.Par[82] = 97.807 V.E.Par[83] = 74.743
N000000253 M111 M101
N000000254 G812
N000000255 $IF V.E.Kparams[15] == 1 OR V.E.Kparams[15] == 2
N000000256 V.E.Par[17] = 97.142 V.E.Par[18] = 75.408
N000000257 V.E.Par[15] = 66.229 V.E.Par[16] = 115.597
N000000258 M111 M101
N000000259 G81
N000000260 $GOTO [100009]
N000000261 $ENDIF
N000000262 $IF V.E.Par[78] == 0
N000000263 D1 G41
N000000264 G01 X97.142 Y75.408 FP60
N000000265 G03 X97.807 Y74.743 I0.332 J-0.332
N000000266 $IF V.E.Par[84] == 1
N000000267 M43
N000000268 $ENDIF
N000000269 $ENDIF
N000000270 G806
N000000271 D1 G41
N000000272 G03 X98.12 Y75.5 I-0.757 J0.757 FP70
N000000273 G01 X98.12 Y83.1
N000000274 G03 X97.05 Y84.17 I-1.07 J0
N000000275 G01 X92.95 Y84.17
N000000276 G03 X91.88 Y83.1 I0 J-1.07
N000000277 G01 X91.88 Y75.5
N000000278 G03 X92.95 Y74.43 I1.07 J0
N000000279 G01 X97.05 Y74.43
N000000280 G03 X97.807 Y74.743 I0 J1.07
N000000281 G804
N000000282 G40 G01 X97.807 Y74.743
N000000283 V.E.Par[17] = 97.807 V.E.Par[18] = 74.743
N000000284 V.E.Par[15] = 66.229 V.E.Par[16] = 115.597
N000000285 V.E.Par[82] = 66.611 V.E.Par[83] = 115.597
N000000286 M111 M101
N000000287 G81
N000000288 [100010] V.E.Kparams[2] = 1 V.E.Kparams[3] = 10
N000000289 V.E.Par[80] = 66.229 V.E.Par[81] = 115.597
N000000290 V.E.Par[82] = 66.611 V.E.Par[83] = 115.597
N000000291 M111 M101
N000000292 G812
N000000293 $IF V.E.Kparams[15] == 1 OR V.E.Kparams[15] == 2
N000000294 V.E.Par[17] = 66.229 V.E.Par[18] = 115.597
N000000295 V.E.Par[15] = 32.592 V.E.Par[16] = 77.408
N000000296 M111 M101
N000000297 G81
N000000298 $GOTO [100010]
N000000299 $ENDIF
N000000300 $IF V.E.Par[78] == 0
N000000301 D1 G41
N000000302 G01 X66.229 Y115.597 FP60
N000000303 G03 X66.611 Y115.597 I0.191 J0.191
N000000304 $IF V.E.Par[84] == 1
N000000305 M43
N000000306 $ENDIF
N000000307 $ENDIF
N000000308 G806
N000000309 D1 G41
N000000310 G01 X68.98 Y117.966 FP70
N000000311 G03 X68.598 Y118.348 I-0.191 J0.191
N000000312 G01 X63.86 Y113.61
N000000313 G03 X64.242 Y113.228 I0.191 J-0.191
N000000314 G01 X66.611 Y115.597
N000000315 G804
N000000316 G40 G01 X66.611 Y115.597
N000000317 V.E.Par[17] = 66.611 V.E.Par[18] = 115.597
N000000318 V.E.Par[15] = 32.592 V.E.Par[16] = 77.408
N000000319 V.E.Par[82] = 34.6 V.E.Par[83] = 75.4
N000000320 M111 M101
N000000321 G81
N000000322 [100011] V.E.Kparams[2] = 1 V.E.Kparams[3] = 11
N000000323 V.E.Par[80] = 32.592 V.E.Par[81] = 77.408
N000000324 V.E.Par[82] = 34.6 V.E.Par[83] = 75.4
N000000325 M111 M101
N000000326 G812
N000000327 $IF V.E.Kparams[15] == 1 OR V.E.Kparams[15] == 2
N000000328 V.E.Par[17] = 32.592 V.E.Par[18] = 77.408
N000000329 V.E.Par[15] = 106.592 V.E.Par[16] = 147.908
N000000330 M111 M101
N000000331 G81
N000000332 $GOTO [100011]
N000000333 $ENDIF
N000000334 $IF V.E.Par[78] == 0
N000000335 D1 G41
N000000336 G01 X32.592 Y77.408 FP60
N000000337 G03 X34.6 Y75.4 I1.004 J-1.004
N000000338 $IF V.E.Par[84] == 1
N000000339 M43
N000000340 $ENDIF
N000000341 $ENDIF
N000000342 G806
N000000343 D1 G41
N000000344 G03 X30.4 Y79.6 I-2.1 J2.1 FP70
N000000345 G03 X34.6 Y75.4 I2.1 J-2.1
N000000346 G804
N000000347 G40 G01 X34.6 Y75.4
N000000348 V.E.Par[17] = 34.6 V.E.Par[18] = 75.4
N000000349 V.E.Par[15] = 106.592 V.E.Par[16] = 147.908
N000000350 V.E.Par[82] = 107.646 V.E.Par[83] = 146.854
N000000351 M111 M101
N000000352 G81
N000000353 [100012] V.E.Kparams[2] = 1 V.E.Kparams[3] = 12
N000000354 V.E.Par[80] = 106.592 V.E.Par[81] = 147.908
N000000355 V.E.Par[82] = 107.646 V.E.Par[83] = 146.854
N000000356 M111 M101
N000000357 G812
N000000358 $IF V.E.Kparams[15] == 1 OR V.E.Kparams[15] == 2
N000000359 V.E.Par[17] = 106.592 V.E.Par[18] = 147.908
N000000360 V.E.Par[15] = 146.23 V.E.Par[16] = 148.958
N000000361 M111 M101
N000000362 G81
N000000363 $GOTO [100012]
N000000364 $ENDIF
N000000365 $IF V.E.Par[78] == 0
N000000366 D1 G41
N000000367 G01 X106.592 Y147.908 FP60
N000000368 G03 X107.646 Y146.854 I0.527 J-0.527
N000000369 $IF V.E.Par[84] == 1
N000000370 M43
N000000371 $ENDIF
N000000372 $ENDIF
N000000373 G806
N000000374 D1 G41
N000000375 G03 X105.354 Y149.146 I-1.146 J1.146 FP70
N000000376 G03 X107.646 Y146.854 I1.146 J-1.146
N000000377 G804
N000000378 G40 G01 X107.646 Y146.854
N000000379 V.E.Par[17] = 107.646 V.E.Par[18] = 146.854
N000000380 V.E.Par[15] = 146.23 V.E.Par[16] = 148.958
N000000381 V.E.Par[82] = 146.5 V.E.Par[83] = 148.688
N000000382 M111 M101
N000000383 G81
N000000384 [100013] V.E.Kparams[2] = 1 V.E.Kparams[3] = 13
N000000385 V.E.Par[80] = 146.23 V.E.Par[81] = 148.958
N000000386 V.E.Par[82] = 146.5 V.E.Par[83] = 148.688
N000000387 M111 M101
N000000388 G812
N000000389 $IF V.E.Kparams[15] == 1 OR V.E.Kparams[15] == 2
N000000390 V.E.Par[17] = 146.23 V.E.Par[18] = 148.958
N000000391 V.E.Par[15] = 186.592 V.E.Par[16] = 147.908
N000000392 M111 M101
N000000393 G81
N000000394 $GOTO [100013]
N000000395 $ENDIF
N000000396 $IF V.E.Par[78] == 0
N000000397 D1 G41
N000000398 G01 X146.23 Y148.958 FP60
N000000399 G03 X146.5 Y148.688 I0.27 J0
N000000400 $IF V.E.Par[84] == 1
N000000401 M43
N000000402 $ENDIF
N000000403 $ENDIF
N000000404 G806
N000000405 D1 G41
N000000406 G01 X149.85 Y148.688 FP70
N000000407 G03 X149.85 Y149.228 I0 J0.27
N000000408 G01 X143.15 Y149.228
N000000409 G03 X143.15 Y148.688 I0 J-0.27
N000000410 G01 X146.5 Y148.688
N000000411 G804
N000000412 G40 G01 X146.5 Y148.688
N000000413 V.E.Par[17] = 146.5 V.E.Par[18] = 148.688
N000000414 V.E.Par[15] = 186.592 V.E.Par[16] = 147.908
N000000415 V.E.Par[82] = 187.646 V.E.Par[83] = 146.854
N000000416 M111 M101
N000000417 G81
N000000418 [100014] V.E.Kparams[2] = 1 V.E.Kparams[3] = 14
N000000419 V.E.Par[80] = 186.592 V.E.Par[81] = 147.908
N000000420 V.E.Par[82] = 187.646 V.E.Par[83] = 146.854
N000000421 M111 M101
N000000422 G812
N000000423 $IF V.E.Kparams[15] == 1 OR V.E.Kparams[15] == 2
N000000424 V.E.Par[17] = 186.592 V.E.Par[18] = 147.908
N000000425 V.E.Par[15] = 226.389 V.E.Par[16] = 115.979
N000000426 M111 M101
N000000427 G81
N000000428 $GOTO [100014]
N000000429 $ENDIF
N000000430 $IF V.E.Par[78] == 0
N000000431 D1 G41
N000000432 G01 X186.592 Y147.908 FP60
N000000433 G03 X187.646 Y146.854 I0.527 J-0.527
N000000434 $IF V.E.Par[84] == 1
N000000435 M43
N000000436 $ENDIF
N000000437 $ENDIF
N000000438 G806
N000000439 D1 G41
N000000440 G03 X185.354 Y149.146 I-1.146 J1.146 FP70
N000000441 G03 X187.646 Y146.854 I1.146 J-1.146
N000000442 G804
N000000443 G40 G01 X187.646 Y146.854
N000000444 V.E.Par[17] = 187.646 V.E.Par[18] = 146.854
N000000445 V.E.Par[15] = 226.389 V.E.Par[16] = 115.979
N000000446 V.E.Par[82] = 226.389 V.E.Par[83] = 115.597
N000000447 M111 M101
N000000448 G81
N000000449 [100015] V.E.Kparams[2] = 1 V.E.Kparams[3] = 15
N000000450 V.E.Par[80] = 226.389 V.E.Par[81] = 115.979
N000000451 V.E.Par[82] = 226.389 V.E.Par[83] = 115.597
N000000452 M111 M101
N000000453 G812
N000000454 $IF V.E.Kparams[15] == 1 OR V.E.Kparams[15] == 2
N000000455 V.E.Par[17] = 226.389 V.E.Par[18] = 115.979
N000000456 V.E.Par[15] = 200.142 V.E.Par[16] = 75.408
N000000457 M111 M101
N000000458 G81
N000000459 $GOTO [100015]
N000000460 $ENDIF
N000000461 $IF V.E.Par[78] == 0
N000000462 D1 G41
N000000463 G01 X226.389 Y115.979 FP60
N000000464 G03 X226.389 Y115.597 I0.191 J-0.191
N000000465 $IF V.E.Par[84] == 1
N000000466 M43
N000000467 $ENDIF
N000000468 $ENDIF
N000000469 G806
N000000470 D1 G41
N000000471 G01 X228.758 Y113.228 FP70
N000000472 G03 X229.14 Y113.61 I0.191 J0.191
N000000473 G01 X224.402 Y118.348
N000000474 G03 X224.02 Y117.966 I-0.191 J-0.191
N000000475 G01 X226.389 Y115.597
N000000476 G804
N000000477 G40 G01 X226.389 Y115.597
N000000478 V.E.Par[17] = 226.389 V.E.Par[18] = 115.597
N000000479 V.E.Par[15] = 200.142 V.E.Par[16] = 75.408
N000000480 V.E.Par[82] = 200.807 V.E.Par[83] = 74.743
N000000481 M111 M101
N000000482 G81
N000000483 [100016] V.E.Kparams[2] = 1 V.E.Kparams[3] = 16
N000000484 V.E.Par[80] = 200.142 V.E.Par[81] = 75.408
N000000485 V.E.Par[82] = 200.807 V.E.Par[83] = 74.743
N000000486 M111 M101
N000000487 G812
N000000488 $IF V.E.Kparams[15] == 1 OR V.E.Kparams[15] == 2
N000000489 V.E.Par[17] = 200.142 V.E.Par[18] = 75.408
N000000490 V.E.Par[15] = 260.592 V.E.Par[16] = 77.408
N000000491 M111 M101
N000000492 G81
N000000493 $GOTO [100016]
N000000494 $ENDIF
N000000495 $IF V.E.Par[78] == 0
N000000496 D1 G41
N000000497 G01 X200.142 Y75.408 FP60
N000000498 G03 X200.807 Y74.743 I0.332 J-0.332
N000000499 $IF V.E.Par[84] == 1
N000000500 M43
N000000501 $ENDIF
N000000502 $ENDIF
N000000503 G806
N000000504 D1 G41
N000000505 G03 X201.12 Y75.5 I-0.757 J0.757 FP70
N000000506 G01 X201.12 Y83.1
N000000507 G03 X200.05 Y84.17 I-1.07 J0
N000000508 G01 X195.95 Y84.17
N000000509 G03 X194.88 Y83.1 I0 J-1.07
N000000510 G01 X194.88 Y75.5
N000000511 G03 X195.95 Y74.43 I1.07 J0
N000000512 G01 X200.05 Y74.43
N000000513 G03 X200.807 Y74.743 I0 J1.07
N000000514 G804
N000000515 G40 G01 X200.807 Y74.743
N000000516 V.E.Par[17] = 200.807 V.E.Par[18] = 74.743
N000000517 V.E.Par[15] = 260.592 V.E.Par[16] = 77.408
N000000518 V.E.Par[82] = 262.6 V.E.Par[83] = 75.4
N000000519 M111 M101
N000000520 G81
N000000521 [100017] V.E.Kparams[2] = 1 V.E.Kparams[3] = 17
N000000522 V.E.Par[80] = 260.592 V.E.Par[81] = 77.408
N000000523 V.E.Par[82] = 262.6 V.E.Par[83] = 75.4
N000000524 M111 M101
N000000525 G812
N000000526 $IF V.E.Kparams[15] == 1 OR V.E.Kparams[15] == 2
N000000527 V.E.Par[17] = 260.592 V.E.Par[18] = 77.408
N000000528 V.E.Par[15] = 267.792 V.E.Par[16] = 49.908
N000000529 M111 M101
N000000530 G81
N000000531 $GOTO [100017]
N000000532 $ENDIF
N000000533 $IF V.E.Par[78] == 0
N000000534 D1 G41
N000000535 G01 X260.592 Y77.408 FP60
N000000536 G03 X262.6 Y75.4 I1.004 J-1.004
N000000537 $IF V.E.Par[84] == 1
N000000538 M43
N000000539 $ENDIF
N000000540 $ENDIF
N000000541 G806
N000000542 D1 G41
N000000543 G03 X258.4 Y79.6 I-2.1 J2.1 FP70
N000000544 G03 X262.6 Y75.4 I2.1 J-2.1
N000000545 G804
N000000546 G40 G01 X262.6 Y75.4
N000000547 V.E.Par[17] = 262.6 V.E.Par[18] = 75.4
N000000548 V.E.Par[15] = 267.792 V.E.Par[16] = 49.908
N000000549 V.E.Par[82] = 269.8 V.E.Par[83] = 47.9
N000000550 M111 M101
N000000551 G81
N000000552 [100018] V.E.Kparams[2] = 1 V.E.Kparams[3] = 18
N000000553 V.E.Par[80] = 267.792 V.E.Par[81] = 49.908
N000000554 V.E.Par[82] = 269.8 V.E.Par[83] = 47.9
N000000555 M111 M101
N000000556 G812
N000000557 $IF V.E.Kparams[15] == 1 OR V.E.Kparams[15] == 2
N000000558 V.E.Par[17] = 267.792 V.E.Par[18] = 49.908
N000000559 V.E.Par[15] = 214.692 V.E.Par[16] = 9.908
N000000560 M111 M101
N000000561 G81
N000000562 $GOTO [100018]
N000000563 $ENDIF
N000000564 $IF V.E.Par[78] == 0
N000000565 D1 G41
N000000566 G01 X267.792 Y49.908 FP60
N000000567 G03 X269.8 Y47.9 I1.004 J-1.004
N000000568 $IF V.E.Par[84] == 1
N000000569 M43
N000000570 $ENDIF
N000000571 $ENDIF
N000000572 G806
N000000573 D1 G41
N000000574 G03 X265.6 Y52.1 I-2.1 J2.1 FP70
N000000575 G03 X269.8 Y47.9 I2.1 J-2.1
N000000576 G804
N000000577 G40 G01 X269.8 Y47.9
N000000578 V.E.Par[17] = 269.8 V.E.Par[18] = 47.9
N000000579 V.E.Par[15] = 214.692 V.E.Par[16] = 9.908
N000000580 V.E.Par[82] = 215.215 V.E.Par[83] = 9.385
N000000581 M111 M101
N000000582 G81
N000000583 [100019] V.E.Kparams[2] = 1 V.E.Kparams[3] = 19
N000000584 V.E.Par[80] = 214.692 V.E.Par[81] = 9.908
N000000585 V.E.Par[82] = 215.215 V.E.Par[83] = 9.385
N000000586 M111 M101
N000000587 G812
N000000588 $IF V.E.Kparams[15] == 1 OR V.E.Kparams[15] == 2
N000000589 V.E.Par[17] = 214.692 V.E.Par[18] = 9.908
N000000590 V.E.Par[15] = 211.292 V.E.Par[16] = 9.908
N000000591 M111 M101
N000000592 G81
N000000593 $GOTO [100019]
N000000594 $ENDIF
N000000595 $IF V.E.Par[78] == 0
N000000596 D1 G41
N000000597 G01 X214.692 Y9.908 FP60
N000000598 G03 X215.215 Y9.385 I0.262 J-0.262
N000000599 $IF V.E.Par[84] == 1
N000000600 M43
N000000601 $ENDIF
N000000602 $ENDIF
N000000603 G806
N000000604 D1 G41
N000000605 G03 X213.985 Y10.615 I-0.615 J0.615 FP70
N000000606 G03 X215.215 Y9.385 I0.615 J-0.615
N000000607 G804
N000000608 G40 G01 X215.215 Y9.385
N000000609 V.E.Par[17] = 215.215 V.E.Par[18] = 9.385
N000000610 V.E.Par[15] = 211.292 V.E.Par[16] = 9.908
N000000611 V.E.Par[82] = 211.815 V.E.Par[83] = 9.385
N000000612 M111 M101
N000000613 G81
N000000614 [100020] V.E.Kparams[2] = 1 V.E.Kparams[3] = 20
N000000615 V.E.Par[80] = 211.292 V.E.Par[81] = 9.908
N000000616 V.E.Par[82] = 211.815 V.E.Par[83] = 9.385
N000000617 M111 M101
N000000618 G812
N000000619 $IF V.E.Kparams[15] == 1 OR V.E.Kparams[15] == 2
N000000620 V.E.Par[17] = 211.292 V.E.Par[18] = 9.908
N000000621 V.E.Par[15] = 207.892 V.E.Par[16] = 9.908
N000000622 M111 M101
N000000623 G81
N000000624 $GOTO [100020]
N000000625 $ENDIF
N000000626 $IF V.E.Par[78] == 0
N000000627 D1 G41
N000000628 G01 X211.292 Y9.908 FP60
N000000629 G03 X211.815 Y9.385 I0.262 J-0.262
N000000630 $IF V.E.Par[84] == 1
N000000631 M43
N000000632 $ENDIF
N000000633 $ENDIF
N000000634 G806
N000000635 D1 G41
N000000636 G03 X210.585 Y10.615 I-0.615 J0.615 FP70
N000000637 G03 X211.815 Y9.385 I0.615 J-0.615
N000000638 G804
N000000639 G40 G01 X211.815 Y9.385
N000000640 V.E.Par[17] = 211.815 V.E.Par[18] = 9.385
N000000641 V.E.Par[15] = 207.892 V.E.Par[16] = 9.908
N000000642 V.E.Par[82] = 208.415 V.E.Par[83] = 9.385
N000000643 M111 M101
N000000644 G81
N000000645 [100021] V.E.Kparams[2] = 1 V.E.Kparams[3] = 21
N000000646 V.E.Par[80] = 207.892 V.E.Par[81] = 9.908
N000000647 V.E.Par[82] = 208.415 V.E.Par[83] = 9.385
N000000648 M111 M101
N000000649 G812
N000000650 $IF V.E.Kparams[15] == 1 OR V.E.Kparams[15] == 2
N000000651 V.E.Par[17] = 207.892 V.E.Par[18] = 9.908
N000000652 V.E.Par[15] = 204.492 V.E.Par[16] = 9.908
N000000653 M111 M101
N000000654 G81
N000000655 $GOTO [100021]
N000000656 $ENDIF
N000000657 $IF V.E.Par[78] == 0
N000000658 D1 G41
N000000659 G01 X207.892 Y9.908 FP60
N000000660 G03 X208.415 Y9.385 I0.262 J-0.262
N000000661 $IF V.E.Par[84] == 1
N000000662 M43
N000000663 $ENDIF
N000000664 $ENDIF
N000000665 G806
N000000666 D1 G41
N000000667 G03 X207.185 Y10.615 I-0.615 J0.615 FP70
N000000668 G03 X208.415 Y9.385 I0.615 J-0.615
N000000669 G804
N000000670 G40 G01 X208.415 Y9.385
N000000671 V.E.Par[17] = 208.415 V.E.Par[18] = 9.385
N000000672 V.E.Par[15] = 204.492 V.E.Par[16] = 9.908
N000000673 V.E.Par[82] = 205.015 V.E.Par[83] = 9.385
N000000674 M111 M101
N000000675 G81
N000000676 [100022] V.E.Kparams[2] = 1 V.E.Kparams[3] = 22
N000000677 V.E.Par[80] = 204.492 V.E.Par[81] = 9.908
N000000678 V.E.Par[82] = 205.015 V.E.Par[83] = 9.385
N000000679 M111 M101
N000000680 G812
N000000681 $IF V.E.Kparams[15] == 1 OR V.E.Kparams[15] == 2
N000000682 V.E.Par[17] = 204.492 V.E.Par[18] = 9.908
N000000683 V.E.Par[15] = 204.2 V.E.Par[16] = -0.13
N000000684 M111 M101
N000000685 G81
N000000686 $GOTO [100022]
N000000687 $ENDIF
N000000688 $IF V.E.Par[78] == 0
N000000689 D1 G41
N000000690 G01 X204.492 Y9.908 FP60
N000000691 G03 X205.015 Y9.385 I0.262 J-0.262
N000000692 $IF V.E.Par[84] == 1
N000000693 M43
N000000694 $ENDIF
N000000695 $ENDIF
N000000696 G806
N000000697 D1 G41
N000000698 G03 X203.785 Y10.615 I-0.615 J0.615 FP70
N000000699 G03 X205.015 Y9.385 I0.615 J-0.615
N000000700 G804
N000000701 G40 G01 X205.015 Y9.385
N000000702 V.E.Par[17] = 205.015 V.E.Par[18] = 9.385
N000000703 V.E.Par[15] = 204.2 V.E.Par[16] = -0.13
N000000704 V.E.Par[82] = 204.2 V.E.Par[83] = -0.13
N000000705 M111 M101
N000000706 G81
N000000707 [100023] V.E.Kparams[2] = 1 V.E.Kparams[3] = 23
N000000708 V.E.Par[80] = 204.2 V.E.Par[81] = -0.13
N000000709 V.E.Par[82] = 204.2 V.E.Par[83] = -0.13
N000000710 M111 M101
N000000711 G812
N000000712 $IF V.E.Kparams[15] == 1 OR V.E.Kparams[15] == 2
N000000713 V.E.Par[17] = 204.2 V.E.Par[18] = -0.13
N000000714 V.E.Par[15] = 223.7 V.E.Par[16] = -0.13
N000000715 M111 M101
N000000716 G81
N000000717 $GOTO [100023]
N000000718 $ENDIF
N000000719 D2 G41
N000000720 G02 X202.87 Y1.2 I0 J1.33 FP70
N000000721 G01 X202.87 Y8.8
N000000722 G03 X201.8 Y9.87 I-1.07 J0
N000000723 G01 X197.7 Y9.87
N000000724 G03 X196.63 Y8.8 I0 J-1.07
N000000725 G01 X196.63 Y1.2
N000000726 G02 X195.3 Y-0.13 I-1.33 J0
N000000727 G804
N000000728 G40 G01 X195.3 Y-0.13
N000000729 V.E.Par[17] = 195.3 V.E.Par[18] = -0.13
N000000730 V.E.Par[15] = 223.7 V.E.Par[16] = -0.13
N000000731 V.E.Par[82] = 223.7 V.E.Par[83] = -0.13
N000000732 M111 M101
N000000733 M60=4
N000000734 G81
N000000735 [100024] V.E.Kparams[2] = 1 V.E.Kparams[3] = 24
N000000736 V.E.Par[80] = 223.7 V.E.Par[81] = -0.13
N000000737 V.E.Par[82] = 223.7 V.E.Par[83] = -0.13
N000000738 M111 M101
N000000739 M60=4
N000000740 M60=6
N000000741 G812
N000000742 $IF V.E.Kparams[15] == 1 OR V.E.Kparams[15] == 2
N000000743 V.E.Par[17] = 223.7 V.E.Par[18] = -0.13
N000000744 V.E.Par[15] = 293.13 V.E.Par[16] = 16.7
N000000745 M111 M101
N000000746 G81
N000000747 $GOTO [100024]
N000000748 $ENDIF
N000000749 D2 G41
N000000750 G02 X222.37 Y1.2 I0 J1.33 FP70
N000000751 G01 X222.37 Y8.8
N000000752 G03 X221.3 Y9.87 I-1.07 J0
N000000753 G01 X217.2 Y9.87
N000000754 G03 X216.13 Y8.8 I0 J-1.07
N000000755 G01 X216.13 Y1.2
N000000756 G02 X214.8 Y-0.13 I-1.33 J0
N000000757 G804
N000000758 G40 G01 X214.8 Y-0.13
N000000759 V.E.Par[17] = 214.8 V.E.Par[18] = -0.13
N000000760 V.E.Par[15] = 293.13 V.E.Par[16] = 16.7
N000000761 V.E.Par[82] = 293.13 V.E.Par[83] = 16.7
N000000762 M111 M101
N000000763 M60=4
N000000764 G81
N000000765 [100025] V.E.Kparams[2] = 1 V.E.Kparams[3] = 25
N000000766 V.E.Par[80] = 293.13 V.E.Par[81] = 16.7
N000000767 V.E.Par[82] = 293.13 V.E.Par[83] = 16.7
N000000768 M111 M101
N000000769 M60=4
N000000770 M60=6
N000000771 G812
N000000772 $IF V.E.Kparams[15] == 1 OR V.E.Kparams[15] == 2
N000000773 V.E.Par[17] = 293.13 V.E.Par[18] = 16.7
N000000774 V.E.Par[15] = 21.5 V.E.Par[16] = -0.13
N000000775 M111 M101
N000000776 G81
N000000777 $GOTO [100025]
N000000778 $ENDIF
N000000779 D2 G41
N000000780 G02 X291.8 Y15.37 I-1.33 J0 FP70
N000000781 G01 X284.7 Y15.37
N000000782 G03 X283.63 Y14.3 I0 J-1.07
N000000783 G01 X283.63 Y3.7
N000000784 G02 X282.3 Y2.37 I-1.33 J0
N000000785 G01 X273.9 Y2.37
N000000786 G03 X272.83 Y1.3 I0 J-1.07
N000000787 G01 X272.83 Y1.2
N000000788 G02 X271.5 Y-0.13 I-1.33 J0
N000000789 G804
N000000790 G40 G01 X271.5 Y-0.13
N000000791 V.E.Par[17] = 271.5 V.E.Par[18] = -0.13
N000000792 V.E.Par[15] = 21.5 V.E.Par[16] = -0.13
N000000793 V.E.Par[82] = 21.5 V.E.Par[83] = -0.13
N000000794 M111 M101
N000000795 M60=4
N000000796 G81
N000000797 [100026] V.E.Kparams[2] = 1 V.E.Kparams[3] = 26
N000000798 V.E.Par[80] = 21.5 V.E.Par[81] = -0.13
N000000799 V.E.Par[82] = 21.5 V.E.Par[83] = -0.13
N000000800 M111 M101
N000000801 M60=4
N000000802 M60=6
N000000803 G812
N000000804 $IF V.E.Kparams[15] == 1 OR V.E.Kparams[15] == 2
N000000805 V.E.Par[17] = 21.5 V.E.Par[18] = -0.13
N000000806 V.E.Par[15] = 97.2 V.E.Par[16] = -0.13
N000000807 M111 M101
N000000808 G81
N000000809 $GOTO [100026]
N000000810 $ENDIF
N000000811 D2 G41
N000000812 G02 X20.17 Y1.2 I0 J1.33 FP70
N000000813 G01 X20.17 Y1.3
N000000814 G03 X19.1 Y2.37 I-1.07 J0
N000000815 G01 X10.7 Y2.37
N000000816 G02 X9.37 Y3.7 I0 J1.33
N000000817 G01 X9.37 Y14.3
N000000818 G03 X8.3 Y15.37 I-1.07 J0
N000000819 G01 X1.2 Y15.37
N000000820 G02 X-0.13 Y16.7 I0 J1.33
N000000821 G804
N000000822 G40 G01 X-0.13 Y16.7
N000000823 V.E.Par[17] = -0.13 V.E.Par[18] = 16.7
N000000824 V.E.Par[15] = 97.2 V.E.Par[16] = -0.13
N000000825 V.E.Par[82] = 97.2 V.E.Par[83] = -0.13
N000000826 M111 M101
N000000827 M60=4
N000000828 G81
N000000829 [100027] V.E.Kparams[2] = 1 V.E.Kparams[3] = 27
N000000830 V.E.Par[80] = 97.2 V.E.Par[81] = -0.13
N000000831 V.E.Par[82] = 97.2 V.E.Par[83] = -0.13
N000000832 M111 M101
N000000833 M60=4
N000000834 M60=6
N000000835 G812
N000000836 $IF V.E.Kparams[15] == 1 OR V.E.Kparams[15] == 2
N000000837 V.E.Par[17] = 97.2 V.E.Par[18] = -0.13
N000000838 V.E.Par[15] = 180.8 V.E.Par[16] = 162.13
N000000839 M111 M101
N000000840 G81
N000000841 $GOTO [100027]
N000000842 $ENDIF
N000000843 D2 G41
N000000844 G02 X95.87 Y1.2 I0 J1.33 FP70
N000000845 G01 X95.87 Y10.8
N000000846 G03 X94.8 Y11.87 I-1.07 J0
N000000847 G01 X37.2 Y11.87
N000000848 G03 X36.13 Y10.8 I0 J-1.07
N000000849 G01 X36.13 Y1.2
N000000850 G02 X34.8 Y-0.13 I-1.33 J0
N000000851 G804
N000000852 G40 G01 X34.8 Y-0.13
N000000853 V.E.Par[17] = 34.8 V.E.Par[18] = -0.13
N000000854 V.E.Par[15] = 180.8 V.E.Par[16] = 162.13
N000000855 V.E.Par[82] = 180.8 V.E.Par[83] = 162.13
N000000856 M111 M101
N000000857 M60=4
N000000858 G81
N000000859 [100028] V.E.Kparams[2] = 1 V.E.Kparams[3] = 28
N000000860 V.E.Par[80] = 180.8 V.E.Par[81] = 162.13
N000000861 V.E.Par[82] = 180.8 V.E.Par[83] = 162.13
N000000862 M111 M101
N000000863 M60=4
N000000864 M60=6
N000000865 G812
N000000866 $IF V.E.Kparams[15] == 1 OR V.E.Kparams[15] == 2
N000000867 V.E.Par[17] = 180.8 V.E.Par[18] = 162.13
N000000868 V.E.Par[15] = -0.13 V.E.Par[16] = 30.8
N000000869 M111 M101
N000000870 G81
N000000871 $GOTO [100028]
N000000872 $ENDIF
N000000873 D2 G41
N000000874 G02 X182.13 Y160.8 I0 J-1.33 FP70
N000000875 G01 X182.13 Y153.7
N000000876 G03 X183.2 Y152.63 I1.07 J0
N000000877 G01 X205.503 Y152.63
N000000878 G02 X206.443 Y152.24 I0 J-1.33
N000000879 G01 X265.24 Y93.443
N000000880 G02 X265.63 Y92.503 I-0.94 J-0.94
N000000881 G01 X265.63 Y64.197
N000000882 G03 X265.943 Y63.44 I1.07 J0
N000000883 G01 X272.44 Y56.943
N000000884 G02 X272.83 Y56.003 I-0.94 J-0.94
N000000885 G01 X272.83 Y45.7
N000000886 G03 X273.9 Y44.63 I1.07 J0
N000000887 G01 X281.1 Y44.63
N000000888 G02 X282.43 Y43.3 I0 J-1.33
N000000889 G01 X282.43 Y33.2
N000000890 G03 X283.5 Y32.13 I1.07 J0
N000000891 G01 X291.8 Y32.13
N000000892 G02 X293.13 Y30.8 I0 J-1.33
N000000893 G804
N000000894 G40 G01 X293.13 Y30.8
N000000895 V.E.Par[17] = 293.13 V.E.Par[18] = 30.8
N000000896 V.E.Par[15] = -0.13 V.E.Par[16] = 30.8
N000000897 V.E.Par[82] = -0.13 V.E.Par[83] = 30.8
N000000898 M111 M101
N000000899 M60=4
N000000900 G81
N000000901 [100029] V.E.Kparams[2] = 1 V.E.Kparams[3] = 29
N000000902 V.E.Par[80] = -0.13 V.E.Par[81] = 30.8
N000000903 V.E.Par[82] = -0.13 V.E.Par[83] = 30.8
N000000904 M111 M101
N000000905 M60=4
N000000906 M60=6
N000000907 G812
N000000908 $IF V.E.Kparams[15] == 1 OR V.E.Kparams[15] == 2
N000000909 V.E.Par[17] = -0.13 V.E.Par[18] = 30.8
N000000910 V.E.Par[15] = 25.392 V.E.Par[16] = 49.908
N000000911 M111 M101
N000000912 G81
N000000913 G818
N000000914 $GOTO [100001]
N000000915 $ENDIF
N000000916 D2 G41
N000000917 G02 X1.2 Y32.13 I1.33 J0 FP70
N000000918 G01 X9.5 Y32.13
N000000919 G03 X10.57 Y33.2 I0 J1.07
N000000920 G01 X10.57 Y43.3
N000000921 G02 X11.9 Y44.63 I1.33 J0
N000000922 G01 X19.1 Y44.63
N000000923 G03 X20.17 Y45.7 I0 J1.07
N000000924 G01 X20.17 Y56.003
N000000925 G02 X20.56 Y56.943 I1.33 J0
N000000926 G01 X27.37 Y63.754
N000000927 G01 X27.37 Y92.503
N000000928 G02 X27.76 Y93.443 I1.33 J0
N000000929 G01 X86.557 Y152.24
N000000930 G02 X87.497 Y152.63 I0.94 J-0.94
N000000931 G01 X109.8 Y152.63
N000000932 G03 X110.87 Y153.7 I0 J1.07
N000000933 G01 X110.87 Y160.8
N000000934 G02 X112.2 Y162.13 I1.33 J0
N000000935 G804
N000000936 G40 D0
N000000937 G809
N000000938 G0 X0 Y0
N000000939 G53
N000000940 $IF V.E.Kparams[10] == 1
N000000941 G819
N000000942 $GOTO N000000001
N000000943 $ENDIF
N000000944 M30
