N000000001:( ******* LASER CUTTING MACHINE    ****** )
N000000002 ( *************************************** )
N000000003 ( DATE      : 22/06/2022  )
N000000004 ( MATERIAL    : Al99  )
N000000005 ( THICKNESS   : 0.8  )
N000000006 ( SHEET SIZE  : 180 x 115  )
N000000007 ( TOTAL TIME   : 00:02:23  )
N000000008 ( *************************************** )
N000000009 V.E.Par[55] = 180
N000000010 V.E.Par[56] = 115
N000000011 V.E.Par[46] = 0
N000000012 V.E.Par[47] = 0.8
N000000013 V.E.Par[48] = 0
N000000014 V.E.Par[49] = 1
N000000015 V.E.Par[50] = 9
N000000016 V.E.Par[130] = 0
N000000017 V.E.Par[131] = 0
N000000018 V.E.Par[287] = 0
N000000019 V.E.Par[288] = 1
N000000020 M40=0
N000000021 G810
N000000022 G808
N000000023 G54
N000000024 $IF V.E.Kparams[0] == 1
N000000025 M121
N000000026 $GOTO V.E.LineNumber
N000000027 $ENDIF
N000000028 ( ************** START ***************** )
N000000029 ;( PART NAME 1    :Pieza_prueba_Maxwell_2)
N000000030 [100002] V.E.Kparams[2] = 1 V.E.Kparams[3] = 2
N000000031 V.E.Par[80] = 27.92 V.E.Par[81] = 22.08
N000000032 V.E.Par[82] = 31.979 V.E.Par[83] = 18.021
N000000033 M111 M101
N000000034 G812
N000000035 $IF V.E.Kparams[15] == 1 OR V.E.Kparams[15] == 2
N000000036 V.E.Par[17] = 27.92 V.E.Par[18] = 22.08
N000000037 V.E.Par[15] = 27.92 V.E.Par[16] = 87.08
N000000038 M111 M101
N000000039 G81
N000000040 $GOTO [100002]
N000000041 $ENDIF
N000000042 $IF V.E.Par[78] == 0
N000000043 D1 G41
N000000044 G01 X27.92 Y22.08 FP60
N000000045 G03 X31.979 Y18.021 I2.03 J-2.03
N000000046 $IF V.E.Par[84] == 1
N000000047 M43
N000000048 $ENDIF
N000000049 $ENDIF
N000000050 G806
N000000051 D1 G41
N000000052 G03 X18.021 Y31.979 I-6.979 J6.979 FP70
N000000053 G03 X31.979 Y18.021 I6.979 J-6.979
N000000054 G804
N000000055 G40 G01 X31.979 Y18.021
N000000056 V.E.Par[17] = 31.979 V.E.Par[18] = 18.021
N000000057 V.E.Par[15] = 27.92 V.E.Par[16] = 87.08
N000000058 V.E.Par[82] = 31.979 V.E.Par[83] = 83.021
N000000059 M111 M101
N000000060 G81
N000000061 [100003] V.E.Kparams[2] = 1 V.E.Kparams[3] = 3
N000000062 V.E.Par[80] = 27.92 V.E.Par[81] = 87.08
N000000063 V.E.Par[82] = 31.979 V.E.Par[83] = 83.021
N000000064 M111 M101
N000000065 G812
N000000066 $IF V.E.Kparams[15] == 1 OR V.E.Kparams[15] == 2
N000000067 V.E.Par[17] = 27.92 V.E.Par[18] = 87.08
N000000068 V.E.Par[15] = 155.81 V.E.Par[16] = 56.318
N000000069 M111 M101
N000000070 G81
N000000071 $GOTO [100003]
N000000072 $ENDIF
N000000073 $IF V.E.Par[78] == 0
N000000074 D1 G41
N000000075 G01 X27.92 Y87.08 FP60
N000000076 G03 X31.979 Y83.021 I2.03 J-2.03
N000000077 $IF V.E.Par[84] == 1
N000000078 M43
N000000079 $ENDIF
N000000080 $ENDIF
N000000081 G806
N000000082 D1 G41
N000000083 G03 X18.021 Y96.979 I-6.979 J6.979 FP70
N000000084 G03 X31.979 Y83.021 I6.979 J-6.979
N000000085 G804
N000000086 G40 G01 X31.979 Y83.021
N000000087 V.E.Par[17] = 31.979 V.E.Par[18] = 83.021
N000000088 V.E.Par[15] = 155.81 V.E.Par[16] = 56.318
N000000089 V.E.Par[82] = 165.161 V.E.Par[83] = 58.227
N000000090 M111 M101
N000000091 G81
N000000092 [100004] V.E.Kparams[2] = 1 V.E.Kparams[3] = 4
N000000093 V.E.Par[80] = 155.81 V.E.Par[81] = 56.318
N000000094 V.E.Par[82] = 165.161 V.E.Par[83] = 58.227
N000000095 M111 M101
N000000096 G812
N000000097 $IF V.E.Kparams[15] == 1 OR V.E.Kparams[15] == 2
N000000098 V.E.Par[17] = 155.81 V.E.Par[18] = 56.318
N000000099 V.E.Par[15] = 157.92 V.E.Par[16] = 87.08
N000000100 M111 M101
N000000101 G81
N000000102 $GOTO [100004]
N000000103 $ENDIF
N000000104 $IF V.E.Par[78] == 0
N000000105 D1 G41
N000000106 G01 X155.81 Y56.318 FP60
N000000107 G03 X165.161 Y58.227 I4.481 J1.909
N000000108 $IF V.E.Par[84] == 1
N000000109 M43
N000000110 $ENDIF
N000000111 $ENDIF
N000000112 G806
N000000113 D1 G41
N000000114 G03 X155.291 Y68.097 I-9.87 J0 FP70
N000000115 G01 X127.334 Y68.097
N000000116 G02 X126.061 Y69.042 I0 J1.33
N000000117 G03 X101.106 Y93.998 I-35.77 J-10.815
N000000118 G02 X100.161 Y95.271 I0.385 J1.273
N000000119 G01 X100.161 Y103.169
N000000120 G03 X99.091 Y104.239 I-1.07 J0
N000000121 G01 X81.491 Y104.239
N000000122 G03 X80.421 Y103.169 I0 J-1.07
N000000123 G01 X80.421 Y95.271
N000000124 G02 X79.475 Y93.998 I-1.33 J0
N000000125 G03 X54.52 Y69.042 I10.816 J-35.771
N000000126 G02 X53.247 Y68.097 I-1.273 J0.385
N000000127 G01 X25.291 Y68.097
N000000128 G03 X25.291 Y48.357 I0 J-9.87
N000000129 G01 X53.247 Y48.357
N000000130 G02 X54.52 Y47.412 I0 J-1.33
N000000131 G03 X79.475 Y22.456 I35.771 J10.815
N000000132 G02 X80.421 Y21.183 I-0.384 J-1.273
N000000133 G01 X80.421 Y13.285
N000000134 G03 X81.491 Y12.215 I1.07 J0
N000000135 G01 X99.091 Y12.215
N000000136 G03 X100.161 Y13.285 I0 J1.07
N000000137 G01 X100.161 Y21.183
N000000138 G02 X101.106 Y22.456 I1.33 J0
N000000139 G03 X126.061 Y47.412 I-10.815 J35.771
N000000140 G02 X127.334 Y48.357 I1.273 J-0.385
N000000141 G01 X155.291 Y48.357
N000000142 G03 X165.161 Y58.227 I0 J9.87
N000000143 G804
N000000144 G40 G01 X165.161 Y58.227
N000000145 V.E.Par[17] = 165.161 V.E.Par[18] = 58.227
N000000146 V.E.Par[15] = 157.92 V.E.Par[16] = 87.08
N000000147 V.E.Par[82] = 161.979 V.E.Par[83] = 83.021
N000000148 M111 M101
N000000149 G81
N000000150 [100005] V.E.Kparams[2] = 1 V.E.Kparams[3] = 5
N000000151 V.E.Par[80] = 157.92 V.E.Par[81] = 87.08
N000000152 V.E.Par[82] = 161.979 V.E.Par[83] = 83.021
N000000153 M111 M101
N000000154 G812
N000000155 $IF V.E.Kparams[15] == 1 OR V.E.Kparams[15] == 2
N000000156 V.E.Par[17] = 157.92 V.E.Par[18] = 87.08
N000000157 V.E.Par[15] = 157.92 V.E.Par[16] = 22.08
N000000158 M111 M101
N000000159 G81
N000000160 $GOTO [100005]
N000000161 $ENDIF
N000000162 $IF V.E.Par[78] == 0
N000000163 D1 G41
N000000164 G01 X157.92 Y87.08 FP60
N000000165 G03 X161.979 Y83.021 I2.03 J-2.03
N000000166 $IF V.E.Par[84] == 1
N000000167 M43
N000000168 $ENDIF
N000000169 $ENDIF
N000000170 G806
N000000171 D1 G41
N000000172 G03 X148.021 Y96.979 I-6.979 J6.979 FP70
N000000173 G03 X161.979 Y83.021 I6.979 J-6.979
N000000174 G804
N000000175 G40 G01 X161.979 Y83.021
N000000176 V.E.Par[17] = 161.979 V.E.Par[18] = 83.021
N000000177 V.E.Par[15] = 157.92 V.E.Par[16] = 22.08
N000000178 V.E.Par[82] = 161.979 V.E.Par[83] = 18.021
N000000179 M111 M101
N000000180 G81
N000000181 [100006] V.E.Kparams[2] = 1 V.E.Kparams[3] = 6
N000000182 V.E.Par[80] = 157.92 V.E.Par[81] = 22.08
N000000183 V.E.Par[82] = 161.979 V.E.Par[83] = 18.021
N000000184 M111 M101
N000000185 G812
N000000186 $IF V.E.Kparams[15] == 1 OR V.E.Kparams[15] == 2
N000000187 V.E.Par[17] = 157.92 V.E.Par[18] = 22.08
N000000188 V.E.Par[15] = 155 V.E.Par[16] = 115.13
N000000189 M111 M101
N000000190 G81
N000000191 $GOTO [100006]
N000000192 $ENDIF
N000000193 $IF V.E.Par[78] == 0
N000000194 D1 G41
N000000195 G01 X157.92 Y22.08 FP60
N000000196 G03 X161.979 Y18.021 I2.03 J-2.03
N000000197 $IF V.E.Par[84] == 1
N000000198 M43
N000000199 $ENDIF
N000000200 $ENDIF
N000000201 G806
N000000202 D1 G41
N000000203 G03 X148.021 Y31.979 I-6.979 J6.979 FP70
N000000204 G03 X161.979 Y18.021 I6.979 J-6.979
N000000205 G804
N000000206 G40 G01 X161.979 Y18.021
N000000207 V.E.Par[17] = 161.979 V.E.Par[18] = 18.021
N000000208 V.E.Par[15] = 155 V.E.Par[16] = 115.13
N000000209 V.E.Par[82] = 155 V.E.Par[83] = 115.13
N000000210 M111 M101
N000000211 G81
N000000212 [100007] V.E.Kparams[2] = 1 V.E.Kparams[3] = 7
N000000213 V.E.Par[80] = 155 V.E.Par[81] = 115.13
N000000214 V.E.Par[82] = 155 V.E.Par[83] = 115.13
N000000215 M111 M101
N000000216 G812
N000000217 $IF V.E.Kparams[15] == 1 OR V.E.Kparams[15] == 2
N000000218 V.E.Par[17] = 155 V.E.Par[18] = 115.13
N000000219 V.E.Par[15] = 180.13 V.E.Par[16] = 25
N000000220 M111 M101
N000000221 G81
N000000222 $GOTO [100007]
N000000223 $ENDIF
N000000224 G02 X180.13 Y90 I0 J-25.13 FP70
N000000225 G804
N000000226 G40 G01 X180.13 Y90
N000000227 V.E.Par[17] = 180.13 V.E.Par[18] = 90
N000000228 V.E.Par[15] = 180.13 V.E.Par[16] = 25
N000000229 V.E.Par[82] = 180.13 V.E.Par[83] = 25
N000000230 M111 M101
N000000231 M60=4
N000000232 G81
N000000233 [100008] V.E.Kparams[2] = 1 V.E.Kparams[3] = 8
N000000234 V.E.Par[80] = 180.13 V.E.Par[81] = 25
N000000235 V.E.Par[82] = 180.13 V.E.Par[83] = 25
N000000236 M111 M101
N000000237 M60=4
N000000238 M60=6
N000000239 G812
N000000240 $IF V.E.Kparams[15] == 1 OR V.E.Kparams[15] == 2
N000000241 V.E.Par[17] = 180.13 V.E.Par[18] = 25
N000000242 V.E.Par[15] = 25 V.E.Par[16] = -0.13
N000000243 M111 M101
N000000244 G81
N000000245 $GOTO [100008]
N000000246 $ENDIF
N000000247 G02 X155 Y-0.13 I-25.13 J0 FP70
N000000248 G804
N000000249 G40 G01 X155 Y-0.13
N000000250 V.E.Par[17] = 155 V.E.Par[18] = -0.13
N000000251 V.E.Par[15] = 25 V.E.Par[16] = -0.13
N000000252 V.E.Par[82] = 25 V.E.Par[83] = -0.13
N000000253 M111 M101
N000000254 M60=4
N000000255 G81
N000000256 [100009] V.E.Kparams[2] = 1 V.E.Kparams[3] = 9
N000000257 V.E.Par[80] = 25 V.E.Par[81] = -0.13
N000000258 V.E.Par[82] = 25 V.E.Par[83] = -0.13
N000000259 M111 M101
N000000260 M60=4
N000000261 M60=6
N000000262 G812
N000000263 $IF V.E.Kparams[15] == 1 OR V.E.Kparams[15] == 2
N000000264 V.E.Par[17] = 25 V.E.Par[18] = -0.13
N000000265 V.E.Par[15] = -0.13 V.E.Par[16] = 90
N000000266 M111 M101
N000000267 G81
N000000268 $GOTO [100009]
N000000269 $ENDIF
N000000270 G02 X-0.13 Y25 I0 J25.13 FP70
N000000271 G804
N000000272 G40 G01 X-0.13 Y25
N000000273 V.E.Par[17] = -0.13 V.E.Par[18] = 25
N000000274 V.E.Par[15] = -0.13 V.E.Par[16] = 90
N000000275 V.E.Par[82] = -0.13 V.E.Par[83] = 90
N000000276 M111 M101
N000000277 M60=4
N000000278 G81
N000000279 [100010] V.E.Kparams[2] = 1 V.E.Kparams[3] = 10
N000000280 V.E.Par[80] = -0.13 V.E.Par[81] = 90
N000000281 V.E.Par[82] = -0.13 V.E.Par[83] = 90
N000000282 M111 M101
N000000283 M60=4
N000000284 M60=6
N000000285 G812
N000000286 $IF V.E.Kparams[15] == 1 OR V.E.Kparams[15] == 2
N000000287 V.E.Par[17] = -0.13 V.E.Par[18] = 90
N000000288 V.E.Par[15] = 27.92 V.E.Par[16] = 22.08
N000000289 M111 M101
N000000290 G81
N000000291 G818
N000000292 $GOTO [100001]
N000000293 $ENDIF
N000000294 G02 X25 Y115.13 I25.13 J0 FP70
N000000295 G804
N000000296 G40 D0
N000000297 G809
N000000298 G0 X0 Y0
N000000299 G53
N000000300 $IF V.E.Kparams[10] == 1
N000000301 G819
N000000302 $GOTO N000000001
N000000303 $ENDIF
N000000304 M30
