N000000001:( ******* LASER CUTTING MACHINE    ****** )
N000000002 ( *************************************** )
N000000003 ( DATE      : 22/06/2022  )
N000000004 ( MATERIAL    : Al99  )
N000000005 ( THICKNESS   : 0.8  )
N000000006 ( SHEET SIZE  : 301 x 170  )
N000000007 ( TOTAL TIME   : 00:00:49  )
N000000008 ( *************************************** )
N000000009 V.E.Par[55] = 301
N000000010 V.E.Par[56] = 170
N000000011 V.E.Par[46] = 0
N000000012 V.E.Par[47] = 0.8
N000000013 V.E.Par[48] = 0
N000000014 V.E.Par[49] = 1
N000000015 V.E.Par[50] = 22
N000000016 V.E.Par[130] = 0
N000000017 V.E.Par[131] = 0
N000000018 M40=0
N000000019 G810
N000000020 G808
N000000021 G54
N000000022 $IF V.E.Kparams[0] == 1
N000000023 M121
N000000024 $GOTO V.E.LineNumber
N000000025 $ENDIF
N000000026 ( ************** START ***************** )
N000000027 ;( PART NAME 1    :DXFPUNC0)
N000000028 [100002] V.E.Kparams[2] = 1 V.E.Kparams[3] = 2
N000000029 V.E.Par[80] = 29.39 V.E.Par[81] = 54.09
N000000030 V.E.Par[82] = 31.49 V.E.Par[83] = 51.99
N000000031 M111 M101
N000000032 G812
N000000033 $IF V.E.Kparams[15] == 1 OR V.E.Kparams[15] == 2
N000000034 V.E.Par[17] = 29.39 V.E.Par[18] = 54.09
N000000035 V.E.Par[15] = 46.69 V.E.Par[16] = 43.09
N000000036 M111 M101
N000000037 G81
N000000038 $GOTO [100002]
N000000039 $ENDIF
N000000040 $IF V.E.Par[78] == 0
N000000041 D1 G41
N000000042 G01 X31.49 Y51.99 FP60
N000000043 $IF V.E.Par[84] == 1
N000000044 M43
N000000045 $ENDIF
N000000046 $ENDIF
N000000047 D1 G41
N000000048 G03 X27.2 Y56.1 I-2.19 J2.01 FP70
N000000049 G03 X31.4 Y51.9 I2.1 J-2.1
N000000050 G804
N000000051 G40 G01 X31.4 Y51.9
N000000052 V.E.Par[17] = 31.4 V.E.Par[18] = 51.9
N000000053 V.E.Par[15] = 46.69 V.E.Par[16] = 43.09
N000000054 V.E.Par[82] = 48.19 V.E.Par[83] = 41.6
N000000055 M111 M101
N000000056 G81
N000000057 [100003] V.E.Kparams[2] = 1 V.E.Kparams[3] = 3
N000000058 V.E.Par[80] = 46.69 V.E.Par[81] = 43.09
N000000059 V.E.Par[82] = 48.19 V.E.Par[83] = 41.6
N000000060 M111 M101
N000000061 G812
N000000062 $IF V.E.Kparams[15] == 1 OR V.E.Kparams[15] == 2
N000000063 V.E.Par[17] = 46.69 V.E.Par[18] = 43.09
N000000064 V.E.Par[15] = 53.06 V.E.Par[16] = 63.66
N000000065 M111 M101
N000000066 G81
N000000067 $GOTO [100003]
N000000068 $ENDIF
N000000069 $IF V.E.Par[78] == 0
N000000070 D1 G41
N000000071 G01 X48.19 Y41.6 FP60
N000000072 $IF V.E.Par[84] == 1
N000000073 M43
N000000074 $ENDIF
N000000075 $ENDIF
N000000076 D1 G41
N000000077 G03 X45.1 Y44.5 I-1.59 J1.4 FP70
N000000078 G03 X48.1 Y41.5 I1.5 J-1.5
N000000079 G804
N000000080 G40 G01 X48.1 Y41.5
N000000081 V.E.Par[17] = 48.1 V.E.Par[18] = 41.5
N000000082 V.E.Par[15] = 53.06 V.E.Par[16] = 63.66
N000000083 V.E.Par[82] = 54.56 V.E.Par[83] = 62.17
N000000084 M111 M101
N000000085 G81
N000000086 [100004] V.E.Kparams[2] = 1 V.E.Kparams[3] = 4
N000000087 V.E.Par[80] = 53.06 V.E.Par[81] = 63.66
N000000088 V.E.Par[82] = 54.56 V.E.Par[83] = 62.17
N000000089 M111 M101
N000000090 G812
N000000091 $IF V.E.Kparams[15] == 1 OR V.E.Kparams[15] == 2
N000000092 V.E.Par[17] = 53.06 V.E.Par[18] = 63.66
N000000093 V.E.Par[15] = 63.13 V.E.Par[16] = 57.13
N000000094 M111 M101
N000000095 G81
N000000096 $GOTO [100004]
N000000097 $ENDIF
N000000098 $IF V.E.Par[78] == 0
N000000099 D1 G41
N000000100 G01 X54.56 Y62.17 FP60
N000000101 $IF V.E.Par[84] == 1
N000000102 M43
N000000103 $ENDIF
N000000104 $ENDIF
N000000105 D1 G41
N000000106 G03 X51.47 Y65.07 I-1.59 J1.4 FP70
N000000107 G03 X54.47 Y62.07 I1.5 J-1.5
N000000108 G804
N000000109 G40 G01 X54.47 Y62.07
N000000110 V.E.Par[17] = 54.47 V.E.Par[18] = 62.07
N000000111 V.E.Par[15] = 63.13 V.E.Par[16] = 57.13
N000000112 V.E.Par[82] = 64.16 V.E.Par[83] = 56.09
N000000113 M111 M101
N000000114 G81
N000000115 [100005] V.E.Kparams[2] = 1 V.E.Kparams[3] = 5
N000000116 V.E.Par[80] = 63.13 V.E.Par[81] = 57.13
N000000117 V.E.Par[82] = 64.16 V.E.Par[83] = 56.09
N000000118 M111 M101
N000000119 G812
N000000120 $IF V.E.Kparams[15] == 1 OR V.E.Kparams[15] == 2
N000000121 V.E.Par[17] = 63.13 V.E.Par[18] = 57.13
N000000122 V.E.Par[15] = 73.19 V.E.Par[16] = 50.59
N000000123 M111 M101
N000000124 G81
N000000125 $GOTO [100005]
N000000126 $ENDIF
N000000127 $IF V.E.Par[78] == 0
N000000128 D1 G41
N000000129 G01 X64.16 Y56.09 FP60
N000000130 $IF V.E.Par[84] == 1
N000000131 M43
N000000132 $ENDIF
N000000133 $ENDIF
N000000134 D1 G41
N000000135 G03 X62 Y58.07 I-1.13 J0.94 FP70
N000000136 G03 X64.07 Y56 I1.04 J-1.04
N000000137 G804
N000000138 G40 G01 X64.07 Y56
N000000139 V.E.Par[17] = 64.07 V.E.Par[18] = 56
N000000140 V.E.Par[15] = 73.19 V.E.Par[16] = 50.59
N000000141 V.E.Par[82] = 74.69 V.E.Par[83] = 49.1
N000000142 M111 M101
N000000143 G81
N000000144 [100006] V.E.Kparams[2] = 1 V.E.Kparams[3] = 6
N000000145 V.E.Par[80] = 73.19 V.E.Par[81] = 50.59
N000000146 V.E.Par[82] = 74.69 V.E.Par[83] = 49.1
N000000147 M111 M101
N000000148 G812
N000000149 $IF V.E.Kparams[15] == 1 OR V.E.Kparams[15] == 2
N000000150 V.E.Par[17] = 73.19 V.E.Par[18] = 50.59
N000000151 V.E.Par[15] = 83.27 V.E.Par[16] = 58.2
N000000152 M111 M101
N000000153 G81
N000000154 $GOTO [100006]
N000000155 $ENDIF
N000000156 $IF V.E.Par[78] == 0
N000000157 D1 G41
N000000158 G01 X74.69 Y49.1 FP60
N000000159 $IF V.E.Par[84] == 1
N000000160 M43
N000000161 $ENDIF
N000000162 $ENDIF
N000000163 D1 G41
N000000164 G03 X71.6 Y52 I-1.59 J1.4 FP70
N000000165 G03 X74.6 Y49 I1.5 J-1.5
N000000166 G804
N000000167 G40 G01 X74.6 Y49
N000000168 V.E.Par[17] = 74.6 V.E.Par[18] = 49
N000000169 V.E.Par[15] = 83.27 V.E.Par[16] = 58.2
N000000170 V.E.Par[82] = 81.16 V.E.Par[83] = 54.96
N000000171 M111 M101
N000000172 G81
N000000173 [100007] V.E.Kparams[2] = 1 V.E.Kparams[3] = 7
N000000174 V.E.Par[80] = 83.27 V.E.Par[81] = 58.2
N000000175 V.E.Par[82] = 81.16 V.E.Par[83] = 54.96
N000000176 M111 M101
N000000177 G812
N000000178 $IF V.E.Kparams[15] == 1 OR V.E.Kparams[15] == 2
N000000179 V.E.Par[17] = 83.27 V.E.Par[18] = 58.2
N000000180 V.E.Par[15] = 93.69 V.E.Par[16] = 43.09
N000000181 M111 M101
N000000182 G81
N000000183 $GOTO [100007]
N000000184 $ENDIF
N000000185 $IF V.E.Par[78] == 0
N000000186 D1 G41
N000000187 G01 X81.16 Y54.96 FP60
N000000188 $IF V.E.Par[84] == 1
N000000189 M43
N000000190 $ENDIF
N000000191 $ENDIF
N000000192 D1 G41
N000000193 G03 X86.36 Y63.2 I2.54 J4.15 FP70
N000000194 G01 X59.1 Y80.9
N000000195 G03 X53.8 Y72.73 I-2.65 J-4.08
N000000196 G01 X81.05 Y55.03
N000000197 G804
N000000198 G40 G01 X81.05 Y55.03
N000000199 V.E.Par[17] = 81.05 V.E.Par[18] = 55.03
N000000200 V.E.Par[15] = 93.69 V.E.Par[16] = 43.09
N000000201 V.E.Par[82] = 95.19 V.E.Par[83] = 41.6
N000000202 M111 M101
N000000203 G81
N000000204 [100008] V.E.Kparams[2] = 1 V.E.Kparams[3] = 8
N000000205 V.E.Par[80] = 93.69 V.E.Par[81] = 43.09
N000000206 V.E.Par[82] = 95.19 V.E.Par[83] = 41.6
N000000207 M111 M101
N000000208 G812
N000000209 $IF V.E.Kparams[15] == 1 OR V.E.Kparams[15] == 2
N000000210 V.E.Par[17] = 93.69 V.E.Par[18] = 43.09
N000000211 V.E.Par[15] = 99.13 V.E.Par[16] = 82.3
N000000212 M111 M101
N000000213 G81
N000000214 $GOTO [100008]
N000000215 $ENDIF
N000000216 $IF V.E.Par[78] == 0
N000000217 D1 G41
N000000218 G01 X95.19 Y41.6 FP60
N000000219 $IF V.E.Par[84] == 1
N000000220 M43
N000000221 $ENDIF
N000000222 $ENDIF
N000000223 D1 G41
N000000224 G03 X92.1 Y44.5 I-1.59 J1.4 FP70
N000000225 G03 X95.1 Y41.5 I1.5 J-1.5
N000000226 G804
N000000227 G40 G01 X95.1 Y41.5
N000000228 V.E.Par[17] = 95.1 V.E.Par[18] = 41.5
N000000229 V.E.Par[15] = 99.13 V.E.Par[16] = 82.3
N000000230 V.E.Par[82] = 99.13 V.E.Par[83] = 78.43
N000000231 M111 M101
N000000232 G81
N000000233 [100009] V.E.Kparams[2] = 1 V.E.Kparams[3] = 9
N000000234 V.E.Par[80] = 99.13 V.E.Par[81] = 82.3
N000000235 V.E.Par[82] = 99.13 V.E.Par[83] = 78.43
N000000236 M111 M101
N000000237 G812
N000000238 $IF V.E.Kparams[15] == 1 OR V.E.Kparams[15] == 2
N000000239 V.E.Par[17] = 99.13 V.E.Par[18] = 82.3
N000000240 V.E.Par[15] = 68.14 V.E.Par[16] = 117.51
N000000241 M111 M101
N000000242 G81
N000000243 $GOTO [100009]
N000000244 $ENDIF
N000000245 $IF V.E.Par[78] == 0
N000000246 D1 G41
N000000247 G01 X99.13 Y78.43 FP60
N000000248 $IF V.E.Par[84] == 1
N000000249 M43
N000000250 $ENDIF
N000000251 $ENDIF
N000000252 D1 G41
N000000253 G01 X102.12 Y78.43 FP70
N000000254 G01 X102.12 Y88.17
N000000255 G01 X95.88 Y88.17
N000000256 G01 X95.88 Y78.43
N000000257 G01 X99 Y78.43
N000000258 G804
N000000259 G40 G01 X99 Y78.43
N000000260 V.E.Par[17] = 99 V.E.Par[18] = 78.43
N000000261 V.E.Par[15] = 68.14 V.E.Par[16] = 117.51
N000000262 V.E.Par[82] = 68.33 V.E.Par[83] = 117.32
N000000263 M111 M101
N000000264 G81
N000000265 [100010] V.E.Kparams[2] = 1 V.E.Kparams[3] = 10
N000000266 V.E.Par[80] = 68.14 V.E.Par[81] = 117.51
N000000267 V.E.Par[82] = 68.33 V.E.Par[83] = 117.32
N000000268 M111 M101
N000000269 G812
N000000270 $IF V.E.Kparams[15] == 1 OR V.E.Kparams[15] == 2
N000000271 V.E.Par[17] = 68.14 V.E.Par[18] = 117.51
N000000272 V.E.Par[15] = 36.59 V.E.Par[16] = 81.59
N000000273 M111 M101
N000000274 G81
N000000275 $GOTO [100010]
N000000276 $ENDIF
N000000277 $IF V.E.Par[78] == 0
N000000278 D1 G41
N000000279 G01 X68.33 Y117.32 FP60
N000000280 $IF V.E.Par[84] == 1
N000000281 M43
N000000282 $ENDIF
N000000283 $ENDIF
N000000284 D1 G41
N000000285 G01 X72.98 Y121.97 FP70
N000000286 G03 X72.6 Y122.35 I-0.19 J0.19
N000000287 G01 X67.86 Y117.61
N000000288 G03 X68.24 Y117.23 I0.19 J-0.19
N000000289 G804
N000000290 G40 G01 X68.24 Y117.23
N000000291 V.E.Par[17] = 68.24 V.E.Par[18] = 117.23
N000000292 V.E.Par[15] = 36.59 V.E.Par[16] = 81.59
N000000293 V.E.Par[82] = 38.69 V.E.Par[83] = 79.49
N000000294 M111 M101
N000000295 G81
N000000296 [100011] V.E.Kparams[2] = 1 V.E.Kparams[3] = 11
N000000297 V.E.Par[80] = 36.59 V.E.Par[81] = 81.59
N000000298 V.E.Par[82] = 38.69 V.E.Par[83] = 79.49
N000000299 M111 M101
N000000300 G812
N000000301 $IF V.E.Kparams[15] == 1 OR V.E.Kparams[15] == 2
N000000302 V.E.Par[17] = 36.59 V.E.Par[18] = 81.59
N000000303 V.E.Par[15] = 110.59 V.E.Par[16] = 152.09
N000000304 M111 M101
N000000305 G81
N000000306 $GOTO [100011]
N000000307 $ENDIF
N000000308 $IF V.E.Par[78] == 0
N000000309 D1 G41
N000000310 G01 X38.69 Y79.49 FP60
N000000311 $IF V.E.Par[84] == 1
N000000312 M43
N000000313 $ENDIF
N000000314 $ENDIF
N000000315 D1 G41
N000000316 G03 X34.4 Y83.6 I-2.19 J2.01 FP70
N000000317 G03 X38.6 Y79.4 I2.1 J-2.1
N000000318 G804
N000000319 G40 G01 X38.6 Y79.4
N000000320 V.E.Par[17] = 38.6 V.E.Par[18] = 79.4
N000000321 V.E.Par[15] = 110.59 V.E.Par[16] = 152.09
N000000322 V.E.Par[82] = 111.73 V.E.Par[83] = 150.95
N000000323 M111 M101
N000000324 G81
N000000325 [100012] V.E.Kparams[2] = 1 V.E.Kparams[3] = 12
N000000326 V.E.Par[80] = 110.59 V.E.Par[81] = 152.09
N000000327 V.E.Par[82] = 111.73 V.E.Par[83] = 150.95
N000000328 M111 M101
N000000329 G812
N000000330 $IF V.E.Kparams[15] == 1 OR V.E.Kparams[15] == 2
N000000331 V.E.Par[17] = 110.59 V.E.Par[18] = 152.09
N000000332 V.E.Par[15] = 153.98 V.E.Par[16] = 152.96
N000000333 M111 M101
N000000334 G81
N000000335 $GOTO [100012]
N000000336 $ENDIF
N000000337 $IF V.E.Par[78] == 0
N000000338 D1 G41
N000000339 G01 X111.73 Y150.95 FP60
N000000340 $IF V.E.Par[84] == 1
N000000341 M43
N000000342 $ENDIF
N000000343 $ENDIF
N000000344 D1 G41
N000000345 G03 X109.35 Y153.15 I-1.23 J1.05 FP70
N000000346 G03 X111.65 Y150.85 I1.15 J-1.15
N000000347 G804
N000000348 G40 G01 X111.65 Y150.85
N000000349 V.E.Par[17] = 111.65 V.E.Par[18] = 150.85
N000000350 V.E.Par[15] = 153.98 V.E.Par[16] = 152.96
N000000351 V.E.Par[82] = 153.98 V.E.Par[83] = 152.72
N000000352 M111 M101
N000000353 G81
N000000354 [100013] V.E.Kparams[2] = 1 V.E.Kparams[3] = 13
N000000355 V.E.Par[80] = 153.98 V.E.Par[81] = 152.96
N000000356 V.E.Par[82] = 153.98 V.E.Par[83] = 152.72
N000000357 M111 M101
N000000358 G812
N000000359 $IF V.E.Kparams[15] == 1 OR V.E.Kparams[15] == 2
N000000360 V.E.Par[17] = 153.98 V.E.Par[18] = 152.96
N000000361 V.E.Par[15] = 190.59 V.E.Par[16] = 152.09
N000000362 M111 M101
N000000363 G81
N000000364 $GOTO [100013]
N000000365 $ENDIF
N000000366 $IF V.E.Par[78] == 0
N000000367 D1 G41
N000000368 G01 X153.98 Y152.72 FP60
N000000369 $IF V.E.Par[84] == 1
N000000370 M43
N000000371 $ENDIF
N000000372 $ENDIF
N000000373 D1 G41
N000000374 G03 X153.85 Y153.23 I-0.13 J0.24 FP70
N000000375 G01 X147.15 Y153.23
N000000376 G03 X147.15 Y152.69 I0 J-0.27
N000000377 G01 X153.85 Y152.69
N000000378 G804
N000000379 G40 G01 X153.85 Y152.69
N000000380 V.E.Par[17] = 153.85 V.E.Par[18] = 152.69
N000000381 V.E.Par[15] = 190.59 V.E.Par[16] = 152.09
N000000382 V.E.Par[82] = 191.73 V.E.Par[83] = 150.95
N000000383 M111 M101
N000000384 G81
N000000385 [100014] V.E.Kparams[2] = 1 V.E.Kparams[3] = 14
N000000386 V.E.Par[80] = 190.59 V.E.Par[81] = 152.09
N000000387 V.E.Par[82] = 191.73 V.E.Par[83] = 150.95
N000000388 M111 M101
N000000389 G812
N000000390 $IF V.E.Kparams[15] == 1 OR V.E.Kparams[15] == 2
N000000391 V.E.Par[17] = 190.59 V.E.Par[18] = 152.09
N000000392 V.E.Par[15] = 233.04 V.E.Par[16] = 117.33
N000000393 M111 M101
N000000394 G81
N000000395 $GOTO [100014]
N000000396 $ENDIF
N000000397 $IF V.E.Par[78] == 0
N000000398 D1 G41
N000000399 G01 X191.73 Y150.95 FP60
N000000400 $IF V.E.Par[84] == 1
N000000401 M43
N000000402 $ENDIF
N000000403 $ENDIF
N000000404 D1 G41
N000000405 G03 X189.35 Y153.15 I-1.23 J1.05 FP70
N000000406 G03 X191.65 Y150.85 I1.15 J-1.15
N000000407 G804
N000000408 G40 G01 X191.65 Y150.85
N000000409 V.E.Par[17] = 191.65 V.E.Par[18] = 150.85
N000000410 V.E.Par[15] = 233.04 V.E.Par[16] = 117.33
N000000411 V.E.Par[82] = 232.87 V.E.Par[83] = 117.16
N000000412 M111 M101
N000000413 G81
N000000414 [100015] V.E.Kparams[2] = 1 V.E.Kparams[3] = 15
N000000415 V.E.Par[80] = 233.04 V.E.Par[81] = 117.33
N000000416 V.E.Par[82] = 232.87 V.E.Par[83] = 117.16
N000000417 M111 M101
N000000418 G812
N000000419 $IF V.E.Kparams[15] == 1 OR V.E.Kparams[15] == 2
N000000420 V.E.Par[17] = 233.04 V.E.Par[18] = 117.33
N000000421 V.E.Par[15] = 202.13 V.E.Par[16] = 82.3
N000000422 M111 M101
N000000423 G81
N000000424 $GOTO [100015]
N000000425 $ENDIF
N000000426 $IF V.E.Par[78] == 0
N000000427 D1 G41
N000000428 G01 X232.87 Y117.16 FP60
N000000429 $IF V.E.Par[84] == 1
N000000430 M43
N000000431 $ENDIF
N000000432 $ENDIF
N000000433 D1 G41
N000000434 G03 X233.14 Y117.61 I0.08 J0.26 FP70
N000000435 G01 X228.4 Y122.35
N000000436 G03 X228.02 Y121.97 I-0.19 J-0.19
N000000437 G01 X232.76 Y117.23
N000000438 G804
N000000439 G40 G01 X232.76 Y117.23
N000000440 V.E.Par[17] = 232.76 V.E.Par[18] = 117.23
N000000441 V.E.Par[15] = 202.13 V.E.Par[16] = 82.3
N000000442 V.E.Par[82] = 202.13 V.E.Par[83] = 78.43
N000000443 M111 M101
N000000444 G81
N000000445 [100016] V.E.Kparams[2] = 1 V.E.Kparams[3] = 16
N000000446 V.E.Par[80] = 202.13 V.E.Par[81] = 82.3
N000000447 V.E.Par[82] = 202.13 V.E.Par[83] = 78.43
N000000448 M111 M101
N000000449 G812
N000000450 $IF V.E.Kparams[15] == 1 OR V.E.Kparams[15] == 2
N000000451 V.E.Par[17] = 202.13 V.E.Par[18] = 82.3
N000000452 V.E.Par[15] = 264.59 V.E.Par[16] = 81.59
N000000453 M111 M101
N000000454 G81
N000000455 $GOTO [100016]
N000000456 $ENDIF
N000000457 $IF V.E.Par[78] == 0
N000000458 D1 G41
N000000459 G01 X202.13 Y78.43 FP60
N000000460 $IF V.E.Par[84] == 1
N000000461 M43
N000000462 $ENDIF
N000000463 $ENDIF
N000000464 D1 G41
N000000465 G01 X205.12 Y78.43 FP70
N000000466 G01 X205.12 Y88.17
N000000467 G01 X198.88 Y88.17
N000000468 G01 X198.88 Y78.43
N000000469 G01 X202 Y78.43
N000000470 G804
N000000471 G40 G01 X202 Y78.43
N000000472 V.E.Par[17] = 202 V.E.Par[18] = 78.43
N000000473 V.E.Par[15] = 264.59 V.E.Par[16] = 81.59
N000000474 V.E.Par[82] = 266.69 V.E.Par[83] = 79.49
N000000475 M111 M101
N000000476 G81
N000000477 [100017] V.E.Kparams[2] = 1 V.E.Kparams[3] = 17
N000000478 V.E.Par[80] = 264.59 V.E.Par[81] = 81.59
N000000479 V.E.Par[82] = 266.69 V.E.Par[83] = 79.49
N000000480 M111 M101
N000000481 G812
N000000482 $IF V.E.Kparams[15] == 1 OR V.E.Kparams[15] == 2
N000000483 V.E.Par[17] = 264.59 V.E.Par[18] = 81.59
N000000484 V.E.Par[15] = 271.79 V.E.Par[16] = 54.09
N000000485 M111 M101
N000000486 G81
N000000487 $GOTO [100017]
N000000488 $ENDIF
N000000489 $IF V.E.Par[78] == 0
N000000490 D1 G41
N000000491 G01 X266.69 Y79.49 FP60
N000000492 $IF V.E.Par[84] == 1
N000000493 M43
N000000494 $ENDIF
N000000495 $ENDIF
N000000496 D1 G41
N000000497 G03 X262.4 Y83.6 I-2.19 J2.01 FP70
N000000498 G03 X266.6 Y79.4 I2.1 J-2.1
N000000499 G804
N000000500 G40 G01 X266.6 Y79.4
N000000501 V.E.Par[17] = 266.6 V.E.Par[18] = 79.4
N000000502 V.E.Par[15] = 271.79 V.E.Par[16] = 54.09
N000000503 V.E.Par[82] = 273.89 V.E.Par[83] = 51.99
N000000504 M111 M101
N000000505 G81
N000000506 [100018] V.E.Kparams[2] = 1 V.E.Kparams[3] = 18
N000000507 V.E.Par[80] = 271.79 V.E.Par[81] = 54.09
N000000508 V.E.Par[82] = 273.89 V.E.Par[83] = 51.99
N000000509 M111 M101
N000000510 G812
N000000511 $IF V.E.Kparams[15] == 1 OR V.E.Kparams[15] == 2
N000000512 V.E.Par[17] = 271.79 V.E.Par[18] = 54.09
N000000513 V.E.Par[15] = 218.69 V.E.Par[16] = 14.09
N000000514 M111 M101
N000000515 G81
N000000516 $GOTO [100018]
N000000517 $ENDIF
N000000518 $IF V.E.Par[78] == 0
N000000519 D1 G41
N000000520 G01 X273.89 Y51.99 FP60
N000000521 $IF V.E.Par[84] == 1
N000000522 M43
N000000523 $ENDIF
N000000524 $ENDIF
N000000525 D1 G41
N000000526 G03 X269.6 Y56.1 I-2.19 J2.01 FP70
N000000527 G03 X273.8 Y51.9 I2.1 J-2.1
N000000528 G804
N000000529 G40 G01 X273.8 Y51.9
N000000530 V.E.Par[17] = 273.8 V.E.Par[18] = 51.9
N000000531 V.E.Par[15] = 218.69 V.E.Par[16] = 14.09
N000000532 V.E.Par[82] = 219.3 V.E.Par[83] = 13.48
N000000533 M111 M101
N000000534 G81
N000000535 [100019] V.E.Kparams[2] = 1 V.E.Kparams[3] = 19
N000000536 V.E.Par[80] = 218.69 V.E.Par[81] = 14.09
N000000537 V.E.Par[82] = 219.3 V.E.Par[83] = 13.48
N000000538 M111 M101
N000000539 G812
N000000540 $IF V.E.Kparams[15] == 1 OR V.E.Kparams[15] == 2
N000000541 V.E.Par[17] = 218.69 V.E.Par[18] = 14.09
N000000542 V.E.Par[15] = 215.29 V.E.Par[16] = 14.09
N000000543 M111 M101
N000000544 G81
N000000545 $GOTO [100019]
N000000546 $ENDIF
N000000547 $IF V.E.Par[78] == 0
N000000548 D1 G41
N000000549 G01 X219.3 Y13.48 FP60
N000000550 $IF V.E.Par[84] == 1
N000000551 M43
N000000552 $ENDIF
N000000553 $ENDIF
N000000554 D1 G41
N000000555 G03 X217.98 Y14.61 I-0.7 J0.52 FP70
N000000556 G03 X219.21 Y13.38 I0.61 J-0.62
N000000557 G804
N000000558 G40 G01 X219.21 Y13.38
N000000559 V.E.Par[17] = 219.21 V.E.Par[18] = 13.38
N000000560 V.E.Par[15] = 215.29 V.E.Par[16] = 14.09
N000000561 V.E.Par[82] = 215.9 V.E.Par[83] = 13.48
N000000562 M111 M101
N000000563 G81
N000000564 [100020] V.E.Kparams[2] = 1 V.E.Kparams[3] = 20
N000000565 V.E.Par[80] = 215.29 V.E.Par[81] = 14.09
N000000566 V.E.Par[82] = 215.9 V.E.Par[83] = 13.48
N000000567 M111 M101
N000000568 G812
N000000569 $IF V.E.Kparams[15] == 1 OR V.E.Kparams[15] == 2
N000000570 V.E.Par[17] = 215.29 V.E.Par[18] = 14.09
N000000571 V.E.Par[15] = 211.89 V.E.Par[16] = 14.09
N000000572 M111 M101
N000000573 G81
N000000574 $GOTO [100020]
N000000575 $ENDIF
N000000576 $IF V.E.Par[78] == 0
N000000577 D1 G41
N000000578 G01 X215.9 Y13.48 FP60
N000000579 $IF V.E.Par[84] == 1
N000000580 M43
N000000581 $ENDIF
N000000582 $ENDIF
N000000583 D1 G41
N000000584 G03 X214.58 Y14.61 I-0.7 J0.52 FP70
N000000585 G03 X215.81 Y13.38 I0.62 J-0.62
N000000586 G804
N000000587 G40 G01 X215.81 Y13.38
N000000588 V.E.Par[17] = 215.81 V.E.Par[18] = 13.38
N000000589 V.E.Par[15] = 211.89 V.E.Par[16] = 14.09
N000000590 V.E.Par[82] = 212.5 V.E.Par[83] = 13.48
N000000591 M111 M101
N000000592 G81
N000000593 [100021] V.E.Kparams[2] = 1 V.E.Kparams[3] = 21
N000000594 V.E.Par[80] = 211.89 V.E.Par[81] = 14.09
N000000595 V.E.Par[82] = 212.5 V.E.Par[83] = 13.48
N000000596 M111 M101
N000000597 G812
N000000598 $IF V.E.Kparams[15] == 1 OR V.E.Kparams[15] == 2
N000000599 V.E.Par[17] = 211.89 V.E.Par[18] = 14.09
N000000600 V.E.Par[15] = 208.49 V.E.Par[16] = 14.09
N000000601 M111 M101
N000000602 G81
N000000603 $GOTO [100021]
N000000604 $ENDIF
N000000605 $IF V.E.Par[78] == 0
N000000606 D1 G41
N000000607 G01 X212.5 Y13.48 FP60
N000000608 $IF V.E.Par[84] == 1
N000000609 M43
N000000610 $ENDIF
N000000611 $ENDIF
N000000612 D1 G41
N000000613 G03 X211.18 Y14.61 I-0.7 J0.52 FP70
N000000614 G03 X212.41 Y13.38 I0.62 J-0.62
N000000615 G804
N000000616 G40 G01 X212.41 Y13.38
N000000617 V.E.Par[17] = 212.41 V.E.Par[18] = 13.38
N000000618 V.E.Par[15] = 208.49 V.E.Par[16] = 14.09
N000000619 V.E.Par[82] = 209.1 V.E.Par[83] = 13.48
N000000620 M111 M101
N000000621 G81
N000000622 [100022] V.E.Kparams[2] = 1 V.E.Kparams[3] = 22
N000000623 V.E.Par[80] = 208.49 V.E.Par[81] = 14.09
N000000624 V.E.Par[82] = 209.1 V.E.Par[83] = 13.48
N000000625 M111 M101
N000000626 G812
N000000627 $IF V.E.Kparams[15] == 1 OR V.E.Kparams[15] == 2
N000000628 V.E.Par[17] = 208.49 V.E.Par[18] = 14.09
N000000629 V.E.Par[15] = 291.5 V.E.Par[16] = 6.37
N000000630 M111 M101
N000000631 G81
N000000632 $GOTO [100022]
N000000633 $ENDIF
N000000634 $IF V.E.Par[78] == 0
N000000635 D1 G41
N000000636 G01 X209.1 Y13.48 FP60
N000000637 $IF V.E.Par[84] == 1
N000000638 M43
N000000639 $ENDIF
N000000640 $ENDIF
N000000641 D1 G41
N000000642 G03 X207.78 Y14.61 I-0.7 J0.52 FP70
N000000643 G03 X209.01 Y13.38 I0.62 J-0.62
N000000644 G804
N000000645 G40 G01 X209.01 Y13.38
N000000646 V.E.Par[17] = 209.01 V.E.Par[18] = 13.38
N000000647 V.E.Par[15] = 291.5 V.E.Par[16] = 6.37
N000000648 V.E.Par[82] = 287.5 V.E.Par[83] = 6.37
N000000649 M111 M101
N000000650 G81
N000000651 [100023] V.E.Kparams[2] = 1 V.E.Kparams[3] = 23
N000000652 V.E.Par[80] = 291.5 V.E.Par[81] = 6.37
N000000653 V.E.Par[82] = 287.5 V.E.Par[83] = 6.37
N000000654 M111 M101
N000000655 G812
N000000656 $IF V.E.Kparams[15] == 1 OR V.E.Kparams[15] == 2
N000000657 V.E.Par[17] = 291.5 V.E.Par[18] = 6.37
N000000658 V.E.Par[15] = 29.39 V.E.Par[16] = 54.09
N000000659 M111 M101
N000000660 G81
N000000661 G818
N000000662 $GOTO [100001]
N000000663 $ENDIF
N000000664 $IF V.E.Par[78] == 0
N000000665 D2 G41
N000000666 G01 X287.5 Y6.37 FP60
N000000667 $IF V.E.Par[84] == 1
N000000668 M43
N000000669 $ENDIF
N000000670 $ENDIF
N000000671 D2 G41
N000000672 G01 X276.83 Y6.37 FP70
N000000673 G01 X276.83 Y3.87
N000000674 G01 X226.37 Y3.87
N000000675 G01 X226.37 Y13.87
N000000676 G01 X220.13 Y13.87
N000000677 G01 X220.13 Y3.87
N000000678 G01 X206.87 Y3.87
N000000679 G01 X206.87 Y13.87
N000000680 G01 X200.63 Y13.87
N000000681 G01 X200.63 Y3.87
N000000682 G01 X99.87 Y3.87
N000000683 G01 X99.87 Y15.87
N000000684 G01 X40.13 Y15.87
N000000685 G01 X40.13 Y3.87
N000000686 G01 X24.17 Y3.87
N000000687 G01 X24.17 Y6.37
N000000688 G01 X13.37 Y6.37
N000000689 G01 X13.37 Y19.37
N000000690 G01 X3.87 Y19.37
N000000691 G01 X3.87 Y36.13
N000000692 G01 X14.57 Y36.13
N000000693 G01 X14.57 Y48.63
N000000694 G01 X24.17 Y48.63
N000000695 G01 X24.17 Y60.55
N000000696 G01 X31.37 Y67.75
N000000697 G01 X31.37 Y97.05
N000000698 G01 X90.95 Y156.63
N000000699 G01 X114.87 Y156.63
N000000700 G01 X114.87 Y166.13
N000000701 G01 X186.13 Y166.13
N000000702 G01 X186.13 Y156.63
N000000703 G01 X210.05 Y156.63
N000000704 G01 X269.63 Y97.05
N000000705 G01 X269.63 Y67.75
N000000706 G01 X276.83 Y60.55
N000000707 G01 X276.83 Y48.63
N000000708 G01 X286.43 Y48.63
N000000709 G01 X286.43 Y36.13
N000000710 G01 X297.13 Y36.13
N000000711 G01 X297.13 Y19.37
N000000712 G01 X287.63 Y19.37
N000000713 G01 X287.63 Y6.5
N000000714 G01 X287.63 Y4.5
N000000715 G804
N000000716 G40 D0
N000000717 G809
N000000718 G0 X0 Y0
N000000719 G53
N000000720 $IF V.E.Kparams[10] == 1
N000000721 G819
N000000722 $GOTO N000000001
N000000723 $ENDIF
N000000724 M30
