N000000001:( ******* LASER CUTTING MACHINE    ****** )
N000000002 ( *************************************** )
N000000003 ( DATE      : 22/06/2022  )
N000000004 ( MATERIAL    : Al99  )
N000000005 ( THICKNESS   : 0.8  )
N000000006 ( SHEET SIZE  : 217.63 x 150.62  )
N000000007 ( TOTAL TIME   : 00:00:21  )
N000000008 ( *************************************** )
N000000009 V.E.Par[55] = 217.63
N000000010 V.E.Par[56] = 150.62
N000000011 V.E.Par[46] = 0
N000000012 V.E.Par[47] = 0.8
N000000013 V.E.Par[48] = 0
N000000014 V.E.Par[49] = 1
N000000015 V.E.Par[50] = 9
N000000016 V.E.Par[130] = 0
N000000017 V.E.Par[131] = 0
N000000018 M40=0
N000000019 G810
N000000020 G808
N000000021 G54
N000000022 $IF V.E.Kparams[0] == 1
N000000023 M121
N000000024 $GOTO V.E.LineNumber
N000000025 $ENDIF
N000000026 ( ************** START ***************** )
N000000027 ;( PART NAME 1    :DXFPAR0105)
N000000028 [100002] V.E.Kparams[2] = 1 V.E.Kparams[3] = 2
N000000029 V.E.Par[80] = 80.94 V.E.Par[81] = 115
N000000030 V.E.Par[82] = 84.44 V.E.Par[83] = 113.37
N000000031 M111 M101
N000000032 G812
N000000033 $IF V.E.Kparams[15] == 1 OR V.E.Kparams[15] == 2
N000000034 V.E.Par[17] = 80.94 V.E.Par[18] = 115
N000000035 V.E.Par[15] = 139.48 V.E.Par[16] = 98.33
N000000036 M111 M101
N000000037 G81
N000000038 $GOTO [100002]
N000000039 $ENDIF
N000000040 $IF V.E.Par[78] == 0
N000000041 D1 G41
N000000042 G01 X84.44 Y113.37 FP60
N000000043 $IF V.E.Par[84] == 1
N000000044 M43
N000000045 $ENDIF
N000000046 $ENDIF
N000000047 D1 G41
N000000048 G03 X81.79 Y120.39 I-4.92 J2.15 FP70
N000000049 G03 X19.92 Y131.3 I-51.29 J-110
N000000050 G03 X20.86 Y120.6 I0.47 J-5.35
N000000051 G02 X77.25 Y110.65 I9.64 J-110.21
N000000052 G03 X84.39 Y113.25 I2.27 J4.87
N000000053 G804
N000000054 G40 G01 X84.39 Y113.25
N000000055 V.E.Par[17] = 84.39 V.E.Par[18] = 113.25
N000000056 V.E.Par[15] = 139.48 V.E.Par[16] = 98.33
N000000057 V.E.Par[82] = 142.22 V.E.Par[83] = 95.6
N000000058 M111 M101
N000000059 G81
N000000060 [100003] V.E.Kparams[2] = 1 V.E.Kparams[3] = 3
N000000061 V.E.Par[80] = 139.48 V.E.Par[81] = 98.33
N000000062 V.E.Par[82] = 142.22 V.E.Par[83] = 95.6
N000000063 M111 M101
N000000064 G812
N000000065 $IF V.E.Kparams[15] == 1 OR V.E.Kparams[15] == 2
N000000066 V.E.Par[17] = 139.48 V.E.Par[18] = 98.33
N000000067 V.E.Par[15] = 150.95 V.E.Par[16] = 81.95
N000000068 M111 M101
N000000069 G81
N000000070 $GOTO [100003]
N000000071 $ENDIF
N000000072 $IF V.E.Par[78] == 0
N000000073 D1 G41
N000000074 G01 X142.21 Y95.6 FP60
N000000075 $IF V.E.Par[84] == 1
N000000076 M43
N000000077 $ENDIF
N000000078 $ENDIF
N000000079 D1 G41
N000000080 G03 X135.94 Y101.68 I-3.18 J3 FP70
N000000081 G03 X142.12 Y95.5 I3.09 J-3.09
N000000082 G804
N000000083 G40 G01 X142.12 Y95.5
N000000084 V.E.Par[17] = 142.12 V.E.Par[18] = 95.5
N000000085 V.E.Par[15] = 150.95 V.E.Par[16] = 81.95
N000000086 V.E.Par[82] = 153.69 V.E.Par[83] = 79.22
N000000087 M111 M101
N000000088 G81
N000000089 [100004] V.E.Kparams[2] = 1 V.E.Kparams[3] = 4
N000000090 V.E.Par[80] = 150.95 V.E.Par[81] = 81.95
N000000091 V.E.Par[82] = 153.69 V.E.Par[83] = 79.22
N000000092 M111 M101
N000000093 G812
N000000094 $IF V.E.Kparams[15] == 1 OR V.E.Kparams[15] == 2
N000000095 V.E.Par[17] = 150.95 V.E.Par[18] = 81.95
N000000096 V.E.Par[15] = 168.15 V.E.Par[16] = 93.99
N000000097 M111 M101
N000000098 G81
N000000099 $GOTO [100004]
N000000100 $ENDIF
N000000101 $IF V.E.Par[78] == 0
N000000102 D1 G41
N000000103 G01 X153.69 Y79.21 FP60
N000000104 $IF V.E.Par[84] == 1
N000000105 M43
N000000106 $ENDIF
N000000107 $ENDIF
N000000108 D1 G41
N000000109 G03 X147.42 Y85.3 I-3.18 J3 FP70
N000000110 G03 X153.6 Y79.12 I3.09 J-3.09
N000000111 G804
N000000112 G40 G01 X153.6 Y79.12
N000000113 V.E.Par[17] = 153.6 V.E.Par[18] = 79.12
N000000114 V.E.Par[15] = 168.15 V.E.Par[16] = 93.99
N000000115 V.E.Par[82] = 170.89 V.E.Par[83] = 91.26
N000000116 M111 M101
N000000117 G81
N000000118 [100005] V.E.Kparams[2] = 1 V.E.Kparams[3] = 5
N000000119 V.E.Par[80] = 168.15 V.E.Par[81] = 93.99
N000000120 V.E.Par[82] = 170.89 V.E.Par[83] = 91.26
N000000121 M111 M101
N000000122 G812
N000000123 $IF V.E.Kparams[15] == 1 OR V.E.Kparams[15] == 2
N000000124 V.E.Par[17] = 168.15 V.E.Par[18] = 93.99
N000000125 V.E.Par[15] = 156.68 V.E.Par[16] = 110.38
N000000126 M111 M101
N000000127 G81
N000000128 $GOTO [100005]
N000000129 $ENDIF
N000000130 $IF V.E.Par[78] == 0
N000000131 D1 G41
N000000132 G01 X170.89 Y91.26 FP60
N000000133 $IF V.E.Par[84] == 1
N000000134 M43
N000000135 $ENDIF
N000000136 $ENDIF
N000000137 D1 G41
N000000138 G03 X164.62 Y97.35 I-3.18 J3 FP70
N000000139 G03 X170.8 Y91.17 I3.09 J-3.09
N000000140 G804
N000000141 G40 G01 X170.8 Y91.17
N000000142 V.E.Par[17] = 170.8 V.E.Par[18] = 91.17
N000000143 V.E.Par[15] = 156.68 V.E.Par[16] = 110.38
N000000144 V.E.Par[82] = 159.42 V.E.Par[83] = 107.64
N000000145 M111 M101
N000000146 G81
N000000147 [100006] V.E.Kparams[2] = 1 V.E.Kparams[3] = 6
N000000148 V.E.Par[80] = 156.68 V.E.Par[81] = 110.38
N000000149 V.E.Par[82] = 159.42 V.E.Par[83] = 107.64
N000000150 M111 M101
N000000151 G812
N000000152 $IF V.E.Kparams[15] == 1 OR V.E.Kparams[15] == 2
N000000153 V.E.Par[17] = 156.68 V.E.Par[18] = 110.38
N000000154 V.E.Par[15] = 185.76 V.E.Par[16] = 130.74
N000000155 M111 M101
N000000156 G81
N000000157 $GOTO [100006]
N000000158 $ENDIF
N000000159 $IF V.E.Par[78] == 0
N000000160 D1 G41
N000000161 G01 X159.42 Y107.64 FP60
N000000162 $IF V.E.Par[84] == 1
N000000163 M43
N000000164 $ENDIF
N000000165 $ENDIF
N000000166 D1 G41
N000000167 G03 X153.15 Y113.73 I-3.18 J3 FP70
N000000168 G03 X159.33 Y107.55 I3.09 J-3.09
N000000169 G804
N000000170 G40 G01 X159.33 Y107.55
N000000171 V.E.Par[17] = 159.33 V.E.Par[18] = 107.55
N000000172 V.E.Par[15] = 185.76 V.E.Par[16] = 130.74
N000000173 V.E.Par[82] = 188.5 V.E.Par[83] = 128.01
N000000174 M111 M101
N000000175 G81
N000000176 [100007] V.E.Kparams[2] = 1 V.E.Kparams[3] = 7
N000000177 V.E.Par[80] = 185.76 V.E.Par[81] = 130.74
N000000178 V.E.Par[82] = 188.5 V.E.Par[83] = 128.01
N000000179 M111 M101
N000000180 G812
N000000181 $IF V.E.Kparams[15] == 1 OR V.E.Kparams[15] == 2
N000000182 V.E.Par[17] = 185.76 V.E.Par[18] = 130.74
N000000183 V.E.Par[15] = 197.23 V.E.Par[16] = 114.36
N000000184 M111 M101
N000000185 G81
N000000186 $GOTO [100007]
N000000187 $ENDIF
N000000188 $IF V.E.Par[78] == 0
N000000189 D1 G41
N000000190 G01 X188.5 Y128 FP60
N000000191 $IF V.E.Par[84] == 1
N000000192 M43
N000000193 $ENDIF
N000000194 $ENDIF
N000000195 D1 G41
N000000196 G03 X182.23 Y134.09 I-3.18 J3 FP70
N000000197 G03 X188.41 Y127.91 I3.09 J-3.09
N000000198 G804
N000000199 G40 G01 X188.41 Y127.91
N000000200 V.E.Par[17] = 188.41 V.E.Par[18] = 127.91
N000000201 V.E.Par[15] = 197.23 V.E.Par[16] = 114.36
N000000202 V.E.Par[82] = 199.97 V.E.Par[83] = 111.62
N000000203 M111 M101
N000000204 G81
N000000205 [100008] V.E.Kparams[2] = 1 V.E.Kparams[3] = 8
N000000206 V.E.Par[80] = 197.23 V.E.Par[81] = 114.36
N000000207 V.E.Par[82] = 199.97 V.E.Par[83] = 111.62
N000000208 M111 M101
N000000209 G812
N000000210 $IF V.E.Kparams[15] == 1 OR V.E.Kparams[15] == 2
N000000211 V.E.Par[17] = 197.23 V.E.Par[18] = 114.36
N000000212 V.E.Par[15] = 146.32 V.E.Par[16] = 19.02
N000000213 M111 M101
N000000214 G81
N000000215 $GOTO [100008]
N000000216 $ENDIF
N000000217 $IF V.E.Par[78] == 0
N000000218 D1 G41
N000000219 G01 X199.97 Y111.62 FP60
N000000220 $IF V.E.Par[84] == 1
N000000221 M43
N000000222 $ENDIF
N000000223 $ENDIF
N000000224 D1 G41
N000000225 G03 X193.7 Y117.71 I-3.18 J3 FP70
N000000226 G03 X199.88 Y111.53 I3.09 J-3.09
N000000227 G804
N000000228 G40 G01 X199.88 Y111.53
N000000229 V.E.Par[17] = 199.88 V.E.Par[18] = 111.53
N000000230 V.E.Par[15] = 146.32 V.E.Par[16] = 19.02
N000000231 V.E.Par[82] = 146.65 V.E.Par[83] = 15.16
N000000232 M111 M101
N000000233 G81
N000000234 [100009] V.E.Kparams[2] = 1 V.E.Kparams[3] = 9
N000000235 V.E.Par[80] = 146.32 V.E.Par[81] = 19.02
N000000236 V.E.Par[82] = 146.65 V.E.Par[83] = 15.16
N000000237 M111 M101
N000000238 G812
N000000239 $IF V.E.Kparams[15] == 1 OR V.E.Kparams[15] == 2
N000000240 V.E.Par[17] = 146.32 V.E.Par[18] = 19.02
N000000241 V.E.Par[15] = 168.56 V.E.Par[16] = 5.15
N000000242 M111 M101
N000000243 G81
N000000244 $GOTO [100009]
N000000245 $ENDIF
N000000246 $IF V.E.Par[78] == 0
N000000247 D1 G41
N000000248 G01 X146.65 Y15.16 FP60
N000000249 $IF V.E.Par[84] == 1
N000000250 M43
N000000251 $ENDIF
N000000252 $ENDIF
N000000253 D1 G41
N000000254 G03 X151.41 Y20.97 I-0.6 J5.34 FP70
N000000255 G03 X129.92 Y80 I-120.91 J-10.58
N000000256 G03 X121.12 Y73.84 I-4.4 J-3.08
N000000257 G02 X140.71 Y20.03 I-90.62 J-63.45
N000000258 G03 X146.52 Y15.15 I5.35 J0.47
N000000259 G804
N000000260 G40 G01 X146.52 Y15.15
N000000261 V.E.Par[17] = 146.52 V.E.Par[18] = 15.15
N000000262 V.E.Par[15] = 168.56 V.E.Par[16] = 5.15
N000000263 V.E.Par[82] = 165.71 V.E.Par[83] = 7.77
N000000264 M111 M101
N000000265 G81
N000000266 [100010] V.E.Kparams[2] = 1 V.E.Kparams[3] = 10
N000000267 V.E.Par[80] = 168.56 V.E.Par[81] = 5.15
N000000268 V.E.Par[82] = 165.71 V.E.Par[83] = 7.77
N000000269 M111 M101
N000000270 G812
N000000271 $IF V.E.Kparams[15] == 1 OR V.E.Kparams[15] == 2
N000000272 V.E.Par[17] = 168.56 V.E.Par[18] = 5.15
N000000273 V.E.Par[15] = 80.94 V.E.Par[16] = 115
N000000274 M111 M101
N000000275 G81
N000000276 G818
N000000277 $GOTO [100001]
N000000278 $ENDIF
N000000279 $IF V.E.Par[78] == 0
N000000280 D2 G41
N000000281 G01 X165.71 Y7.77 FP60
N000000282 $IF V.E.Par[84] == 1
N000000283 M43
N000000284 $ENDIF
N000000285 $ENDIF
N000000286 D2 G41
N000000287 G02 X163.77 Y6.86 I-2.22 J2.21 FP70
N000000288 G01 X129.71 Y3.88
N000000289 G02 X126.31 Y7.11 I-0.27 J3.12
N000000290 G03 X10.63 Y104.18 I-95.81 J3.28
N000000291 G02 X6.86 Y106.97 I-0.65 J3.06
N000000292 G01 X3.88 Y141.02
N000000293 G02 X6.45 Y144.38 I3.12 J0.27
N000000294 G02 X118.26 Y114.45 I24.05 J-133.99
N000000295 G03 X142.47 Y113.37 I12.81 J15.19
N000000296 G01 X189.34 Y146.18
N000000297 G02 X193.7 Y145.41 I1.8 J-2.56
N000000298 G01 X213.2 Y117.56
N000000299 G02 X212.43 Y113.2 I-2.56 J-1.8
N000000300 G01 X165.56 Y80.39
N000000301 G03 X158.3 Y57.27 I11.4 J-16.28
N000000302 G02 X166.63 Y9.97 I-127.8 J-46.88
N000000303 G02 X165.8 Y7.86 I-3.13 J0.01
N000000304 G804
N000000305 G40 D0
N000000306 G809
N000000307 G0 X0 Y0
N000000308 G53
N000000309 $IF V.E.Kparams[10] == 1
N000000310 G819
N000000311 $GOTO N000000001
N000000312 $ENDIF
N000000313 M30
