N000000001:( ******* LASER CUTTING MACHINE    ****** )
N000000002 ( *************************************** )
N000000003 ( DATE      : 22/06/2022  )
N000000004 ( MATERIAL    : Al99  )
N000000005 ( THICKNESS   : 0.8  )
N000000006 ( SHEET SIZE  : 188 x 123  )
N000000007 ( TOTAL TIME   : 00:00:48  )
N000000008 ( *************************************** )
N000000009 V.E.Par[55] = 188
N000000010 V.E.Par[56] = 123
N000000011 V.E.Par[46] = 0
N000000012 V.E.Par[47] = 0.8
N000000013 V.E.Par[48] = 0
N000000014 V.E.Par[49] = 1
N000000015 V.E.Par[50] = 21
N000000016 V.E.Par[130] = 0
N000000017 V.E.Par[131] = 0
N000000018 M40=1
N000000019 G810
N000000020 G808
N000000021 G54
N000000022 $IF V.E.Kparams[0] == 1
N000000023 M121
N000000024 $GOTO V.E.LineNumber
N000000025 $ENDIF
N000000026 ( ************** START ***************** )
N000000027 ;( PART NAME 1    :Pieza_prueba_Maxwell_2)
N000000028 [100002] V.E.Kparams[2] = 1 V.E.Kparams[3] = 2
N000000029 V.E.Par[80] = 33.33 V.E.Par[81] = 24.85
N000000030 V.E.Par[82] = 36.07 V.E.Par[83] = 22.11
N000000031 M111 M101
N000000032 G812
N000000033 $IF V.E.Kparams[15] == 1 OR V.E.Kparams[15] == 2
N000000034 V.E.Par[17] = 33.33 V.E.Par[18] = 24.85
N000000035 V.E.Par[15] = 33.33 V.E.Par[16] = 89.85
N000000036 M111 M101
N000000037 G81
N000000038 $GOTO [100002]
N000000039 $ENDIF
N000000040 $IF V.E.Par[78] == 0
N000000041 D1 G41
N000000042 G01 X36.07 Y22.11 FP60
N000000043 $IF V.E.Par[84] == 1
N000000044 M43
N000000045 $ENDIF
N000000046 $ENDIF
N000000047 D1 G41
N000000048 G03 X22.02 Y35.98 I-7.07 J6.89 FP70
N000000049 G03 X35.98 Y22.02 I6.98 J-6.98
N000000050 G804
N000000051 G40 G01 X35.98 Y22.02
N000000052 V.E.Par[17] = 35.98 V.E.Par[18] = 22.02
N000000053 V.E.Par[15] = 33.33 V.E.Par[16] = 89.85
N000000054 V.E.Par[82] = 36.07 V.E.Par[83] = 87.11
N000000055 M111 M101
N000000056 G81
N000000057 [100003] V.E.Kparams[2] = 1 V.E.Kparams[3] = 3
N000000058 V.E.Par[80] = 33.33 V.E.Par[81] = 89.85
N000000059 V.E.Par[82] = 36.07 V.E.Par[83] = 87.11
N000000060 M111 M101
N000000061 G812
N000000062 $IF V.E.Kparams[15] == 1
N000000063 V.E.Par[17] = 33.33 V.E.Par[18] = 89.85
N000000064 V.E.Par[15] = 29.29 V.E.Par[16] = 52.36
N000000065 M111 M101
N000000066 G81
N000000067 $GOTO [200001]
N000000068 $ELSEIF V.E.Kparams[15] == 2
N000000069 V.E.Par[17] = 33.33 V.E.Par[18] = 89.85
N000000070 V.E.Par[15] = 33.33 V.E.Par[16] = 24.85
N000000071 M111 M101
N000000072 M70=1
N000000073 G81
N000000074 $GOTO [100001]
N000000075 $ENDIF
N000000076 $IF V.E.Par[78] == 0
N000000077 D1 G41
N000000078 G01 X36.07 Y87.11 FP60
N000000079 $IF V.E.Par[84] == 1
N000000080 M43
N000000081 $ENDIF
N000000082 $ENDIF
N000000083 D1 G41
N000000084 G03 X22.02 Y100.98 I-7.07 J6.89 FP70
N000000085 G03 X35.98 Y87.02 I6.98 J-6.98
N000000086 G804
N000000087 G40 G01 X35.98 Y87.02
N000000088 V.E.Par[17] = 35.98 V.E.Par[18] = 87.02
N000000089 V.E.Par[15] = 29.29 V.E.Par[16] = 52.36
N000000090 V.E.Par[82] = 29.29 V.E.Par[83] = 52.36
N000000091 M111 M101
N000000092 G811
N000000093 ;( PART NAME 2    :Fly Cut Part 2)
N000000094 [200002] V.E.Kparams[2] = 2 V.E.Kparams[3] = 2
N000000095 G00 X29.29 Y52.36
N000000096 M101
N000000097 G805
N000000098 G01 X29.29 Y52.36 M12 FP70
N000000099 G01 X58.25 Y52.36 M11
N000000100 G01 X130.33 Y52.36 M12
N000000101 G01 X159.29 Y52.36 M11
N000000102 G01 X159.29 Y72.1 M12
N000000103 G01 X130.33 Y72.1 M11
N000000104 G01 X58.25 Y72.1 M12
N000000105 G01 X29.29 Y72.1 M11
N000000106 G01 X29.29 Y72.1 M12
N000000107 G03 X29.29 Y52.36 I0 J-9.87 M11
N000000108 G01 X58.25 Y52.36 M12
N000000109 G03 X84.42 Y26.18 I36.04 J9.87 M11
N000000110 G03 X104.16 Y26.18 I9.87 J36.04 M12
N000000111 G03 X130.33 Y52.36 I-9.87 J36.04 M11
N000000112 G03 X130.33 Y72.1 I-36.04 J9.87 M12
N000000113 G03 X104.16 Y98.27 I-36.04 J-9.87 M11
N000000114 G03 X84.42 Y98.27 I-9.87 J-36.04 M12
N000000115 G03 X58.25 Y72.1 I9.87 J-36.04 M11
N000000116 G01 X159.29 Y72.1 M12
N000000117 G02 X159.29 Y52.36 I0 J-9.87 M11
N000000118 G01 X104.16 Y16.21 M12
N000000119 G01 X104.16 Y26.18 M11
N000000120 G01 X104.16 Y98.27 M12
N000000121 G01 X104.16 Y108.24 M11
N000000122 G01 X84.42 Y108.24 M12
N000000123 G01 X84.42 Y98.27 M11
N000000124 G01 X84.42 Y26.18 M12
N000000125 G01 X84.42 Y16.21 M11
N000000126 G01 X84.42 Y16.21 M12
N000000127 G01 X104.16 Y16.21 M11
N000000128 G01 X104.16 Y108.24 M12
N000000129 G01 X84.42 Y108.24 M11
N000000130 M12
N000000131 G804
N000000132 G40 D0
N000000133 V.E.Par[17] = 84.42 V.E.Par[18] = 108.24
N000000134 V.E.Par[15] = 163.33 V.E.Par[16] = 89.85
N000000135 V.E.Par[82] = 166.07 V.E.Par[83] = 87.11
N000000136 M111 M101
N000000137 G811
N000000138 ;( PART NAME 3    :Pieza_prueba_Maxwell_2)
N000000139 [300002] V.E.Kparams[2] = 3 V.E.Kparams[3] = 2
N000000140 V.E.Par[80] = 163.33 V.E.Par[81] = 89.85
N000000141 V.E.Par[82] = 166.07 V.E.Par[83] = 87.11
N000000142 M111 M101
N000000143 G812
N000000144 $IF V.E.Kparams[15] == 1
N000000145 V.E.Par[17] = 163.33 V.E.Par[18] = 89.85
N000000146 V.E.Par[15] = 163.33 V.E.Par[16] = 24.85
N000000147 M111 M101
N000000148 G81
N000000149 $GOTO [300002]
N000000150 $ELSEIF V.E.Kparams[15] == 2
N000000151 V.E.Par[17] = 163.33 V.E.Par[18] = 89.85
N000000152 V.E.Par[15] = 163.33 V.E.Par[16] = 89.85
N000000153 M111 M101
N000000154 M70=1
N000000155 G81
N000000156 $GOTO [300001]
N000000157 $ENDIF
N000000158 $IF V.E.Par[78] == 0
N000000159 D1 G41
N000000160 G01 X166.07 Y87.11 FP60
N000000161 $IF V.E.Par[84] == 1
N000000162 M43
N000000163 $ENDIF
N000000164 $ENDIF
N000000165 D1 G41
N000000166 G03 X152.02 Y100.98 I-7.07 J6.89 FP70
N000000167 G03 X165.98 Y87.02 I6.98 J-6.98
N000000168 G804
N000000169 G40 G01 X165.98 Y87.02
N000000170 V.E.Par[17] = 165.98 V.E.Par[18] = 87.02
N000000171 V.E.Par[15] = 163.33 V.E.Par[16] = 24.85
N000000172 V.E.Par[82] = 166.07 V.E.Par[83] = 22.11
N000000173 M111 M101
N000000174 G81
N000000175 [300003] V.E.Kparams[2] = 3 V.E.Kparams[3] = 3
N000000176 V.E.Par[80] = 163.33 V.E.Par[81] = 24.85
N000000177 V.E.Par[82] = 166.07 V.E.Par[83] = 22.11
N000000178 M111 M101
N000000179 G812
N000000180 $IF V.E.Kparams[15] == 1 OR V.E.Kparams[15] == 2
N000000181 V.E.Par[17] = 163.33 V.E.Par[18] = 24.85
N000000182 V.E.Par[15] = 179.41 V.E.Par[16] = 8.4
N000000183 M111 M101
N000000184 G81
N000000185 $GOTO [300003]
N000000186 $ENDIF
N000000187 $IF V.E.Par[78] == 0
N000000188 D1 G41
N000000189 G01 X166.07 Y22.11 FP60
N000000190 $IF V.E.Par[84] == 1
N000000191 M43
N000000192 $ENDIF
N000000193 $ENDIF
N000000194 D1 G41
N000000195 G03 X152.02 Y35.98 I-7.07 J6.89 FP70
N000000196 G03 X165.98 Y22.02 I6.98 J-6.98
N000000197 G804
N000000198 G40 G01 X165.98 Y22.02
N000000199 V.E.Par[17] = 165.98 V.E.Par[18] = 22.02
N000000200 V.E.Par[15] = 179.41 V.E.Par[16] = 8.4
N000000201 V.E.Par[82] = 176.68 V.E.Par[83] = 11.14
N000000202 M111 M101
N000000203 G81
N000000204 [300004] V.E.Kparams[2] = 3 V.E.Kparams[3] = 4
N000000205 V.E.Par[80] = 179.41 V.E.Par[81] = 8.4
N000000206 V.E.Par[82] = 176.68 V.E.Par[83] = 11.14
N000000207 M111 M101
N000000208 G812
N000000209 $IF V.E.Kparams[15] == 1
N000000210 V.E.Par[17] = 179.41 V.E.Par[18] = 8.4
N000000211 V.E.Par[15] = 33.33 V.E.Par[16] = 24.85
N000000212 M111 M101
N000000213 G81
N000000214 G818
N000000215 $GOTO [100001]
N000000216 $ELSEIF V.E.Kparams[15] == 2
N000000217 V.E.Par[17] = 179.41 V.E.Par[18] = 8.4
N000000218 V.E.Par[15] = 163.33 V.E.Par[16] = 89.85
N000000219 M111 M101
N000000220 M70=1
N000000221 G81
N000000222 $GOTO [300001]
N000000223 $ENDIF
N000000224 $IF V.E.Par[78] == 0
N000000225 D2 G41
N000000226 G01 X176.68 Y11.14 FP60
N000000227 $IF V.E.Par[84] == 1
N000000228 M43
N000000229 $ENDIF
N000000230 $ENDIF
N000000231 D2 G41
N000000232 G02 X159 Y3.87 I-17.68 J17.86 FP70
N000000233 G01 X29 Y3.87
N000000234 G02 X3.87 Y29 I0 J25.13
N000000235 G01 X3.87 Y94
N000000236 G02 X29 Y119.13 I25.13 J0
N000000237 G01 X159 Y119.13
N000000238 G02 X184.13 Y94 I0 J-25.13
N000000239 G01 X184.13 Y29
N000000240 G02 X176.77 Y11.23 I-25.13 J0
N000000241 G804
N000000242 G40 D0
N000000243 G809
N000000244 G0 X0 Y0
N000000245 G53
N000000246 $IF V.E.Kparams[10] == 1
N000000247 G819
N000000248 $GOTO N000000001
N000000249 $ENDIF
N000000250 M30
