N000000001:( ******* LASER CUTTING MACHINE    ****** )
N000000002 ( *************************************** )
N000000003 ( DATE      : 22/06/2022  )
N000000004 ( MATERIAL    : Al99  )
N000000005 ( THICKNESS   : 0.8  )
N000000006 ( SHEET SIZE  : 194 x 129  )
N000000007 ( TOTAL TIME   : 00:00:07  )
N000000008 ( *************************************** )
N000000009 V.E.Par[55] = 194
N000000010 V.E.Par[56] = 129
N000000011 V.E.Par[46] = 0
N000000012 V.E.Par[47] = 0.8
N000000013 V.E.Par[48] = 1
N000000014 V.E.Par[49] = 1
N000000015 V.E.Par[50] = 6
N000000016 M40=0
N000000017 G810
N000000018 G808
N000000019 G54
N000000020 $IF V.E.Kparams[0] == 1
N000000021 M121
N000000022 $GOTO V.E.LineNumber
N000000023 $ENDIF
N000000024 ( ************** START ***************** )
N000000025 ;( PART NAME 1    :Pieza_prueba_Maxwell_2)
N000000026 [100002] V.E.Kparams[2] = 1 V.E.Kparams[3] = 2
N000000027 V.E.Par[80] = 37.02 V.E.Par[81] = 27.12
N000000028 V.E.Par[82] = 39.07 V.E.Par[83] = 25.07
N000000029 M111 M101
N000000030 G812
N000000031 $IF V.E.Kparams[15] == 1 OR V.E.Kparams[15] == 2
N000000032 V.E.Par[17] = 37.02 V.E.Par[18] = 27.12
N000000033 V.E.Par[15] = 37.02 V.E.Par[16] = 92.12
N000000034 M111 M101
N000000035 G81
N000000036 $GOTO [100002]
N000000037 $ENDIF
N000000038 $IF V.E.Par[78] == 0
N000000039 D1 G41
N000000040 G01 X39.07 Y25.07 FP60
N000000041 $IF V.E.Par[84] == 1
N000000042 M43
N000000043 $ENDIF
N000000044 $ENDIF
N000000045 D1 G41
N000000046 G03 X25 Y39 I-7.07 J6.93 FP70
N000000047 G03 X39 Y25 I7 J-7
N000000048 G804
N000000049 G40 G01 X39 Y25
N000000050 V.E.Par[17] = 39 V.E.Par[18] = 25
N000000051 V.E.Par[15] = 37.02 V.E.Par[16] = 92.12
N000000052 V.E.Par[82] = 39.07 V.E.Par[83] = 90.07
N000000053 M111 M101
N000000054 G81
N000000055 [100003] V.E.Kparams[2] = 1 V.E.Kparams[3] = 3
N000000056 V.E.Par[80] = 37.02 V.E.Par[81] = 92.12
N000000057 V.E.Par[82] = 39.07 V.E.Par[83] = 90.07
N000000058 M111 M101
N000000059 G812
N000000060 $IF V.E.Kparams[15] == 1 OR V.E.Kparams[15] == 2
N000000061 V.E.Par[17] = 37.02 V.E.Par[18] = 92.12
N000000062 V.E.Par[15] = 102.44 V.E.Par[16] = 27.85
N000000063 M111 M101
N000000064 G81
N000000065 $GOTO [100003]
N000000066 $ENDIF
N000000067 $IF V.E.Par[78] == 0
N000000068 D1 G41
N000000069 G01 X39.07 Y90.07 FP60
N000000070 $IF V.E.Par[84] == 1
N000000071 M43
N000000072 $ENDIF
N000000073 $ENDIF
N000000074 D1 G41
N000000075 G03 X25 Y104 I-7.07 J6.93 FP70
N000000076 G03 X39 Y90 I7 J-7
N000000077 G804
N000000078 G40 G01 X39 Y90
N000000079 V.E.Par[17] = 39 V.E.Par[18] = 90
N000000080 V.E.Par[15] = 102.44 V.E.Par[16] = 27.85
N000000081 V.E.Par[82] = 107.26 V.E.Par[83] = 29.18
N000000082 M111 M101
N000000083 G81
N000000084 [100004] V.E.Kparams[2] = 1 V.E.Kparams[3] = 4
N000000085 V.E.Par[80] = 102.44 V.E.Par[81] = 27.85
N000000086 V.E.Par[82] = 107.26 V.E.Par[83] = 29.18
N000000087 M111 M101
N000000088 G812
N000000089 $IF V.E.Kparams[15] == 1 OR V.E.Kparams[15] == 2
N000000090 V.E.Par[17] = 102.44 V.E.Par[18] = 27.85
N000000091 V.E.Par[15] = 167.02 V.E.Par[16] = 92.12
N000000092 M111 M101
N000000093 G81
N000000094 $GOTO [100004]
N000000095 $ENDIF
N000000096 $IF V.E.Par[78] == 0
N000000097 D1 G41
N000000098 G01 X107.26 Y29.18 FP60
N000000099 $IF V.E.Par[84] == 1
N000000100 M43
N000000101 $ENDIF
N000000102 $ENDIF
N000000103 D1 G41
N000000104 G03 X133.36 Y55.33 I-9.97 J36.05 FP70
N000000105 G01 X162.29 Y55.33
N000000106 G03 X162.29 Y75.13 I0 J9.9
N000000107 G01 X133.36 Y75.13
N000000108 G03 X107.19 Y101.29 I-36.06 J-9.9
N000000109 G01 X107.19 Y111.27
N000000110 G01 X87.39 Y111.27
N000000111 G01 X87.39 Y101.29
N000000112 G03 X61.22 Y75.13 I9.9 J-36.07
N000000113 G01 X32.29 Y75.13
N000000114 G03 X32.29 Y55.33 I0 J-9.9
N000000115 G01 X61.22 Y55.33
N000000116 G03 X87.39 Y29.16 I36.07 J9.9
N000000117 G01 X87.39 Y19.18
N000000118 G01 X107.19 Y19.18
N000000119 G01 X107.19 Y29.08
N000000120 G804
N000000121 G40 G01 X107.19 Y29.08
N000000122 V.E.Par[17] = 107.19 V.E.Par[18] = 29.08
N000000123 V.E.Par[15] = 167.02 V.E.Par[16] = 92.12
N000000124 V.E.Par[82] = 169.07 V.E.Par[83] = 90.07
N000000125 M111 M101
N000000126 G81
N000000127 [100005] V.E.Kparams[2] = 1 V.E.Kparams[3] = 5
N000000128 V.E.Par[80] = 167.02 V.E.Par[81] = 92.12
N000000129 V.E.Par[82] = 169.07 V.E.Par[83] = 90.07
N000000130 M111 M101
N000000131 G812
N000000132 $IF V.E.Kparams[15] == 1 OR V.E.Kparams[15] == 2
N000000133 V.E.Par[17] = 167.02 V.E.Par[18] = 92.12
N000000134 V.E.Par[15] = 167.02 V.E.Par[16] = 27.12
N000000135 M111 M101
N000000136 G81
N000000137 $GOTO [100005]
N000000138 $ENDIF
N000000139 $IF V.E.Par[78] == 0
N000000140 D1 G41
N000000141 G01 X169.07 Y90.07 FP60
N000000142 $IF V.E.Par[84] == 1
N000000143 M43
N000000144 $ENDIF
N000000145 $ENDIF
N000000146 D1 G41
N000000147 G03 X155 Y104 I-7.07 J6.93 FP70
N000000148 G03 X169 Y90 I7 J-7
N000000149 G804
N000000150 G40 G01 X169 Y90
N000000151 V.E.Par[17] = 169 V.E.Par[18] = 90
N000000152 V.E.Par[15] = 167.02 V.E.Par[16] = 27.12
N000000153 V.E.Par[82] = 169.07 V.E.Par[83] = 25.07
N000000154 M111 M101
N000000155 G81
N000000156 [100006] V.E.Kparams[2] = 1 V.E.Kparams[3] = 6
N000000157 V.E.Par[80] = 167.02 V.E.Par[81] = 27.12
N000000158 V.E.Par[82] = 169.07 V.E.Par[83] = 25.07
N000000159 M111 M101
N000000160 G812
N000000161 $IF V.E.Kparams[15] == 1 OR V.E.Kparams[15] == 2
N000000162 V.E.Par[17] = 167.02 V.E.Par[18] = 27.12
N000000163 V.E.Par[15] = 183.14 V.E.Par[16] = 10.72
N000000164 M111 M101
N000000165 G81
N000000166 $GOTO [100006]
N000000167 $ENDIF
N000000168 $IF V.E.Par[78] == 0
N000000169 D1 G41
N000000170 G01 X169.07 Y25.07 FP60
N000000171 $IF V.E.Par[84] == 1
N000000172 M43
N000000173 $ENDIF
N000000174 $ENDIF
N000000175 D1 G41
N000000176 G03 X155 Y39 I-7.07 J6.93 FP70
N000000177 G03 X169 Y25 I7 J-7
N000000178 G804
N000000179 G40 G01 X169 Y25
N000000180 V.E.Par[17] = 169 V.E.Par[18] = 25
N000000181 V.E.Par[15] = 183.14 V.E.Par[16] = 10.72
N000000182 V.E.Par[82] = 179.68 V.E.Par[83] = 14.18
N000000183 M111 M101
N000000184 G81
N000000185 [100007] V.E.Kparams[2] = 1 V.E.Kparams[3] = 7
N000000186 V.E.Par[80] = 183.14 V.E.Par[81] = 10.72
N000000187 V.E.Par[82] = 179.68 V.E.Par[83] = 14.18
N000000188 M111 M101
N000000189 G812
N000000190 $IF V.E.Kparams[15] == 1 OR V.E.Kparams[15] == 2
N000000191 V.E.Par[17] = 183.14 V.E.Par[18] = 10.72
N000000192 V.E.Par[15] = 37.02 V.E.Par[16] = 27.12
N000000193 M111 M101
N000000194 G81
N000000195 G818
N000000196 $GOTO [100001]
N000000197 $ENDIF
N000000198 $IF V.E.Par[78] == 0
N000000199 D2 G41
N000000200 G01 X179.68 Y14.18 FP60
N000000201 $IF V.E.Par[84] == 1
N000000202 M43
N000000203 $ENDIF
N000000204 $ENDIF
N000000205 D2 G41
N000000206 G02 X162 Y6.9 I-17.68 J17.82 FP70
N000000207 G01 X32 Y6.9
N000000208 G02 X6.9 Y32 I0 J25.1
N000000209 G01 X6.9 Y97
N000000210 G02 X32 Y122.1 I25.1 J0
N000000211 G01 X162 Y122.1
N000000212 G02 X187.1 Y97 I0 J-25.1
N000000213 G01 X187.1 Y32
N000000214 G02 X179.75 Y14.25 I-25.1 J0
N000000215 G804
N000000216 G40 D0
N000000217 G809
N000000218 G0 X0 Y0
N000000219 G53
N000000220 $IF V.E.Kparams[10] == 1
N000000221 G819
N000000222 $GOTO N000000001
N000000223 $ENDIF
N000000224 M30
