N000000001:( ******* LASER CUTTING MACHINE    ****** )
N000000002 ( *************************************** )
N000000003 ( DATE      : 22/06/2022  )
N000000004 ( MATERIAL    : Al99  )
N000000005 ( THICKNESS   : 0.8  )
N000000006 ( SHEET SIZE  : 307 x 176  )
N000000007 ( TOTAL TIME   : 00:00:21  )
N000000008 ( *************************************** )
N000000009 V.E.Par[55] = 307
N000000010 V.E.Par[56] = 176
N000000011 V.E.Par[46] = 0
N000000012 V.E.Par[47] = 0.8
N000000013 V.E.Par[48] = 1
N000000014 V.E.Par[49] = 1
N000000015 V.E.Par[50] = 22
N000000016 M40=0
N000000017 G810
N000000018 G808
N000000019 G54
N000000020 $IF V.E.Kparams[0] == 1
N000000021 M121
N000000022 $GOTO V.E.LineNumber
N000000023 $ENDIF
N000000024 ( ************** START ***************** )
N000000025 ;( PART NAME 1    :DXFPUNC0)
N000000026 [100002] V.E.Kparams[2] = 1 V.E.Kparams[3] = 2
N000000027 V.E.Par[80] = 32.44 V.E.Par[81] = 57
N000000028 V.E.Par[82] = 34.49 V.E.Par[83] = 54.95
N000000029 M111 M101
N000000030 G812
N000000031 $IF V.E.Kparams[15] == 1 OR V.E.Kparams[15] == 2
N000000032 V.E.Par[17] = 32.44 V.E.Par[18] = 57
N000000033 V.E.Par[15] = 49.67 V.E.Par[16] = 46.07
N000000034 M111 M101
N000000035 G81
N000000036 $GOTO [100002]
N000000037 $ENDIF
N000000038 $IF V.E.Par[78] == 0
N000000039 D1 G41
N000000040 G01 X34.49 Y54.95 FP60
N000000041 $IF V.E.Par[84] == 1
N000000042 M43
N000000043 $ENDIF
N000000044 $ENDIF
N000000045 D1 G41
N000000046 G03 X30.18 Y59.12 I-2.19 J2.05 FP70
N000000047 G03 X34.42 Y54.88 I2.12 J-2.12
N000000048 G804
N000000049 G40 G01 X34.42 Y54.88
N000000050 V.E.Par[17] = 34.42 V.E.Par[18] = 54.88
N000000051 V.E.Par[15] = 49.67 V.E.Par[16] = 46.07
N000000052 V.E.Par[82] = 51.19 V.E.Par[83] = 44.55
N000000053 M111 M101
N000000054 G81
N000000055 [100003] V.E.Kparams[2] = 1 V.E.Kparams[3] = 3
N000000056 V.E.Par[80] = 49.67 V.E.Par[81] = 46.07
N000000057 V.E.Par[82] = 51.19 V.E.Par[83] = 44.55
N000000058 M111 M101
N000000059 G812
N000000060 $IF V.E.Kparams[15] == 1 OR V.E.Kparams[15] == 2
N000000061 V.E.Par[17] = 49.67 V.E.Par[18] = 46.07
N000000062 V.E.Par[15] = 56.04 V.E.Par[16] = 66.64
N000000063 M111 M101
N000000064 G81
N000000065 $GOTO [100003]
N000000066 $ENDIF
N000000067 $IF V.E.Par[78] == 0
N000000068 D1 G41
N000000069 G01 X51.19 Y44.55 FP60
N000000070 $IF V.E.Par[84] == 1
N000000071 M43
N000000072 $ENDIF
N000000073 $ENDIF
N000000074 D1 G41
N000000075 G03 X48.08 Y47.52 I-1.59 J1.45 FP70
N000000076 G03 X51.12 Y44.48 I1.52 J-1.52
N000000077 G804
N000000078 G40 G01 X51.12 Y44.48
N000000079 V.E.Par[17] = 51.12 V.E.Par[18] = 44.48
N000000080 V.E.Par[15] = 56.04 V.E.Par[16] = 66.64
N000000081 V.E.Par[82] = 57.56 V.E.Par[83] = 65.12
N000000082 M111 M101
N000000083 G81
N000000084 [100004] V.E.Kparams[2] = 1 V.E.Kparams[3] = 4
N000000085 V.E.Par[80] = 56.04 V.E.Par[81] = 66.64
N000000086 V.E.Par[82] = 57.56 V.E.Par[83] = 65.12
N000000087 M111 M101
N000000088 G812
N000000089 $IF V.E.Kparams[15] == 1 OR V.E.Kparams[15] == 2
N000000090 V.E.Par[17] = 56.04 V.E.Par[18] = 66.64
N000000091 V.E.Par[15] = 66.11 V.E.Par[16] = 60.11
N000000092 M111 M101
N000000093 G81
N000000094 $GOTO [100004]
N000000095 $ENDIF
N000000096 $IF V.E.Par[78] == 0
N000000097 D1 G41
N000000098 G01 X57.56 Y65.12 FP60
N000000099 $IF V.E.Par[84] == 1
N000000100 M43
N000000101 $ENDIF
N000000102 $ENDIF
N000000103 D1 G41
N000000104 G03 X54.45 Y68.09 I-1.59 J1.45 FP70
N000000105 G03 X57.49 Y65.05 I1.52 J-1.52
N000000106 G804
N000000107 G40 G01 X57.49 Y65.05
N000000108 V.E.Par[17] = 57.49 V.E.Par[18] = 65.05
N000000109 V.E.Par[15] = 66.11 V.E.Par[16] = 60.11
N000000110 V.E.Par[82] = 67.16 V.E.Par[83] = 59.05
N000000111 M111 M101
N000000112 G81
N000000113 [100005] V.E.Kparams[2] = 1 V.E.Kparams[3] = 5
N000000114 V.E.Par[80] = 66.11 V.E.Par[81] = 60.11
N000000115 V.E.Par[82] = 67.16 V.E.Par[83] = 59.05
N000000116 M111 M101
N000000117 G812
N000000118 $IF V.E.Kparams[15] == 1 OR V.E.Kparams[15] == 2
N000000119 V.E.Par[17] = 66.11 V.E.Par[18] = 60.11
N000000120 V.E.Par[15] = 76.17 V.E.Par[16] = 53.57
N000000121 M111 M101
N000000122 G81
N000000123 $GOTO [100005]
N000000124 $ENDIF
N000000125 $IF V.E.Par[78] == 0
N000000126 D1 G41
N000000127 G01 X67.17 Y59.05 FP60
N000000128 $IF V.E.Par[84] == 1
N000000129 M43
N000000130 $ENDIF
N000000131 $ENDIF
N000000132 D1 G41
N000000133 G03 X64.97 Y61.1 I-1.13 J0.99 FP70
N000000134 G03 X67.1 Y58.97 I1.06 J-1.06
N000000135 G804
N000000136 G40 G01 X67.1 Y58.97
N000000137 V.E.Par[17] = 67.1 V.E.Par[18] = 58.97
N000000138 V.E.Par[15] = 76.17 V.E.Par[16] = 53.57
N000000139 V.E.Par[82] = 77.69 V.E.Par[83] = 52.05
N000000140 M111 M101
N000000141 G81
N000000142 [100006] V.E.Kparams[2] = 1 V.E.Kparams[3] = 6
N000000143 V.E.Par[80] = 76.17 V.E.Par[81] = 53.57
N000000144 V.E.Par[82] = 77.69 V.E.Par[83] = 52.05
N000000145 M111 M101
N000000146 G812
N000000147 $IF V.E.Kparams[15] == 1 OR V.E.Kparams[15] == 2
N000000148 V.E.Par[17] = 76.17 V.E.Par[18] = 53.57
N000000149 V.E.Par[15] = 86.79 V.E.Par[16] = 62.06
N000000150 M111 M101
N000000151 G81
N000000152 $GOTO [100006]
N000000153 $ENDIF
N000000154 $IF V.E.Par[78] == 0
N000000155 D1 G41
N000000156 G01 X77.69 Y52.05 FP60
N000000157 $IF V.E.Par[84] == 1
N000000158 M43
N000000159 $ENDIF
N000000160 $ENDIF
N000000161 D1 G41
N000000162 G03 X74.58 Y55.02 I-1.59 J1.45 FP70
N000000163 G03 X77.62 Y51.98 I1.52 J-1.52
N000000164 G804
N000000165 G40 G01 X77.62 Y51.98
N000000166 V.E.Par[17] = 77.62 V.E.Par[18] = 51.98
N000000167 V.E.Par[15] = 86.79 V.E.Par[16] = 62.06
N000000168 V.E.Par[82] = 84.12 V.E.Par[83] = 57.95
N000000169 M111 M101
N000000170 G81
N000000171 [100007] V.E.Kparams[2] = 1 V.E.Kparams[3] = 7
N000000172 V.E.Par[80] = 86.79 V.E.Par[81] = 62.06
N000000173 V.E.Par[82] = 84.12 V.E.Par[83] = 57.95
N000000174 M111 M101
N000000175 G812
N000000176 $IF V.E.Kparams[15] == 1 OR V.E.Kparams[15] == 2
N000000177 V.E.Par[17] = 86.79 V.E.Par[18] = 62.06
N000000178 V.E.Par[15] = 96.67 V.E.Par[16] = 46.07
N000000179 M111 M101
N000000180 G81
N000000181 $GOTO [100007]
N000000182 $ENDIF
N000000183 $IF V.E.Par[78] == 0
N000000184 D1 G41
N000000185 G01 X84.12 Y57.95 FP60
N000000186 $IF V.E.Par[84] == 1
N000000187 M43
N000000188 $ENDIF
N000000189 $ENDIF
N000000190 D1 G41
N000000191 G03 X89.37 Y66.22 I2.58 J4.16 FP70
N000000192 G01 X62.12 Y83.92
N000000193 G03 X56.78 Y75.7 I-2.67 J-4.11
N000000194 G01 X84.04 Y58
N000000195 G804
N000000196 G40 G01 X84.04 Y58
N000000197 V.E.Par[17] = 84.04 V.E.Par[18] = 58
N000000198 V.E.Par[15] = 96.67 V.E.Par[16] = 46.07
N000000199 V.E.Par[82] = 98.19 V.E.Par[83] = 44.55
N000000200 M111 M101
N000000201 G81
N000000202 [100008] V.E.Kparams[2] = 1 V.E.Kparams[3] = 8
N000000203 V.E.Par[80] = 96.67 V.E.Par[81] = 46.07
N000000204 V.E.Par[82] = 98.19 V.E.Par[83] = 44.55
N000000205 M111 M101
N000000206 G812
N000000207 $IF V.E.Kparams[15] == 1 OR V.E.Kparams[15] == 2
N000000208 V.E.Par[17] = 96.67 V.E.Par[18] = 46.07
N000000209 V.E.Par[15] = 102.1 V.E.Par[16] = 86.3
N000000210 M111 M101
N000000211 G81
N000000212 $GOTO [100008]
N000000213 $ENDIF
N000000214 $IF V.E.Par[78] == 0
N000000215 D1 G41
N000000216 G01 X98.19 Y44.55 FP60
N000000217 $IF V.E.Par[84] == 1
N000000218 M43
N000000219 $ENDIF
N000000220 $ENDIF
N000000221 D1 G41
N000000222 G03 X95.08 Y47.52 I-1.59 J1.45 FP70
N000000223 G03 X98.12 Y44.48 I1.52 J-1.52
N000000224 G804
N000000225 G40 G01 X98.12 Y44.48
N000000226 V.E.Par[17] = 98.12 V.E.Par[18] = 44.48
N000000227 V.E.Par[15] = 102.1 V.E.Par[16] = 86.3
N000000228 V.E.Par[82] = 102.1 V.E.Par[83] = 81.4
N000000229 M111 M101
N000000230 G81
N000000231 [100009] V.E.Kparams[2] = 1 V.E.Kparams[3] = 9
N000000232 V.E.Par[80] = 102.1 V.E.Par[81] = 86.3
N000000233 V.E.Par[82] = 102.1 V.E.Par[83] = 81.4
N000000234 M111 M101
N000000235 G812
N000000236 $IF V.E.Kparams[15] == 1 OR V.E.Kparams[15] == 2
N000000237 V.E.Par[17] = 102.1 V.E.Par[18] = 86.3
N000000238 V.E.Par[15] = 71.12 V.E.Par[16] = 120.49
N000000239 M111 M101
N000000240 G81
N000000241 $GOTO [100009]
N000000242 $ENDIF
N000000243 $IF V.E.Par[78] == 0
N000000244 D1 G41
N000000245 G01 X102.1 Y81.4 FP60
N000000246 $IF V.E.Par[84] == 1
N000000247 M43
N000000248 $ENDIF
N000000249 $ENDIF
N000000250 D1 G41
N000000251 G01 X105.15 Y81.4 FP70
N000000252 G01 X105.15 Y91.2
N000000253 G01 X98.85 Y91.2
N000000254 G01 X98.85 Y81.4
N000000255 G01 X102 Y81.4
N000000256 G804
N000000257 G40 G01 X102 Y81.4
N000000258 V.E.Par[17] = 102 V.E.Par[18] = 81.4
N000000259 V.E.Par[15] = 71.12 V.E.Par[16] = 120.49
N000000260 V.E.Par[82] = 71.33 V.E.Par[83] = 120.28
N000000261 M111 M101
N000000262 G81
N000000263 [100010] V.E.Kparams[2] = 1 V.E.Kparams[3] = 10
N000000264 V.E.Par[80] = 71.12 V.E.Par[81] = 120.49
N000000265 V.E.Par[82] = 71.33 V.E.Par[83] = 120.28
N000000266 M111 M101
N000000267 G812
N000000268 $IF V.E.Kparams[15] == 1 OR V.E.Kparams[15] == 2
N000000269 V.E.Par[17] = 71.12 V.E.Par[18] = 120.49
N000000270 V.E.Par[15] = 39.64 V.E.Par[16] = 84.5
N000000271 M111 M101
N000000272 G81
N000000273 $GOTO [100010]
N000000274 $ENDIF
N000000275 $IF V.E.Par[78] == 0
N000000276 D1 G41
N000000277 G01 X71.33 Y120.28 FP60
N000000278 $IF V.E.Par[84] == 1
N000000279 M43
N000000280 $ENDIF
N000000281 $ENDIF
N000000282 D1 G41
N000000283 G01 X76 Y124.94 FP70
N000000284 G03 X75.58 Y125.37 I-0.21 J0.21
N000000285 G01 X70.84 Y120.63
N000000286 G03 X71.26 Y120.21 I0.21 J-0.21
N000000287 G804
N000000288 G40 G01 X71.26 Y120.21
N000000289 V.E.Par[17] = 71.26 V.E.Par[18] = 120.21
N000000290 V.E.Par[15] = 39.64 V.E.Par[16] = 84.5
N000000291 V.E.Par[82] = 41.69 V.E.Par[83] = 82.45
N000000292 M111 M101
N000000293 G81
N000000294 [100011] V.E.Kparams[2] = 1 V.E.Kparams[3] = 11
N000000295 V.E.Par[80] = 39.64 V.E.Par[81] = 84.5
N000000296 V.E.Par[82] = 41.69 V.E.Par[83] = 82.45
N000000297 M111 M101
N000000298 G812
N000000299 $IF V.E.Kparams[15] == 1 OR V.E.Kparams[15] == 2
N000000300 V.E.Par[17] = 39.64 V.E.Par[18] = 84.5
N000000301 V.E.Par[15] = 113.57 V.E.Par[16] = 155.07
N000000302 M111 M101
N000000303 G81
N000000304 $GOTO [100011]
N000000305 $ENDIF
N000000306 $IF V.E.Par[78] == 0
N000000307 D1 G41
N000000308 G01 X41.69 Y82.45 FP60
N000000309 $IF V.E.Par[84] == 1
N000000310 M43
N000000311 $ENDIF
N000000312 $ENDIF
N000000313 D1 G41
N000000314 G03 X37.38 Y86.62 I-2.19 J2.05 FP70
N000000315 G03 X41.62 Y82.38 I2.12 J-2.12
N000000316 G804
N000000317 G40 G01 X41.62 Y82.38
N000000318 V.E.Par[17] = 41.62 V.E.Par[18] = 82.38
N000000319 V.E.Par[15] = 113.57 V.E.Par[16] = 155.07
N000000320 V.E.Par[82] = 114.74 V.E.Par[83] = 153.91
N000000321 M111 M101
N000000322 G81
N000000323 [100012] V.E.Kparams[2] = 1 V.E.Kparams[3] = 12
N000000324 V.E.Par[80] = 113.57 V.E.Par[81] = 155.07
N000000325 V.E.Par[82] = 114.74 V.E.Par[83] = 153.91
N000000326 M111 M101
N000000327 G812
N000000328 $IF V.E.Kparams[15] == 1 OR V.E.Kparams[15] == 2
N000000329 V.E.Par[17] = 113.57 V.E.Par[18] = 155.07
N000000330 V.E.Par[15] = 156.95 V.E.Par[16] = 155.96
N000000331 M111 M101
N000000332 G81
N000000333 $GOTO [100012]
N000000334 $ENDIF
N000000335 $IF V.E.Par[78] == 0
N000000336 D1 G41
N000000337 G01 X114.73 Y153.91 FP60
N000000338 $IF V.E.Par[84] == 1
N000000339 M43
N000000340 $ENDIF
N000000341 $ENDIF
N000000342 D1 G41
N000000343 G03 X112.33 Y156.17 I-1.23 J1.09 FP70
N000000344 G03 X114.67 Y153.83 I1.17 J-1.17
N000000345 G804
N000000346 G40 G01 X114.67 Y153.83
N000000347 V.E.Par[17] = 114.67 V.E.Par[18] = 153.83
N000000348 V.E.Par[15] = 156.95 V.E.Par[16] = 155.96
N000000349 V.E.Par[82] = 156.95 V.E.Par[83] = 155.68
N000000350 M111 M101
N000000351 G81
N000000352 [100013] V.E.Kparams[2] = 1 V.E.Kparams[3] = 13
N000000353 V.E.Par[80] = 156.95 V.E.Par[81] = 155.96
N000000354 V.E.Par[82] = 156.95 V.E.Par[83] = 155.68
N000000355 M111 M101
N000000356 G812
N000000357 $IF V.E.Kparams[15] == 1 OR V.E.Kparams[15] == 2
N000000358 V.E.Par[17] = 156.95 V.E.Par[18] = 155.96
N000000359 V.E.Par[15] = 193.57 V.E.Par[16] = 155.07
N000000360 M111 M101
N000000361 G81
N000000362 $GOTO [100013]
N000000363 $ENDIF
N000000364 $IF V.E.Par[78] == 0
N000000365 D1 G41
N000000366 G01 X156.95 Y155.68 FP60
N000000367 $IF V.E.Par[84] == 1
N000000368 M43
N000000369 $ENDIF
N000000370 $ENDIF
N000000371 D1 G41
N000000372 G03 X156.85 Y156.26 I-0.1 J0.28 FP70
N000000373 G01 X150.15 Y156.26
N000000374 G03 X150.15 Y155.66 I0 J-0.3
N000000375 G01 X156.85 Y155.66
N000000376 G804
N000000377 G40 G01 X156.85 Y155.66
N000000378 V.E.Par[17] = 156.85 V.E.Par[18] = 155.66
N000000379 V.E.Par[15] = 193.57 V.E.Par[16] = 155.07
N000000380 V.E.Par[82] = 194.74 V.E.Par[83] = 153.91
N000000381 M111 M101
N000000382 G81
N000000383 [100014] V.E.Kparams[2] = 1 V.E.Kparams[3] = 14
N000000384 V.E.Par[80] = 193.57 V.E.Par[81] = 155.07
N000000385 V.E.Par[82] = 194.74 V.E.Par[83] = 153.91
N000000386 M111 M101
N000000387 G812
N000000388 $IF V.E.Kparams[15] == 1 OR V.E.Kparams[15] == 2
N000000389 V.E.Par[17] = 193.57 V.E.Par[18] = 155.07
N000000390 V.E.Par[15] = 236.02 V.E.Par[16] = 120.35
N000000391 M111 M101
N000000392 G81
N000000393 $GOTO [100014]
N000000394 $ENDIF
N000000395 $IF V.E.Par[78] == 0
N000000396 D1 G41
N000000397 G01 X194.73 Y153.91 FP60
N000000398 $IF V.E.Par[84] == 1
N000000399 M43
N000000400 $ENDIF
N000000401 $ENDIF
N000000402 D1 G41
N000000403 G03 X192.33 Y156.17 I-1.24 J1.09 FP70
N000000404 G03 X194.67 Y153.83 I1.17 J-1.17
N000000405 G804
N000000406 G40 G01 X194.67 Y153.83
N000000407 V.E.Par[17] = 194.67 V.E.Par[18] = 153.83
N000000408 V.E.Par[15] = 236.02 V.E.Par[16] = 120.35
N000000409 V.E.Par[82] = 235.82 V.E.Par[83] = 120.15
N000000410 M111 M101
N000000411 G81
N000000412 [100015] V.E.Kparams[2] = 1 V.E.Kparams[3] = 15
N000000413 V.E.Par[80] = 236.02 V.E.Par[81] = 120.35
N000000414 V.E.Par[82] = 235.82 V.E.Par[83] = 120.15
N000000415 M111 M101
N000000416 G812
N000000417 $IF V.E.Kparams[15] == 1 OR V.E.Kparams[15] == 2
N000000418 V.E.Par[17] = 236.02 V.E.Par[18] = 120.35
N000000419 V.E.Par[15] = 205.1 V.E.Par[16] = 86.3
N000000420 M111 M101
N000000421 G81
N000000422 $GOTO [100015]
N000000423 $ENDIF
N000000424 $IF V.E.Par[78] == 0
N000000425 D1 G41
N000000426 G01 X235.82 Y120.15 FP60
N000000427 $IF V.E.Par[84] == 1
N000000428 M43
N000000429 $ENDIF
N000000430 $ENDIF
N000000431 D1 G41
N000000432 G03 X236.16 Y120.63 I0.13 J0.27 FP70
N000000433 G01 X231.42 Y125.37
N000000434 G03 X231 Y124.94 I-0.21 J-0.21
N000000435 G01 X235.74 Y120.21
N000000436 G804
N000000437 G40 G01 X235.74 Y120.21
N000000438 V.E.Par[17] = 235.74 V.E.Par[18] = 120.21
N000000439 V.E.Par[15] = 205.1 V.E.Par[16] = 86.3
N000000440 V.E.Par[82] = 205.1 V.E.Par[83] = 81.4
N000000441 M111 M101
N000000442 G81
N000000443 [100016] V.E.Kparams[2] = 1 V.E.Kparams[3] = 16
N000000444 V.E.Par[80] = 205.1 V.E.Par[81] = 86.3
N000000445 V.E.Par[82] = 205.1 V.E.Par[83] = 81.4
N000000446 M111 M101
N000000447 G812
N000000448 $IF V.E.Kparams[15] == 1 OR V.E.Kparams[15] == 2
N000000449 V.E.Par[17] = 205.1 V.E.Par[18] = 86.3
N000000450 V.E.Par[15] = 267.64 V.E.Par[16] = 84.5
N000000451 M111 M101
N000000452 G81
N000000453 $GOTO [100016]
N000000454 $ENDIF
N000000455 $IF V.E.Par[78] == 0
N000000456 D1 G41
N000000457 G01 X205.1 Y81.4 FP60
N000000458 $IF V.E.Par[84] == 1
N000000459 M43
N000000460 $ENDIF
N000000461 $ENDIF
N000000462 D1 G41
N000000463 G01 X208.15 Y81.4 FP70
N000000464 G01 X208.15 Y91.2
N000000465 G01 X201.85 Y91.2
N000000466 G01 X201.85 Y81.4
N000000467 G01 X205 Y81.4
N000000468 G804
N000000469 G40 G01 X205 Y81.4
N000000470 V.E.Par[17] = 205 V.E.Par[18] = 81.4
N000000471 V.E.Par[15] = 267.64 V.E.Par[16] = 84.5
N000000472 V.E.Par[82] = 269.69 V.E.Par[83] = 82.45
N000000473 M111 M101
N000000474 G81
N000000475 [100017] V.E.Kparams[2] = 1 V.E.Kparams[3] = 17
N000000476 V.E.Par[80] = 267.64 V.E.Par[81] = 84.5
N000000477 V.E.Par[82] = 269.69 V.E.Par[83] = 82.45
N000000478 M111 M101
N000000479 G812
N000000480 $IF V.E.Kparams[15] == 1 OR V.E.Kparams[15] == 2
N000000481 V.E.Par[17] = 267.64 V.E.Par[18] = 84.5
N000000482 V.E.Par[15] = 274.84 V.E.Par[16] = 57
N000000483 M111 M101
N000000484 G81
N000000485 $GOTO [100017]
N000000486 $ENDIF
N000000487 $IF V.E.Par[78] == 0
N000000488 D1 G41
N000000489 G01 X269.69 Y82.45 FP60
N000000490 $IF V.E.Par[84] == 1
N000000491 M43
N000000492 $ENDIF
N000000493 $ENDIF
N000000494 D1 G41
N000000495 G03 X265.38 Y86.62 I-2.19 J2.05 FP70
N000000496 G03 X269.62 Y82.38 I2.12 J-2.12
N000000497 G804
N000000498 G40 G01 X269.62 Y82.38
N000000499 V.E.Par[17] = 269.62 V.E.Par[18] = 82.38
N000000500 V.E.Par[15] = 274.84 V.E.Par[16] = 57
N000000501 V.E.Par[82] = 276.89 V.E.Par[83] = 54.95
N000000502 M111 M101
N000000503 G81
N000000504 [100018] V.E.Kparams[2] = 1 V.E.Kparams[3] = 18
N000000505 V.E.Par[80] = 274.84 V.E.Par[81] = 57
N000000506 V.E.Par[82] = 276.89 V.E.Par[83] = 54.95
N000000507 M111 M101
N000000508 G812
N000000509 $IF V.E.Kparams[15] == 1 OR V.E.Kparams[15] == 2
N000000510 V.E.Par[17] = 274.84 V.E.Par[18] = 57
N000000511 V.E.Par[15] = 221.67 V.E.Par[16] = 17.07
N000000512 M111 M101
N000000513 G81
N000000514 $GOTO [100018]
N000000515 $ENDIF
N000000516 $IF V.E.Par[78] == 0
N000000517 D1 G41
N000000518 G01 X276.89 Y54.95 FP60
N000000519 $IF V.E.Par[84] == 1
N000000520 M43
N000000521 $ENDIF
N000000522 $ENDIF
N000000523 D1 G41
N000000524 G03 X272.58 Y59.12 I-2.19 J2.05 FP70
N000000525 G03 X276.82 Y54.88 I2.12 J-2.12
N000000526 G804
N000000527 G40 G01 X276.82 Y54.88
N000000528 V.E.Par[17] = 276.82 V.E.Par[18] = 54.88
N000000529 V.E.Par[15] = 221.67 V.E.Par[16] = 17.07
N000000530 V.E.Par[82] = 222.3 V.E.Par[83] = 16.44
N000000531 M111 M101
N000000532 G81
N000000533 [100019] V.E.Kparams[2] = 1 V.E.Kparams[3] = 19
N000000534 V.E.Par[80] = 221.67 V.E.Par[81] = 17.07
N000000535 V.E.Par[82] = 222.3 V.E.Par[83] = 16.44
N000000536 M111 M101
N000000537 G812
N000000538 $IF V.E.Kparams[15] == 1 OR V.E.Kparams[15] == 2
N000000539 V.E.Par[17] = 221.67 V.E.Par[18] = 17.07
N000000540 V.E.Par[15] = 218.27 V.E.Par[16] = 17.07
N000000541 M111 M101
N000000542 G81
N000000543 $GOTO [100019]
N000000544 $ENDIF
N000000545 $IF V.E.Par[78] == 0
N000000546 D1 G41
N000000547 G01 X222.3 Y16.44 FP60
N000000548 $IF V.E.Par[84] == 1
N000000549 M43
N000000550 $ENDIF
N000000551 $ENDIF
N000000552 D1 G41
N000000553 G03 X220.96 Y17.64 I-0.7 J0.56 FP70
N000000554 G03 X222.24 Y16.36 I0.64 J-0.64
N000000555 G804
N000000556 G40 G01 X222.24 Y16.36
N000000557 V.E.Par[17] = 222.24 V.E.Par[18] = 16.36
N000000558 V.E.Par[15] = 218.27 V.E.Par[16] = 17.07
N000000559 V.E.Par[82] = 218.9 V.E.Par[83] = 16.44
N000000560 M111 M101
N000000561 G81
N000000562 [100020] V.E.Kparams[2] = 1 V.E.Kparams[3] = 20
N000000563 V.E.Par[80] = 218.27 V.E.Par[81] = 17.07
N000000564 V.E.Par[82] = 218.9 V.E.Par[83] = 16.44
N000000565 M111 M101
N000000566 G812
N000000567 $IF V.E.Kparams[15] == 1 OR V.E.Kparams[15] == 2
N000000568 V.E.Par[17] = 218.27 V.E.Par[18] = 17.07
N000000569 V.E.Par[15] = 214.87 V.E.Par[16] = 17.07
N000000570 M111 M101
N000000571 G81
N000000572 $GOTO [100020]
N000000573 $ENDIF
N000000574 $IF V.E.Par[78] == 0
N000000575 D1 G41
N000000576 G01 X218.9 Y16.44 FP60
N000000577 $IF V.E.Par[84] == 1
N000000578 M43
N000000579 $ENDIF
N000000580 $ENDIF
N000000581 D1 G41
N000000582 G03 X217.56 Y17.64 I-0.7 J0.56 FP70
N000000583 G03 X218.84 Y16.36 I0.64 J-0.64
N000000584 G804
N000000585 G40 G01 X218.84 Y16.36
N000000586 V.E.Par[17] = 218.84 V.E.Par[18] = 16.36
N000000587 V.E.Par[15] = 214.87 V.E.Par[16] = 17.07
N000000588 V.E.Par[82] = 215.5 V.E.Par[83] = 16.44
N000000589 M111 M101
N000000590 G81
N000000591 [100021] V.E.Kparams[2] = 1 V.E.Kparams[3] = 21
N000000592 V.E.Par[80] = 214.87 V.E.Par[81] = 17.07
N000000593 V.E.Par[82] = 215.5 V.E.Par[83] = 16.44
N000000594 M111 M101
N000000595 G812
N000000596 $IF V.E.Kparams[15] == 1 OR V.E.Kparams[15] == 2
N000000597 V.E.Par[17] = 214.87 V.E.Par[18] = 17.07
N000000598 V.E.Par[15] = 211.47 V.E.Par[16] = 17.07
N000000599 M111 M101
N000000600 G81
N000000601 $GOTO [100021]
N000000602 $ENDIF
N000000603 $IF V.E.Par[78] == 0
N000000604 D1 G41
N000000605 G01 X215.5 Y16.44 FP60
N000000606 $IF V.E.Par[84] == 1
N000000607 M43
N000000608 $ENDIF
N000000609 $ENDIF
N000000610 D1 G41
N000000611 G03 X214.16 Y17.64 I-0.7 J0.56 FP70
N000000612 G03 X215.44 Y16.36 I0.64 J-0.64
N000000613 G804
N000000614 G40 G01 X215.44 Y16.36
N000000615 V.E.Par[17] = 215.44 V.E.Par[18] = 16.36
N000000616 V.E.Par[15] = 211.47 V.E.Par[16] = 17.07
N000000617 V.E.Par[82] = 212.1 V.E.Par[83] = 16.44
N000000618 M111 M101
N000000619 G81
N000000620 [100022] V.E.Kparams[2] = 1 V.E.Kparams[3] = 22
N000000621 V.E.Par[80] = 211.47 V.E.Par[81] = 17.07
N000000622 V.E.Par[82] = 212.1 V.E.Par[83] = 16.44
N000000623 M111 M101
N000000624 G812
N000000625 $IF V.E.Kparams[15] == 1 OR V.E.Kparams[15] == 2
N000000626 V.E.Par[17] = 211.47 V.E.Par[18] = 17.07
N000000627 V.E.Par[15] = 295.5 V.E.Par[16] = 9.4
N000000628 M111 M101
N000000629 G81
N000000630 $GOTO [100022]
N000000631 $ENDIF
N000000632 $IF V.E.Par[78] == 0
N000000633 D1 G41
N000000634 G01 X212.1 Y16.44 FP60
N000000635 $IF V.E.Par[84] == 1
N000000636 M43
N000000637 $ENDIF
N000000638 $ENDIF
N000000639 D1 G41
N000000640 G03 X210.76 Y17.64 I-0.7 J0.56 FP70
N000000641 G03 X212.04 Y16.36 I0.64 J-0.64
N000000642 G804
N000000643 G40 G01 X212.04 Y16.36
N000000644 V.E.Par[17] = 212.04 V.E.Par[18] = 16.36
N000000645 V.E.Par[15] = 295.5 V.E.Par[16] = 9.4
N000000646 V.E.Par[82] = 290.5 V.E.Par[83] = 9.4
N000000647 M111 M101
N000000648 G81
N000000649 [100023] V.E.Kparams[2] = 1 V.E.Kparams[3] = 23
N000000650 V.E.Par[80] = 295.5 V.E.Par[81] = 9.4
N000000651 V.E.Par[82] = 290.5 V.E.Par[83] = 9.4
N000000652 M111 M101
N000000653 G812
N000000654 $IF V.E.Kparams[15] == 1 OR V.E.Kparams[15] == 2
N000000655 V.E.Par[17] = 295.5 V.E.Par[18] = 9.4
N000000656 V.E.Par[15] = 32.44 V.E.Par[16] = 57
N000000657 M111 M101
N000000658 G81
N000000659 G818
N000000660 $GOTO [100001]
N000000661 $ENDIF
N000000662 $IF V.E.Par[78] == 0
N000000663 D2 G41
N000000664 G01 X290.5 Y9.4 FP60
N000000665 $IF V.E.Par[84] == 1
N000000666 M43
N000000667 $ENDIF
N000000668 $ENDIF
N000000669 D2 G41
N000000670 G01 X279.8 Y9.4 FP70
N000000671 G01 X279.8 Y6.9
N000000672 G01 X229.4 Y6.9
N000000673 G01 X229.4 Y16.9
N000000674 G01 X223.1 Y16.9
N000000675 G01 X223.1 Y6.9
N000000676 G01 X209.9 Y6.9
N000000677 G01 X209.9 Y16.9
N000000678 G01 X203.6 Y16.9
N000000679 G01 X203.6 Y6.9
N000000680 G01 X102.9 Y6.9
N000000681 G01 X102.9 Y18.9
N000000682 G01 X43.1 Y18.9
N000000683 G01 X43.1 Y6.9
N000000684 G01 X27.2 Y6.9
N000000685 G01 X27.2 Y9.4
N000000686 G01 X16.4 Y9.4
N000000687 G01 X16.4 Y22.4
N000000688 G01 X6.9 Y22.4
N000000689 G01 X6.9 Y39.1
N000000690 G01 X17.6 Y39.1
N000000691 G01 X17.6 Y51.6
N000000692 G01 X27.2 Y51.6
N000000693 G01 X27.2 Y63.54
N000000694 G01 X34.4 Y70.74
N000000695 G01 X34.4 Y100.04
N000000696 G01 X93.96 Y159.6
N000000697 G01 X117.9 Y159.6
N000000698 G01 X117.9 Y169.1
N000000699 G01 X189.1 Y169.1
N000000700 G01 X189.1 Y159.6
N000000701 G01 X213.04 Y159.6
N000000702 G01 X272.6 Y100.04
N000000703 G01 X272.6 Y70.74
N000000704 G01 X279.8 Y63.54
N000000705 G01 X279.8 Y51.6
N000000706 G01 X289.4 Y51.6
N000000707 G01 X289.4 Y39.1
N000000708 G01 X300.1 Y39.1
N000000709 G01 X300.1 Y22.4
N000000710 G01 X290.6 Y22.4
N000000711 G01 X290.6 Y9.5
N000000712 G804
N000000713 G40 D0
N000000714 G809
N000000715 G0 X0 Y0
N000000716 G53
N000000717 $IF V.E.Kparams[10] == 1
N000000718 G819
N000000719 $GOTO N000000001
N000000720 $ENDIF
N000000721 M30
