N000000001:( ******* LASER CUTTING MACHINE    ****** )
N000000002 ( *************************************** )
N000000003 ( DATE      : 22/06/2022  )
N000000004 ( MATERIAL    : Al99  )
N000000005 ( THICKNESS   : 0.8  )
N000000006 ( SHEET SIZE  : 156.62 x 223.63  )
N000000007 ( TOTAL TIME   : 00:00:10  )
N000000008 ( *************************************** )
N000000009 V.E.Par[55] = 156.62
N000000010 V.E.Par[56] = 223.63
N000000011 V.E.Par[46] = 0
N000000012 V.E.Par[47] = 0.8
N000000013 V.E.Par[48] = 1
N000000014 V.E.Par[49] = 1
N000000015 V.E.Par[50] = 9
N000000016 M40=0
N000000017 G810
N000000018 G808
N000000019 G54
N000000020 $IF V.E.Kparams[0] == 1
N000000021 M121
N000000022 $GOTO V.E.LineNumber
N000000023 $ENDIF
N000000024 ( ************** START ***************** )
N000000025 ;( PART NAME 1    :DXFPAR0105)
N000000026 [100002] V.E.Kparams[2] = 1 V.E.Kparams[3] = 2
N000000027 V.E.Par[80] = 27.81 V.E.Par[81] = 22.9
N000000028 V.E.Par[82] = 28.24 V.E.Par[83] = 18.02
N000000029 M111 M101
N000000030 G812
N000000031 $IF V.E.Kparams[15] == 1 OR V.E.Kparams[15] == 2
N000000032 V.E.Par[17] = 27.81 V.E.Par[18] = 22.9
N000000033 V.E.Par[15] = 56.15 V.E.Par[16] = 141.05
N000000034 M111 M101
N000000035 G81
N000000036 $GOTO [100002]
N000000037 $ENDIF
N000000038 $IF V.E.Par[78] == 0
N000000039 D1 G41
N000000040 G01 X28.24 Y18.02 FP60
N000000041 $IF V.E.Par[84] == 1
N000000042 M43
N000000043 $ENDIF
N000000044 $ENDIF
N000000045 D1 G41
N000000046 G03 X33.05 Y23.86 I-0.57 J5.37 FP70
N000000047 G02 X42.99 Y80.24 I110.18 J9.64
N000000048 G03 X33.2 Y84.8 I-4.89 J2.28
N000000049 G03 X22.29 Y22.92 I110.02 J-51.31
N000000050 G03 X28.14 Y18.01 I5.38 J0.47
N000000051 G804
N000000052 G40 G01 X28.14 Y18.01
N000000053 V.E.Par[17] = 28.14 V.E.Par[18] = 18.01
N000000054 V.E.Par[15] = 56.15 V.E.Par[16] = 141.05
N000000055 V.E.Par[82] = 58.21 V.E.Par[83] = 138.99
N000000056 M111 M101
N000000057 G81
N000000058 [100003] V.E.Kparams[2] = 1 V.E.Kparams[3] = 3
N000000059 V.E.Par[80] = 56.15 V.E.Par[81] = 141.05
N000000060 V.E.Par[82] = 58.21 V.E.Par[83] = 138.99
N000000061 M111 M101
N000000062 G812
N000000063 $IF V.E.Kparams[15] == 1 OR V.E.Kparams[15] == 2
N000000064 V.E.Par[17] = 56.15 V.E.Par[18] = 141.05
N000000065 V.E.Par[15] = 72.54 V.E.Par[16] = 152.52
N000000066 M111 M101
N000000067 G81
N000000068 $GOTO [100003]
N000000069 $ENDIF
N000000070 $IF V.E.Par[78] == 0
N000000071 D1 G41
N000000072 G01 X58.2 Y138.99 FP60
N000000073 $IF V.E.Par[84] == 1
N000000074 M43
N000000075 $ENDIF
N000000076 $ENDIF
N000000077 D1 G41
N000000078 G03 X51.91 Y145.15 I-3.18 J3.04 FP70
N000000079 G03 X58.13 Y138.92 I3.11 J-3.11
N000000080 G804
N000000081 G40 G01 X58.13 Y138.92
N000000082 V.E.Par[17] = 58.13 V.E.Par[18] = 138.92
N000000083 V.E.Par[15] = 72.54 V.E.Par[16] = 152.52
N000000084 V.E.Par[82] = 74.59 V.E.Par[83] = 150.47
N000000085 M111 M101
N000000086 G81
N000000087 [100004] V.E.Kparams[2] = 1 V.E.Kparams[3] = 4
N000000088 V.E.Par[80] = 72.54 V.E.Par[81] = 152.52
N000000089 V.E.Par[82] = 74.59 V.E.Par[83] = 150.47
N000000090 M111 M101
N000000091 G812
N000000092 $IF V.E.Kparams[15] == 1 OR V.E.Kparams[15] == 2
N000000093 V.E.Par[17] = 72.54 V.E.Par[18] = 152.52
N000000094 V.E.Par[15] = 60.49 V.E.Par[16] = 169.72
N000000095 M111 M101
N000000096 G81
N000000097 $GOTO [100004]
N000000098 $ENDIF
N000000099 $IF V.E.Par[78] == 0
N000000100 D1 G41
N000000101 G01 X74.59 Y150.47 FP60
N000000102 $IF V.E.Par[84] == 1
N000000103 M43
N000000104 $ENDIF
N000000105 $ENDIF
N000000106 D1 G41
N000000107 G03 X68.3 Y156.62 I-3.18 J3.04 FP70
N000000108 G03 X74.52 Y150.4 I3.11 J-3.11
N000000109 G804
N000000110 G40 G01 X74.52 Y150.4
N000000111 V.E.Par[17] = 74.52 V.E.Par[18] = 150.4
N000000112 V.E.Par[15] = 60.49 V.E.Par[16] = 169.72
N000000113 V.E.Par[82] = 62.54 V.E.Par[83] = 167.67
N000000114 M111 M101
N000000115 G81
N000000116 [100005] V.E.Kparams[2] = 1 V.E.Kparams[3] = 5
N000000117 V.E.Par[80] = 60.49 V.E.Par[81] = 169.72
N000000118 V.E.Par[82] = 62.54 V.E.Par[83] = 167.67
N000000119 M111 M101
N000000120 G812
N000000121 $IF V.E.Kparams[15] == 1 OR V.E.Kparams[15] == 2
N000000122 V.E.Par[17] = 60.49 V.E.Par[18] = 169.72
N000000123 V.E.Par[15] = 44.11 V.E.Par[16] = 158.25
N000000124 M111 M101
N000000125 G81
N000000126 $GOTO [100005]
N000000127 $ENDIF
N000000128 $IF V.E.Par[78] == 0
N000000129 D1 G41
N000000130 G01 X62.54 Y167.67 FP60
N000000131 $IF V.E.Par[84] == 1
N000000132 M43
N000000133 $ENDIF
N000000134 $ENDIF
N000000135 D1 G41
N000000136 G03 X56.25 Y173.82 I-3.18 J3.04 FP70
N000000137 G03 X62.47 Y167.6 I3.11 J-3.11
N000000138 G804
N000000139 G40 G01 X62.47 Y167.6
N000000140 V.E.Par[17] = 62.47 V.E.Par[18] = 167.6
N000000141 V.E.Par[15] = 44.11 V.E.Par[16] = 158.25
N000000142 V.E.Par[82] = 46.16 V.E.Par[83] = 156.2
N000000143 M111 M101
N000000144 G81
N000000145 [100006] V.E.Kparams[2] = 1 V.E.Kparams[3] = 6
N000000146 V.E.Par[80] = 44.11 V.E.Par[81] = 158.25
N000000147 V.E.Par[82] = 46.16 V.E.Par[83] = 156.2
N000000148 M111 M101
N000000149 G812
N000000150 $IF V.E.Kparams[15] == 1 OR V.E.Kparams[15] == 2
N000000151 V.E.Par[17] = 44.11 V.E.Par[18] = 158.25
N000000152 V.E.Par[15] = 23.75 V.E.Par[16] = 187.33
N000000153 M111 M101
N000000154 G81
N000000155 $GOTO [100006]
N000000156 $ENDIF
N000000157 $IF V.E.Par[78] == 0
N000000158 D1 G41
N000000159 G01 X46.16 Y156.2 FP60
N000000160 $IF V.E.Par[84] == 1
N000000161 M43
N000000162 $ENDIF
N000000163 $ENDIF
N000000164 D1 G41
N000000165 G03 X39.87 Y162.35 I-3.18 J3.04 FP70
N000000166 G03 X46.09 Y156.13 I3.11 J-3.11
N000000167 G804
N000000168 G40 G01 X46.09 Y156.13
N000000169 V.E.Par[17] = 46.09 V.E.Par[18] = 156.13
N000000170 V.E.Par[15] = 23.75 V.E.Par[16] = 187.33
N000000171 V.E.Par[82] = 25.8 V.E.Par[83] = 185.28
N000000172 M111 M101
N000000173 G81
N000000174 [100007] V.E.Kparams[2] = 1 V.E.Kparams[3] = 7
N000000175 V.E.Par[80] = 23.75 V.E.Par[81] = 187.33
N000000176 V.E.Par[82] = 25.8 V.E.Par[83] = 185.28
N000000177 M111 M101
N000000178 G812
N000000179 $IF V.E.Kparams[15] == 1 OR V.E.Kparams[15] == 2
N000000180 V.E.Par[17] = 23.75 V.E.Par[18] = 187.33
N000000181 V.E.Par[15] = 40.13 V.E.Par[16] = 198.8
N000000182 M111 M101
N000000183 G81
N000000184 $GOTO [100007]
N000000185 $ENDIF
N000000186 $IF V.E.Par[78] == 0
N000000187 D1 G41
N000000188 G01 X25.8 Y185.28 FP60
N000000189 $IF V.E.Par[84] == 1
N000000190 M43
N000000191 $ENDIF
N000000192 $ENDIF
N000000193 D1 G41
N000000194 G03 X19.51 Y191.43 I-3.18 J3.04 FP70
N000000195 G03 X25.73 Y185.21 I3.11 J-3.11
N000000196 G804
N000000197 G40 G01 X25.73 Y185.21
N000000198 V.E.Par[17] = 25.73 V.E.Par[18] = 185.21
N000000199 V.E.Par[15] = 40.13 V.E.Par[16] = 198.8
N000000200 V.E.Par[82] = 42.18 V.E.Par[83] = 196.75
N000000201 M111 M101
N000000202 G81
N000000203 [100008] V.E.Kparams[2] = 1 V.E.Kparams[3] = 8
N000000204 V.E.Par[80] = 40.13 V.E.Par[81] = 198.8
N000000205 V.E.Par[82] = 42.18 V.E.Par[83] = 196.75
N000000206 M111 M101
N000000207 G812
N000000208 $IF V.E.Kparams[15] == 1 OR V.E.Kparams[15] == 2
N000000209 V.E.Par[17] = 40.13 V.E.Par[18] = 198.8
N000000210 V.E.Par[15] = 133.61 V.E.Par[16] = 149.2
N000000211 M111 M101
N000000212 G81
N000000213 $GOTO [100008]
N000000214 $ENDIF
N000000215 $IF V.E.Par[78] == 0
N000000216 D1 G41
N000000217 G01 X42.18 Y196.75 FP60
N000000218 $IF V.E.Par[84] == 1
N000000219 M43
N000000220 $ENDIF
N000000221 $ENDIF
N000000222 D1 G41
N000000223 G03 X35.89 Y202.9 I-3.18 J3.04 FP70
N000000224 G03 X42.11 Y196.68 I3.11 J-3.11
N000000225 G804
N000000226 G40 G01 X42.11 Y196.68
N000000227 V.E.Par[17] = 42.11 V.E.Par[18] = 196.68
N000000228 V.E.Par[15] = 133.61 V.E.Par[16] = 149.2
N000000229 V.E.Par[82] = 138.49 V.E.Par[83] = 149.63
N000000230 M111 M101
N000000231 G81
N000000232 [100009] V.E.Kparams[2] = 1 V.E.Kparams[3] = 9
N000000233 V.E.Par[80] = 133.61 V.E.Par[81] = 149.2
N000000234 V.E.Par[82] = 138.49 V.E.Par[83] = 149.63
N000000235 M111 M101
N000000236 G812
N000000237 $IF V.E.Kparams[15] == 1 OR V.E.Kparams[15] == 2
N000000238 V.E.Par[17] = 133.61 V.E.Par[18] = 149.2
N000000239 V.E.Par[15] = 52.75 V.E.Par[16] = 8.14
N000000240 M111 M101
N000000241 G81
N000000242 $GOTO [100009]
N000000243 $ENDIF
N000000244 $IF V.E.Par[78] == 0
N000000245 D1 G41
N000000246 G01 X138.49 Y149.63 FP60
N000000247 $IF V.E.Par[84] == 1
N000000248 M43
N000000249 $ENDIF
N000000250 $ENDIF
N000000251 D1 G41
N000000252 G03 X132.65 Y154.44 I-5.37 J-0.57 FP70
N000000253 G03 X73.6 Y132.94 I10.58 J-120.94
N000000254 G03 X79.79 Y124.1 I3.1 J-4.42
N000000255 G02 X133.59 Y143.68 I63.44 J-90.6
N000000256 G03 X138.5 Y149.53 I-0.47 J5.38
N000000257 G804
N000000258 G40 G01 X138.5 Y149.53
N000000259 V.E.Par[17] = 138.5 V.E.Par[18] = 149.53
N000000260 V.E.Par[15] = 52.75 V.E.Par[16] = 8.14
N000000261 V.E.Par[82] = 48.81 V.E.Par[83] = 11.06
N000000262 M111 M101
N000000263 G81
N000000264 [100010] V.E.Kparams[2] = 1 V.E.Kparams[3] = 10
N000000265 V.E.Par[80] = 52.75 V.E.Par[81] = 8.14
N000000266 V.E.Par[82] = 48.81 V.E.Par[83] = 11.06
N000000267 M111 M101
N000000268 G812
N000000269 $IF V.E.Kparams[15] == 1 OR V.E.Kparams[15] == 2
N000000270 V.E.Par[17] = 52.75 V.E.Par[18] = 8.14
N000000271 V.E.Par[15] = 27.81 V.E.Par[16] = 22.9
N000000272 M111 M101
N000000273 G81
N000000274 G818
N000000275 $GOTO [100001]
N000000276 $ENDIF
N000000277 $IF V.E.Par[78] == 0
N000000278 D2 G41
N000000279 G01 X48.81 Y11.05 FP60
N000000280 $IF V.E.Par[84] == 1
N000000281 M43
N000000282 $ENDIF
N000000283 $ENDIF
N000000284 D2 G41
N000000285 G02 X46.65 Y9.89 I-2.43 J1.93 FP70
N000000286 G01 X12.59 Y6.91
N000000287 G02 X9.27 Y9.45 I-0.27 J3.09
N000000288 G02 X39.19 Y121.24 I133.96 J24.05
N000000289 G03 X40.28 Y145.49 I-15.21 J12.83
N000000290 G01 X7.46 Y192.35
N000000291 G02 X8.22 Y196.67 I2.54 J1.78
N000000292 G01 X36.07 Y216.17
N000000293 G02 X40.39 Y215.41 I1.78 J-2.54
N000000294 G01 X73.21 Y168.54
N000000295 G03 X96.36 Y161.27 I16.3 J11.41
N000000296 G02 X143.65 Y169.6 I46.87 J-127.77
N000000297 G02 X146.73 Y166.77 I-0.01 J-3.1
N000000298 G01 X149.71 Y132.71
N000000299 G02 X146.51 Y129.34 I-3.09 J-0.27
N000000300 G03 X49.41 Y13.62 I-3.28 J-95.84
N000000301 G02 X48.87 Y11.13 I-3.03 J-0.64
N000000302 G804
N000000303 G40 D0
N000000304 G809
N000000305 G0 X0 Y0
N000000306 G53
N000000307 $IF V.E.Kparams[10] == 1
N000000308 G819
N000000309 $GOTO N000000001
N000000310 $ENDIF
N000000311 M30
