N10 EXTERN MACHINE_ON (INT)
N11 EXTERN MACHINE_OFF (INT)
N12 EXTERN LASER_ON (INT)
N13 EXTERN LASER_OFF (INT)
N14 EXTERN LASER_STARTP (INT)
N15 EXTERN ORIGEM (INT,INT)
N16 EXTERN TRANSF (INT,INT)
N17 ; CHAPA : 100X100X0.8 MATERIAL : Al99
N18 ; ORDEM : (Smartdeploy -> JOB000003)
N19 INIT_VAR
N20 MS0200
N21 MACHINE_ON(0)
N22 ;ORIGEM(100,100)
N23 ;TRANSF (PX,PY)
N24 G53G00Z95
N25 ;GOTOF "PZ"<<PZ
N26 PZ1:PZ="1";PECA=Pieza_prueba_Maxwell SUB_1 pz1
N27 TRANS X=0 Y=0
N28 REPEAT SUB_1 END
N29 END_VAR
N30 G53G00Z95
N31 MACHINE_OFF(0)
N32 M30

N1000 ;PECA=Pieza_prueba_Maxwell
N1001 SUB_1:
N1002 SUB1_1:SUB="1_1"; (Pieza_prueba_Maxwell) pz1 Cont=1
N1003 G00Z40
N1004 G00X67.845Y48.442F280000
N1005 LASER_STARTP(1)
N1006 LASER_ON(1)
N1007 G01X72.826Y48.008
N1008 G03X75Y50I0.174J1.992
N1009 X25I-25J0
N1010 X75I25J0
N1011 LASER_OFF(0)
N1012 SUB1_2:SUB="1_2"; (Pieza_prueba_Maxwell) pz1 Cont=2
N1013 G00Z40
N1014 G01X32.322Y67.678F280000
N1015 LASER_STARTP(1)
N1016 LASER_ON(1)
N1017 G01X0Y100
N1018 LASER_ON(1)
N1019 G01X90
N1020 G02X100Y90I0J-10
N1021 G01Y0
N1022 X10Y0
N1023 G02X0Y10I0J10
N1024 G01X0Y100
N1025 LASER_OFF(0)
N1026 END:
