N10 EXTERN MACHINE_ON (INT)
N11 EXTERN MACHINE_OFF (INT)
N12 EXTERN LASER_ON (INT)
N13 EXTERN LASER_OFF (INT)
N14 EXTERN LASER_STARTP (INT)
N15 EXTERN ORIGEM (INT,INT)
N16 EXTERN TRANSF (INT,INT)
N17 ; CHAPA : 180X115X0.8 MATERIAL : Al99
N18 ; ORDEM : (Smartdeploy -> JOB000003)
N19 INIT_VAR
N20 MS0200
N21 MACHINE_ON(0)
N22 ;ORIGEM(180,115)
N23 ;TRANSF (PX,PY)
N24 G53G00Z95
N25 ;GOTOF "PZ"<<PZ
N26 PZ1:PZ="1";PECA=Pieza_prueba_Maxwell_2 SUB_1 pz1
N27 TRANS X=0 Y=0
N28 REPEAT SUB_1 END
N29 END_VAR
N30 G53G00Z95
N31 MACHINE_OFF(0)
N32 M30

N1000 ;PECA=Pieza_prueba_Maxwell_2
N1001 SUB_1:
N1002 SUB1_1:SUB="1_1"; (Pieza_prueba_Maxwell_2) pz1 Cont=1
N1003 G00Z40
N1004 G00X52.815Y53.046F280000
N1005 LASER_STARTP(1)
N1006 LASER_ON(1)
N1007 G01X54.148Y48.227
N1008 G03X80.291Y22.085I36.143J10
N1009 G01Y12.085
N1010 X100.291
N1011 Y22.085
N1012 G03X126.433Y48.227I-10J36.142
N1013 G01X155.291
N1014 G03Y68.227I0J10
N1015 G01X126.433
N1016 G03X100.291Y94.369I-36.142J-10
N1017 G01Y104.369
N1018 X80.291
N1019 Y94.369
N1020 G03X54.148Y68.227I10J-36.142
N1021 G01X25.291
N1022 G03Y48.227I0J-10
N1023 G01X54.148
N1024 LASER_OFF(0)
N1025 SUB1_2:SUB="1_2"; (Pieza_prueba_Maxwell_2) pz1 Cont=2
N1026 G00Z40
N1027 G01X27.659Y89.314F280000
N1028 LASER_STARTP(1)
N1029 LASER_ON(1)
N1030 G01X32.5Y88.064
N1031 G03X35Y90I0.5J1.936
N1032 X15I-10J0
N1033 X35I10J0
N1034 LASER_OFF(0)
N1035 SUB1_3:SUB="1_3"; (Pieza_prueba_Maxwell_2) pz1 Cont=3
N1036 G00Z40
N1037 G01X27.659Y24.314F280000
N1038 LASER_STARTP(1)
N1039 LASER_ON(1)
N1040 G01X32.5Y23.064
N1041 G03X35Y25I0.5J1.936
N1042 X15I-10J0
N1043 X35I10J0
N1044 LASER_OFF(0)
N1045 SUB1_4:SUB="1_4"; (Pieza_prueba_Maxwell_2) pz1 Cont=4
N1046 G00Z40
N1047 G01X157.659Y89.314F280000
N1048 LASER_STARTP(1)
N1049 LASER_ON(1)
N1050 G01X162.5Y88.064
N1051 G03X165Y90I0.5J1.936
N1052 X145I-10J0
N1053 X165I10J0
N1054 LASER_OFF(0)
N1055 SUB1_5:SUB="1_5"; (Pieza_prueba_Maxwell_2) pz1 Cont=5
N1056 G00Z40
N1057 G01X157.659Y24.314F280000
N1058 LASER_STARTP(1)
N1059 LASER_ON(1)
N1060 G01X162.5Y23.064
N1061 G03X165Y25I0.5J1.936
N1062 X145I-10J0
N1063 X165I10J0
N1064 LASER_OFF(0)
N1065 SUB1_6:SUB="1_6"; (Pieza_prueba_Maxwell_2) pz1 Cont=6
N1066 G00Z40
N1067 G01X180Y25F280000
N1068 LASER_STARTP(1)
N1069 LASER_ON(1)
N1070 G02X155Y0I-25J0
N1071 G01X25Y0
N1072 G02X0Y25I0J25
N1073 G01X0Y90
N1074 G02X25Y115I25J0
N1075 G01X155
N1076 G02X180Y90I0J-25
N1077 G01Y25
N1078 LASER_OFF(0)
N1079 END:
