N10 EXTERN MACHINE_ON (INT)
N11 EXTERN MACHINE_OFF (INT)
N12 EXTERN LASER_ON (INT)
N13 EXTERN LASER_OFF (INT)
N14 EXTERN LASER_STARTP (INT)
N15 EXTERN ORIGEM (INT,INT)
N16 EXTERN TRANSF (INT,INT)
N17 ; CHAPA : 225.3X87X0.8 MATERIAL : Al99
N18 ; ORDEM : (Smartdeploy -> JOB000003)
N19 INIT_VAR
N20 MS0200
N21 MACHINE_ON(0)
N22 ;ORIGEM(225.262,86.989)
N23 ;TRANSF (PX,PY)
N24 G53G00Z95
N25 ;GOTOF "PZ"<<PZ
N26 PZ1:PZ="1";PECA=DXFPART7 SUB_1 pz1
N27 TRANS X=0 Y=0
N28 REPEAT SUB_1 END
N29 END_VAR
N30 G53G00Z95
N31 MACHINE_OFF(0)
N32 M30

N1000 ;PECA=DXFPART7
N1001 SUB_1:
N1002 SUB1_1:SUB="1_1"; (DXFPART7) pz1 Cont=1
N1003 G00Z40
N1004 G00X34.144Y32.322F280000
N1005 LASER_STARTP(1)
N1006 LASER_ON(1)
N1007 G02X0Y86.989I82.728J89.668
N1008 G01X10.872
N1009 Y82.989
N1010 X32.872
N1011 Y86.989
N1012 X44.872
N1013 X85.992Y64.789
N1014 G03X132.126Y58.805I30.88J57.2
N1015 G01X149.872Y76.989
N1016 X160.402
N1017 X161.872Y64.989
N1018 X171.872
N1019 X173.342Y76.989
N1020 X184.602
N1021 X184.882Y71.519
N1022 G03X200.236Y65.626I8.99J0.47
N1023 G01X208.872Y74.259
N1024 Y65.989
N1025 X225.262
N1026 G02X146.781Y3.713I-108.39J56.001
N1027 G03X114.996Y0I-15.909J-1.724
N1028 G02X46.513Y22.322I1.876J121.99
N1029 G03X34.144Y32.318I-5.641J5.667
N1030 LASER_OFF(0)
N1031 END:
