N10 EXTERN MACHINE_ON (INT)
N11 EXTERN MACHINE_OFF (INT)
N12 EXTERN LASER_ON (INT)
N13 EXTERN LASER_OFF (INT)
N14 EXTERN LASER_STARTP (INT)
N15 EXTERN ORIGEM (INT,INT)
N16 EXTERN TRANSF (INT,INT)
N17 ; CHAPA : 293X162X0.8 MATERIAL : Al99
N18 ; ORDEM : (Smartdeploy -> JOB000003)
N19 INIT_VAR
N20 MS0200
N21 MACHINE_ON(0)
N22 ;ORIGEM(293,162)
N23 ;TRANSF (PX,PY)
N24 G53G00Z95
N25 ;GOTOF "PZ"<<PZ
N26 PZ1:PZ="1";PECA=DXFPUNC0 SUB_1 pz1
N27 TRANS X=0 Y=0
N28 REPEAT SUB_1 END
N29 END_VAR
N30 G53G00Z95
N31 MACHINE_OFF(0)
N32 M30

N1000 ;PECA=DXFPUNC0
N1001 SUB_1:
N1002 SUB1_1:SUB="1_1"; (DXFPUNC0) pz1 Cont=1
N1003 G00Z40
N1004 G00X48.972Y59.571F280000
N1005 LASER_STARTP(1)
N1006 LASER_ON(1)
N1007 G01X50.097Y58.922
N1008 G03X51.222Y59.571I0.375J0.649
N1009 X46.722I-2.25J0
N1010 X51.222I2.25J0
N1011 LASER_OFF(0)
N1012 SUB1_2:SUB="1_2"; (DXFPUNC0) pz1 Cont=2
N1013 G00Z40
N1014 G01X69.1Y46.5F280000
N1015 LASER_STARTP(1)
N1016 LASER_ON(1)
N1017 G01X70.225Y45.85
N1018 G03X71.35Y46.5I0.375J0.65
N1019 X66.85I-2.25J0
N1020 X71.35I2.25J0
N1021 LASER_OFF(0)
N1022 SUB1_3:SUB="1_3"; (DXFPUNC0) pz1 Cont=3
N1023 G00Z40
N1024 G01X67.503Y60.653F280000
N1025 LASER_STARTP(1)
N1026 LASER_ON(1)
N1027 G01X64.987Y62.287
N1028 G03X63.353Y59.771I-0.817J-1.258
N1029 G01X76.982Y50.92
N1030 G03X82.428Y59.307I2.723J4.194
N1031 G01X55.171Y77.008
N1032 G03X49.725Y68.621I-2.723J-4.194
N1033 G01X63.353Y59.771
N1034 LASER_OFF(0)
N1035 SUB1_4:SUB="1_4"; (DXFPUNC0) pz1 Cont=4
N1036 G00Z40
N1037 G01X89.6Y39F280000
N1038 LASER_STARTP(1)
N1039 LASER_ON(1)
N1040 G01X90.725Y38.35
N1041 G03X91.85Y39I0.375J0.65
N1042 X87.35I-2.25J0
N1043 X91.85I2.25J0
N1044 LASER_OFF(0)
N1045 SUB1_5:SUB="1_5"; (DXFPUNC0) pz1 Cont=5
N1046 G00Z40
N1047 G01X106.5Y148F280000
N1048 LASER_STARTP(1)
N1049 LASER_ON(1)
N1050 G01X107.375Y147.495
N1051 G03X108.25Y148I0.292J0.505
N1052 X104.75I-1.75J0
N1053 X108.25I1.75J0
N1054 LASER_OFF(0)
N1055 SUB1_6:SUB="1_6"; (DXFPUNC0) pz1 Cont=6
N1056 G00Z40
N1057 G01X25.3Y50F280000
N1058 LASER_STARTP(1)
N1059 LASER_ON(1)
N1060 G01X26.85Y49.105
N1061 G03X28.4Y50I0.517J0.895
N1062 X22.2I-3.1J0
N1063 X28.4I3.1J0
N1064 LASER_OFF(0)
N1065 SUB1_7:SUB="1_7"; (DXFPUNC0) pz1 Cont=7
N1066 G00Z40
N1067 G01X267.7Y50F280000
N1068 LASER_STARTP(1)
N1069 LASER_ON(1)
N1070 G01X269.25Y49.105
N1071 G03X270.8Y50I0.517J0.895
N1072 X264.6I-3.1J0
N1073 X270.8I3.1J0
N1074 LASER_OFF(0)
N1075 SUB1_8:SUB="1_8"; (DXFPUNC0) pz1 Cont=8
N1076 G00Z40
N1077 G01X94.69Y76.257F280000
N1078 LASER_STARTP(1)
N1079 LASER_ON(1)
N1080 G01X96.857
N1081 G03X98.25Y77.65I0J1.393
N1082 G01Y84.3
N1083 X91.75
N1084 Y74.3
N1085 X98.25
N1086 Y77.65
N1087 LASER_OFF(0)
N1088 SUB1_9:SUB="1_9"; (DXFPUNC0) pz1 Cont=9
N1089 G00Z40
N1090 G01X186.5Y148F280000
N1091 LASER_STARTP(1)
N1092 LASER_ON(1)
N1093 G01X187.375Y147.495
N1094 G03X188.25Y148I0.292J0.505
N1095 X184.75I-1.75J0
N1096 X188.25I1.75J0
N1097 LASER_OFF(0)
N1098 SUB1_10:SUB="1_10"; (DXFPUNC0) pz1 Cont=10
N1099 G00Z40
N1100 G01X59.036Y53.036F280000
N1101 LASER_STARTP(1)
N1102 LASER_ON(1)
N1103 G01X59.836Y52.574
N1104 G03X60.636Y53.036I0.267J0.462
N1105 X57.436I-1.6J0
N1106 X60.636I1.6J0
N1107 LASER_OFF(0)
N1108 SUB1_11:SUB="1_11"; (DXFPUNC0) pz1 Cont=11
N1109 G00Z40
N1110 G01X32.5Y77.5F280000
N1111 LASER_STARTP(1)
N1112 LASER_ON(1)
N1113 G01X34.05Y76.605
N1114 G03X35.6Y77.5I0.517J0.895
N1115 X29.4I-3.1J0
N1116 X35.6I3.1J0
N1117 LASER_OFF(0)
N1118 SUB1_12:SUB="1_12"; (DXFPUNC0) pz1 Cont=12
N1119 G00Z40
N1120 G01X260.5Y77.5F280000
N1121 LASER_STARTP(1)
N1122 LASER_ON(1)
N1123 G01X262.05Y76.605
N1124 G03X263.6Y77.5I0.517J0.895
N1125 X257.4I-3.1J0
N1126 X263.6I3.1J0
N1127 LASER_OFF(0)
N1128 SUB1_13:SUB="1_13"; (DXFPUNC0) pz1 Cont=13
N1129 G00Z40
N1130 G01X204.4Y10F280000
N1131 LASER_STARTP(1)
N1132 LASER_ON(1)
N1133 G01X204.9Y9.711
N1134 G03X205.4Y10I0.167J0.289
N1135 X203.4I-1J0
N1136 X205.4I1J0
N1137 LASER_OFF(0)
N1138 SUB1_14:SUB="1_14"; (DXFPUNC0) pz1 Cont=14
N1139 G00Z40
N1140 G01X207.8Y10F280000
N1141 LASER_STARTP(1)
N1142 LASER_ON(1)
N1143 G01X208.3Y9.711
N1144 G03X208.8Y10I0.167J0.289
N1145 X206.8I-1J0
N1146 X208.8I1J0
N1147 LASER_OFF(0)
N1148 SUB1_15:SUB="1_15"; (DXFPUNC0) pz1 Cont=15
N1149 G00Z40
N1150 G01X211.2Y10F280000
N1151 LASER_STARTP(1)
N1152 LASER_ON(1)
N1153 G01X211.7Y9.711
N1154 G03X212.2Y10I0.167J0.289
N1155 X210.2I-1J0
N1156 X212.2I1J0
N1157 LASER_OFF(0)
N1158 SUB1_16:SUB="1_16"; (DXFPUNC0) pz1 Cont=16
N1159 G00Z40
N1160 G01X214.6Y10F280000
N1161 LASER_STARTP(1)
N1162 LASER_ON(1)
N1163 G01X215.1Y9.711
N1164 G03X215.6Y10I0.167J0.289
N1165 X213.6I-1J0
N1166 X215.6I1J0
N1167 LASER_OFF(0)
N1168 SUB1_17:SUB="1_17"; (DXFPUNC0) pz1 Cont=17
N1169 G00Z40
N1170 G01X42.6Y39F280000
N1171 LASER_STARTP(1)
N1172 LASER_ON(1)
N1173 G01X43.725Y38.35
N1174 G03X44.85Y39I0.375J0.65
N1175 X40.35I-2.25J0
N1176 X44.85I2.25J0
N1177 LASER_OFF(0)
N1178 SUB1_18:SUB="1_18"; (DXFPUNC0) pz1 Cont=18
N1179 G00Z40
N1180 G01X198.31Y80.693F280000
N1181 LASER_STARTP(1)
N1182 LASER_ON(1)
N1183 G01X196.143
N1184 G03X194.75Y79.3I0J-1.393
N1185 G01Y74.3
N1186 X201.25
N1187 Y84.3
N1188 X194.75
N1189 Y79.3
N1190 LASER_OFF(0)
N1191 SUB1_19:SUB="1_19"; (DXFPUNC0) pz1 Cont=19
N1192 G00Z40
N1193 G01X145.225Y148.958F280000
N1194 LASER_STARTP(1)
N1195 LASER_ON(1)
N1196 G01X143.35
N1197 G03Y148.558I0J-0.2
N1198 G01X149.85
N1199 G03Y149.358I0J0.4
N1200 G01X143.15
N1201 G03Y148.558I0J-0.4
N1202 G01X143.35
N1203 LASER_OFF(0)
N1204 SUB1_20:SUB="1_20"; (DXFPUNC0) pz1 Cont=20
N1205 G00Z40
N1206 G01X225.678Y116.69F280000
N1207 LASER_STARTP(1)
N1208 LASER_ON(1)
N1209 G01X224.352Y118.016
N1210 G03X224.07Y117.733I-0.141J-0.142
N1211 G01X228.666Y113.137
N1212 G03X229.231Y113.702I0.283J0.282
N1213 G01X224.494Y118.44
N1214 G03X223.928Y117.874I-0.283J-0.283
N1215 G01X224.07Y117.733
N1216 LASER_OFF(0)
N1217 SUB1_21:SUB="1_21"; (DXFPUNC0) pz1 Cont=21
N1218 G00Z40
N1219 G01X65.519Y114.887F280000
N1220 LASER_STARTP(1)
N1221 LASER_ON(1)
N1222 G01X64.193Y113.561
N1223 G03X64.476Y113.278I0.141J-0.142
N1224 G01X69.072Y117.874
N1225 G03X68.506Y118.44I-0.283J0.283
N1226 G01X63.769Y113.702
N1227 G03X64.334Y113.137I0.282J-0.283
N1228 G01X64.476Y113.278
N1229 LASER_OFF(0)
N1230 SUB1_22:SUB="1_22"; (DXFPUNC0) pz1 Cont=22
N1231 G00Z40
N1232 G01X87Y152.5F280000
N1233 LASER_STARTP(1)
N1234 LASER_ON(1)
N1235 G01X111
N1236 Y162
N1237 X182
N1238 Y152.5
N1239 X206
N1240 X265.5Y93
N1241 Y63.7
N1242 X272.7Y56.5
N1243 Y44.5
N1244 X282.3
N1245 Y32
N1246 X293
N1247 Y15.5
N1248 X283.5
N1249 Y2.5
N1250 X272.7
N1251 Y0
N1252 X222.5Y0
N1253 Y10
N1254 X216
N1255 Y0
N1256 X203Y0
N1257 Y10
N1258 X196.5
N1259 Y0
N1260 X96Y0
N1261 Y12
N1262 X36
N1263 Y0
N1264 X20.3Y0
N1265 Y2.5
N1266 X9.5
N1267 Y15.5
N1268 X0
N1269 X0Y32
N1270 X10.7
N1271 Y44.5
N1272 X20.3
N1273 Y56.5
N1274 X27.5Y63.7
N1275 Y93
N1276 X87Y152.5
N1277 LASER_OFF(0)
N1278 END:
