N10 EXTERN MACHINE_ON (INT)
N11 EXTERN MACHINE_OFF (INT)
N12 EXTERN LASER_ON (INT)
N13 EXTERN LASER_OFF (INT)
N14 EXTERN LASER_STARTP (INT)
N15 EXTERN ORIGEM (INT,INT)
N16 EXTERN TRANSF (INT,INT)
N17 ; CHAPA : 203.3X175.3X0.8 MATERIAL : Al99
N18 ; ORDEM : (Smartdeploy -> JOB000003)
N19 INIT_VAR
N20 MS0200
N21 MACHINE_ON(0)
N22 ;ORIGEM(203.333,175.257)
N23 ;TRANSF (PX,PY)
N24 G53G00Z95
N25 ;GOTOF "PZ"<<PZ
N26 PZ1:PZ="1";PECA=DXFPAR0105 SUB_1 pz1
N27 TRANS X=0 Y=0
N28 REPEAT SUB_1 END
N29 END_VAR
N30 G53G00Z95
N31 MACHINE_OFF(0)
N32 M30

N1000 ;PECA=DXFPAR0105
N1001 SUB_1:
N1002 SUB1_1:SUB="1_1"; (DXFPAR0105) pz1 Cont=1
N1003 G00Z40
N1004 G00X149.668Y74.79F280000
N1005 LASER_STARTP(1)
N1006 LASER_ON(1)
N1007 G01X146.731Y75.399
N1008 G03X146.122Y72.461I-0.305J-1.469
N1009 G02X178.962Y59.953I-22.41J-108.204
N1010 G03X184.462Y69.479I2.75J4.763
N1011 X123.712Y85.757I-60.75J-105.222
N1012 Y74.757I0J-5.5
N1013 G02X146.122Y72.461I0J-110.5
N1014 LASER_OFF(0)
N1015 SUB1_2:SUB="1_2"; (DXFPAR0105) pz1 Cont=2
N1016 G00Z40
N1017 G01X40.966Y42.003F280000
N1018 LASER_STARTP(1)
N1019 LASER_ON(1)
N1020 G01X38.97Y39.763
N1021 G03X41.21Y37.767I1.12J-0.998
N1022 G02X68.462Y59.953I82.502J-73.51
N1023 G03X62.962Y69.479I-2.75J4.763
N1024 X18.49Y25.007I60.75J-105.222
N1025 X28.016Y19.507I4.763J-2.75
N1026 G02X41.21Y37.767I95.696J-55.25
N1027 LASER_OFF(0)
N1028 SUB1_3:SUB="1_3"; (DXFPAR0105) pz1 Cont=3
N1029 G00Z40
N1030 G01X113.712Y103.757F280000
N1031 LASER_STARTP(1)
N1032 LASER_ON(1)
N1033 G01X115.962Y102.458
N1034 G03X118.212Y103.757I0.75J1.299
N1035 X109.212I-4.5J0
N1036 X118.212I4.5J0
N1037 LASER_OFF(0)
N1038 SUB1_4:SUB="1_4"; (DXFPAR0105) pz1 Cont=4
N1039 G00Z40
N1040 G01X113.712Y124.757F280000
N1041 LASER_STARTP(1)
N1042 LASER_ON(1)
N1043 G01X115.962Y123.458
N1044 G03X118.212Y124.757I0.75J1.299
N1045 X109.212I-4.5J0
N1046 X118.212I4.5J0
N1047 LASER_OFF(0)
N1048 SUB1_5:SUB="1_5"; (DXFPAR0105) pz1 Cont=5
N1049 G00Z40
N1050 G01X113.712Y160.257F280000
N1051 LASER_STARTP(1)
N1052 LASER_ON(1)
N1053 G01X115.962Y158.958
N1054 G03X118.212Y160.257I0.75J1.299
N1055 X109.212I-4.5J0
N1056 X118.212I4.5J0
N1057 LASER_OFF(0)
N1058 SUB1_6:SUB="1_6"; (DXFPAR0105) pz1 Cont=6
N1059 G00Z40
N1060 G01X133.712Y103.757F280000
N1061 LASER_STARTP(1)
N1062 LASER_ON(1)
N1063 G01X135.962Y102.458
N1064 G03X138.212Y103.757I0.75J1.299
N1065 X129.212I-4.5J0
N1066 X138.212I4.5J0
N1067 LASER_OFF(0)
N1068 SUB1_7:SUB="1_7"; (DXFPAR0105) pz1 Cont=7
N1069 G00Z40
N1070 G01X133.712Y124.757F280000
N1071 LASER_STARTP(1)
N1072 LASER_ON(1)
N1073 G01X135.962Y123.458
N1074 G03X138.212Y124.757I0.75J1.299
N1075 X129.212I-4.5J0
N1076 X138.212I4.5J0
N1077 LASER_OFF(0)
N1078 SUB1_8:SUB="1_8"; (DXFPAR0105) pz1 Cont=8
N1079 G00Z40
N1080 G01X133.712Y160.257F280000
N1081 LASER_STARTP(1)
N1082 LASER_ON(1)
N1083 G01X135.962Y158.958
N1084 G03X138.212Y160.257I0.75J1.299
N1085 X129.212I-4.5J0
N1086 X138.212I4.5J0
N1087 LASER_OFF(0)
N1088 SUB1_9:SUB="1_9"; (DXFPAR0105) pz1 Cont=9
N1089 G00Z40
N1090 G01X143.712Y172.257F280000
N1091 LASER_STARTP(1)
N1092 LASER_ON(1)
N1093 G01Y115.042
N1094 G03X158.583Y95.711I20J0
N1095 G02X202.061Y75.421I-34.871J-131.454
N1096 X202.931Y71.469I-1.728J-2.452
N1097 G01X185.837Y41.862
N1098 G02X181.435Y40.965I-2.598J1.5
N1099 G03X35.368Y1.826I-57.723J-76.708
N1100 G02X31.107Y0.402I-2.761J1.174
N1101 G01X1.5Y17.496
N1102 G02X0.277Y21.353I1.5J2.598
N1103 X88.84Y95.711I123.435J-57.096
N1104 G03X103.712Y115.042I-5.128J19.331
N1105 G01Y172.257
N1106 G02X106.712Y175.257I3J0
N1107 G01X140.712
N1108 G02X143.712Y172.257I0J-3
N1109 LASER_OFF(0)
N1110 END:
