N10 EXTERN MACHINE_ON (INT)
N11 EXTERN MACHINE_OFF (INT)
N12 EXTERN LASER_ON (INT)
N13 EXTERN LASER_OFF (INT)
N14 EXTERN LASER_STARTP (INT)
N15 EXTERN ORIGEM (INT,INT)
N16 EXTERN TRANSF (INT,INT)
N17 ; CHAPA : 102X102X0.8 MATERIAL : Al99
N18 ; ORDEM : (Smartdeploy -> JOB000003)
N19 INIT_VAR
N20 SS0800
N21 MACHINE_ON(0)
N22 ;ORIGEM(102,102)
N23 ;TRANSF (PX,PY)
N24 G53G00Z95
N25 ;GOTOF "PZN"<<PZN
N26 PZN1:PZN="1";PECA=Pieza_prueba_Maxwell SUB_1 pz1
N27 TRANS X=1 Y=-0.743
N28 REPEAT SUB_1 END
N29 END_VAR
N30 G53G00Z95
N31 MACHINE_OFF(0)
N32 M30

N1000 ;PECA=Pieza_prueba_Maxwell
N1001 SUB_1:
N1002 SUB1_1:SUB="1_1"; (Pieza_prueba_Maxwell) pz1 Cont=1
N1003 G00Z40
N1004 G00X48.642Y69.606F130000
N1005 LASER_STARTP(1)
N1006 LASER_ON(6)
N1007 G01X48.207Y74.587
N1008 LASER_ON(1)
N1009 G02X50Y76.543I1.793J0.156
N1010 Y26.943I0J-24.8
N1011 Y76.543I0J24.8
N1012 LASER_OFF(0)
N1013 SUB1_2:SUB="1_2"; (Pieza_prueba_Maxwell) pz1 Cont=2
N1014 G00Z40
N1015 G01X67.678Y34.066F130000
N1016 LASER_STARTP(1)
N1017 LASER_ON(6)
N1018 G01X67.749Y33.995
N1019 LASER_ON(1)
N1020 G01X100Y1.743
N1021 LASER_OFF(0)
N1022 SUB1_3:SUB="1_3"; (Pieza_prueba_Maxwell) pz1 Cont=3
N1023 G00Z40
N1024 G01X100.2Y0F130000
N1025 LASER_STARTP(1)
N1026 LASER_ON(6)
N1027 G01Y1.743
N1028 LASER_ON(1)
N1029 G01Y91.743
N1030 G03X90Y101.943I-10.2J0
N1031 G01X-0.2
N1032 Y11.743
N1033 G03X10Y1.543I10.2J0
N1034 G01X100
N1035 LASER_OFF(0)
N1036 END:
