N10 EXTERN MACHINE_ON (INT)
N11 EXTERN MACHINE_OFF (INT)
N12 EXTERN LASER_ON (INT)
N13 EXTERN LASER_OFF (INT)
N14 EXTERN LASER_STARTP (INT)
N15 EXTERN ORIGEM (INT,INT)
N16 EXTERN TRANSF (INT,INT)
N17 ; CHAPA : 182X117X0.8 MATERIAL : Al99
N18 ; ORDEM : (Smartdeploy -> JOB000003)
N19 INIT_VAR
N20 SS0800
N21 MACHINE_ON(0)
N22 ;ORIGEM(182,117)
N23 ;TRANSF (PX,PY)
N24 G53G00Z95
N25 ;GOTOF "PZN"<<PZN
N26 PZN1:PZN="1";PECA=Pieza_prueba_Maxwell_2 SUB_1 pz1
N27 TRANS X=1 Y=1
N28 REPEAT SUB_1 END
N29 END_VAR
N30 G53G00Z95
N31 MACHINE_OFF(0)
N32 M30

N1000 ;PECA=Pieza_prueba_Maxwell_2
N1001 SUB_1:
N1002 SUB1_1:SUB="1_1"; (Pieza_prueba_Maxwell_2) pz1 Cont=1
N1003 G00Z40
N1004 G00X24.507Y27.709F130000
N1005 LASER_STARTP(1)
N1006 LASER_ON(6)
N1007 G01X23.257Y32.55
N1008 LASER_ON(1)
N1009 G02X25Y34.8I1.743J0.45
N1010 Y15.2I0J-9.8
N1011 Y34.8I0J9.8
N1012 LASER_OFF(0)
N1013 SUB1_2:SUB="1_2"; (Pieza_prueba_Maxwell_2) pz1 Cont=2
N1014 G00Z40
N1015 G01X89.507Y27.709F130000
N1016 LASER_STARTP(1)
N1017 LASER_ON(6)
N1018 G01X88.257Y32.55
N1019 LASER_ON(1)
N1020 G02X90Y34.8I1.743J0.45
N1021 Y15.2I0J-9.8
N1022 Y34.8I0J9.8
N1023 LASER_OFF(0)
N1024 SUB1_3:SUB="1_3"; (Pieza_prueba_Maxwell_2) pz1 Cont=3
N1025 G00Z40
N1026 ; START FLYING CUT MACRO
N1027 G01X48.427Y25.291F130000
N1028 LASER_STARTP(1)
N1029 LASER_ON(6)
N1030 G01Y25.391
N1031 LASER_ON(1)
N1032 G01Y54.301
N1033 LASER_OFF(0)
N1034 SUB1_4:SUB="1_4"; (Pieza_prueba_Maxwell_2) pz1 Cont=4
N1035 G00Z40
N1036 G01X48.427Y126.28F130000
N1037 LASER_STARTP(1)
N1038 LASER_ON(6)
N1039 G01Y126.38
N1040 LASER_ON(1)
N1041 G01Y155.291
N1042 LASER_OFF(0)
N1043 SUB1_5:SUB="1_5"; (Pieza_prueba_Maxwell_2) pz1 Cont=5
N1044 G00Z40
N1045 ; END FLYING CUT MACRO
N1046 ; START FLYING CUT MACRO
N1047 G01X68.027Y155.291F130000
N1048 LASER_STARTP(1)
N1049 LASER_ON(6)
N1050 G01Y155.191
N1051 LASER_ON(1)
N1052 G01Y126.28
N1053 LASER_OFF(0)
N1054 SUB1_6:SUB="1_6"; (Pieza_prueba_Maxwell_2) pz1 Cont=6
N1055 G00Z40
N1056 G01X68.027Y54.301F130000
N1057 LASER_STARTP(1)
N1058 LASER_ON(6)
N1059 G01Y54.201
N1060 LASER_ON(1)
N1061 G01Y25.291
N1062 ; END FLYING CUT MACRO
N1063 ; START FLYING CUT MACRO
N1064 LASER_ON(1)
N1065 G02Y25.191I-9.8J0
N1066 X48.427Y25.291I-9.799J0.1
N1067 LASER_OFF(0)
N1068 SUB1_7:SUB="1_7"; (Pieza_prueba_Maxwell_2) pz1 Cont=7
N1069 G00Z40
N1070 ; END FLYING CUT MACRO
N1071 ; START FLYING CUT MACRO
N1072 G01X48.427Y54.301F130000
N1073 LASER_STARTP(1)
N1074 LASER_ON(6)
N1075 G02X48.331Y54.327I9.8J35.99
N1076 LASER_ON(1)
N1077 G02X22.237Y80.491I9.896J35.964
N1078 LASER_OFF(0)
N1079 SUB1_8:SUB="1_8"; (Pieza_prueba_Maxwell_2) pz1 Cont=8
N1080 G00Z40
N1081 G01X22.237Y100.091F130000
N1082 LASER_STARTP(1)
N1083 LASER_ON(6)
N1084 G02X22.263Y100.187I35.99J-9.8
N1085 LASER_ON(1)
N1086 G02X48.427Y126.28I35.964J-9.896
N1087 LASER_OFF(0)
N1088 SUB1_9:SUB="1_9"; (Pieza_prueba_Maxwell_2) pz1 Cont=9
N1089 G00Z40
N1090 G01X68.027Y126.28F130000
N1091 LASER_STARTP(1)
N1092 LASER_ON(6)
N1093 G02X68.123Y126.254I-9.8J-35.989
N1094 LASER_ON(1)
N1095 G02X94.216Y100.091I-9.896J-35.963
N1096 LASER_OFF(0)
N1097 SUB1_10:SUB="1_10"; (Pieza_prueba_Maxwell_2) pz1 Cont=10
N1098 G00Z40
N1099 G01X94.216Y80.491F130000
N1100 LASER_STARTP(1)
N1101 LASER_ON(6)
N1102 G02X94.19Y80.395I-35.989J9.8
N1103 LASER_ON(1)
N1104 G02X68.027Y54.301I-35.963J9.896
N1105 LASER_OFF(0)
N1106 SUB1_11:SUB="1_11"; (Pieza_prueba_Maxwell_2) pz1 Cont=11
N1107 G00Z40
N1108 ; END FLYING CUT MACRO
N1109 ; START FLYING CUT MACRO
N1110 G01X68.027Y155.291F130000
N1111 LASER_STARTP(1)
N1112 LASER_ON(6)
N1113 G03Y155.391I-9.8J0
N1114 LASER_ON(1)
N1115 G03X48.427Y155.291I-9.799J-0.1
N1116 LASER_OFF(0)
N1117 SUB1_12:SUB="1_12"; (Pieza_prueba_Maxwell_2) pz1 Cont=12
N1118 G00Z40
N1119 ; END FLYING CUT MACRO
N1120 ; START FLYING CUT MACRO
N1121 G01X12.285Y100.091F130000
N1122 LASER_STARTP(1)
N1123 LASER_ON(6)
N1124 G01X12.385
N1125 LASER_ON(1)
N1126 G01X22.237
N1127 LASER_OFF(0)
N1128 SUB1_13:SUB="1_13"; (Pieza_prueba_Maxwell_2) pz1 Cont=13
N1129 G00Z40
N1130 G01X94.216Y100.091F130000
N1131 LASER_STARTP(1)
N1132 LASER_ON(6)
N1133 G01X94.316
N1134 LASER_ON(1)
N1135 G01X104.169
N1136 LASER_OFF(0)
N1137 SUB1_14:SUB="1_14"; (Pieza_prueba_Maxwell_2) pz1 Cont=14
N1138 G00Z40
N1139 ; END FLYING CUT MACRO
N1140 ; START FLYING CUT MACRO
N1141 G01X104.169Y80.491F130000
N1142 LASER_STARTP(1)
N1143 LASER_ON(6)
N1144 G01X104.069
N1145 LASER_ON(1)
N1146 G01X94.216
N1147 LASER_OFF(0)
N1148 SUB1_15:SUB="1_15"; (Pieza_prueba_Maxwell_2) pz1 Cont=15
N1149 G00Z40
N1150 G01X22.237Y80.491F130000
N1151 LASER_STARTP(1)
N1152 LASER_ON(6)
N1153 G01X22.137
N1154 LASER_ON(1)
N1155 G01X12.285
N1156 ; END FLYING CUT MACRO
N1157 ; START FLYING CUT MACRO
N1158 LASER_ON(1)
N1159 G01Y80.591
N1160 Y100.091
N1161 LASER_OFF(0)
N1162 SUB1_16:SUB="1_16"; (Pieza_prueba_Maxwell_2) pz1 Cont=16
N1163 G00Z40
N1164 ; END FLYING CUT MACRO
N1165 ; START FLYING CUT MACRO
N1166 G01X104.169Y100.091F130000
N1167 LASER_STARTP(1)
N1168 LASER_ON(6)
N1169 G01Y99.991
N1170 LASER_ON(1)
N1171 G01Y80.491
N1172 LASER_OFF(0)
N1173 SUB1_17:SUB="1_17"; (Pieza_prueba_Maxwell_2) pz1 Cont=17
N1174 G00Z40
N1175 ; END FLYING CUT MACRO
N1176 G01X89.507Y157.709F130000
N1177 LASER_STARTP(1)
N1178 LASER_ON(6)
N1179 G01X88.257Y162.55
N1180 LASER_ON(1)
N1181 G02X90Y164.8I1.743J0.45
N1182 Y145.2I0J-9.8
N1183 Y164.8I0J9.8
N1184 LASER_OFF(0)
N1185 SUB1_18:SUB="1_18"; (Pieza_prueba_Maxwell_2) pz1 Cont=18
N1186 G00Z40
N1187 G01X24.507Y157.709F130000
N1188 LASER_STARTP(1)
N1189 LASER_ON(6)
N1190 G01X23.257Y162.55
N1191 LASER_ON(1)
N1192 G02X25Y164.8I1.743J0.45
N1193 Y145.2I0J-9.8
N1194 Y164.8I0J9.8
N1195 LASER_OFF(0)
N1196 SUB1_19:SUB="1_19"; (Pieza_prueba_Maxwell_2) pz1 Cont=19
N1197 G00Z40
N1198 G01X3.221Y7.464F130000
N1199 LASER_STARTP(1)
N1200 LASER_ON(6)
N1201 G01X5.342Y5.342
N1202 LASER_ON(1)
N1203 G03X7.181Y7.181I0.92J0.92
N1204 G02X-0.2Y25I17.819J17.819
N1205 G01Y155
N1206 G02X25Y180.2I25.2J0
N1207 G01X90
N1208 G02X115.2Y155I0J-25.2
N1209 G01Y25
N1210 G02X90Y-0.2I-25.2J0
N1211 G01X25
N1212 G02X7.181Y7.181I0J25.2
N1213 LASER_OFF(0)
N1214 END:
