N10 EXTERN MACHINE_ON (INT)
N11 EXTERN MACHINE_OFF (INT)
N12 EXTERN LASER_ON (INT)
N13 EXTERN LASER_OFF (INT)
N14 EXTERN LASER_STARTP (INT)
N15 EXTERN ORIGEM (INT,INT)
N16 EXTERN TRANSF (INT,INT)
N17 ; CHAPA : 295X164X0.8 MATERIAL : Al99
N18 ; ORDEM : (Smartdeploy -> JOB000003)
N19 INIT_VAR
N20 SS0800
N21 MACHINE_ON(0)
N22 ;ORIGEM(295,164)
N23 ;TRANSF (PX,PY)
N24 G53G00Z95
N25 ;GOTOF "PZN"<<PZN
N26 PZN1:PZN="1";PECA=DXFPUNC0 SUB_1 pz1
N27 TRANS X=1 Y=1
N28 REPEAT SUB_1 END
N29 END_VAR
N30 G53G00Z95
N31 MACHINE_OFF(0)
N32 M30

N1000 ;PECA=DXFPUNC0
N1001 SUB_1:
N1002 SUB1_1:SUB="1_1"; (DXFPUNC0) pz1 Cont=1
N1003 G00Z40
N1004 G00X50.173Y25.4F130000
N1005 LASER_STARTP(1)
N1006 LASER_ON(6)
N1007 G01X49.278Y26.95
N1008 LASER_ON(1)
N1009 G02X50Y28.2I0.722J0.417
N1010 Y22.4I0J-2.9
N1011 Y28.2I0J2.9
N1012 LASER_OFF(0)
N1013 SUB1_2:SUB="1_2"; (DXFPUNC0) pz1 Cont=2
N1014 G00Z40
N1015 G01X39.173Y42.7F130000
N1016 LASER_STARTP(1)
N1017 LASER_ON(6)
N1018 G01X38.524Y43.825
N1019 LASER_ON(1)
N1020 G02X39Y44.65I0.476J0.275
N1021 Y40.55I0J-2.05
N1022 Y44.65I0J2.05
N1023 LASER_OFF(0)
N1024 SUB1_3:SUB="1_3"; (DXFPUNC0) pz1 Cont=3
N1025 G00Z40
N1026 G01X59.745Y49.072F130000
N1027 LASER_STARTP(1)
N1028 LASER_ON(6)
N1029 G01X59.095Y50.197
N1030 LASER_ON(1)
N1031 G02X59.571Y51.022I0.476J0.275
N1032 Y46.922I0J-2.05
N1033 Y51.022I0J2.05
N1034 LASER_OFF(0)
N1035 SUB1_4:SUB="1_4"; (DXFPUNC0) pz1 Cont=4
N1036 G00Z40
N1037 G01X53.209Y59.136F130000
N1038 LASER_STARTP(1)
N1039 LASER_ON(6)
N1040 G01X52.747Y59.936
N1041 LASER_ON(1)
N1042 G02X53.036Y60.436I0.289J0.167
N1043 Y57.636I0J-1.4
N1044 Y60.436I0J1.4
N1045 LASER_OFF(0)
N1046 SUB1_5:SUB="1_5"; (DXFPUNC0) pz1 Cont=5
N1047 G00Z40
N1048 G01X46.673Y69.2F130000
N1049 LASER_STARTP(1)
N1050 LASER_ON(6)
N1051 G01X46.024Y70.325
N1052 LASER_ON(1)
N1053 G02X46.5Y71.15I0.476J0.275
N1054 Y67.05I0J-2.05
N1055 Y71.15I0J2.05
N1056 LASER_OFF(0)
N1057 SUB1_6:SUB="1_6"; (DXFPUNC0) pz1 Cont=6
N1058 G00Z40
N1059 G01X60.485Y67.394F130000
N1060 LASER_STARTP(1)
N1061 LASER_ON(6)
N1062 G01X62.119Y64.878
N1063 LASER_ON(1)
N1064 G02X59.938Y63.462I-1.09J-0.708
N1065 G01X51.088Y77.091
N1066 G02X59.139Y82.319I4.026J2.614
N1067 G01X76.84Y55.063
N1068 G02X68.789Y49.834I-4.026J-2.615
N1069 G01X59.938Y63.462
N1070 LASER_OFF(0)
N1071 SUB1_7:SUB="1_7"; (DXFPUNC0) pz1 Cont=7
N1072 G00Z40
N1073 G01X39.173Y89.7F130000
N1074 LASER_STARTP(1)
N1075 LASER_ON(6)
N1076 G01X38.524Y90.825
N1077 LASER_ON(1)
N1078 G02X39Y91.65I0.476J0.275
N1079 Y87.55I0J-2.05
N1080 Y91.65I0J2.05
N1081 LASER_OFF(0)
N1082 SUB1_8:SUB="1_8"; (DXFPUNC0) pz1 Cont=8
N1083 G00Z40
N1084 G01X76.457Y95.31F130000
N1085 LASER_STARTP(1)
N1086 LASER_ON(6)
N1087 G01Y93.143
N1088 LASER_ON(1)
N1089 G03X77.65Y91.95I1.193J0
N1090 G01X84.1
N1091 Y98.05
N1092 X74.5
N1093 Y91.95
N1094 X77.65
N1095 LASER_OFF(0)
N1096 SUB1_9:SUB="1_9"; (DXFPUNC0) pz1 Cont=9
N1097 G00Z40
N1098 G01X114.887Y65.801F130000
N1099 LASER_STARTP(1)
N1100 LASER_ON(6)
N1101 G01X113.561Y64.476
N1102 LASER_ON(1)
N1103 G01X118.016Y68.93
N1104 G02X118.298Y68.648I0.141J-0.141
N1105 G01X113.561Y63.91
N1106 G02X113.278Y64.193I-0.142J0.141
N1107 G01X113.561Y64.476
N1108 LASER_OFF(0)
N1109 SUB1_10:SUB="1_10"; (DXFPUNC0) pz1 Cont=10
N1110 G00Z40
N1111 G01X77.673Y32.6F130000
N1112 LASER_STARTP(1)
N1113 LASER_ON(6)
N1114 G01X76.778Y34.15
N1115 LASER_ON(1)
N1116 G02X77.5Y35.4I0.722J0.417
N1117 Y29.6I0J-2.9
N1118 Y35.4I0J2.9
N1119 LASER_OFF(0)
N1120 SUB1_11:SUB="1_11"; (DXFPUNC0) pz1 Cont=11
N1121 G00Z40
N1122 G01X148.173Y106.6F130000
N1123 LASER_STARTP(1)
N1124 LASER_ON(6)
N1125 G01X147.668Y107.475
N1126 LASER_ON(1)
N1127 G02X148Y108.05I0.332J0.192
N1128 Y104.95I0J-1.55
N1129 Y108.05I0J1.55
N1130 LASER_OFF(0)
N1131 SUB1_12:SUB="1_12"; (DXFPUNC0) pz1 Cont=12
N1132 G00Z40
N1133 G01X148.758Y147.575F130000
N1134 LASER_STARTP(1)
N1135 LASER_ON(6)
N1136 G01Y149.45
N1137 LASER_ON(1)
N1138 G01Y143.15
N1139 G03X149.158I0.2J0
N1140 G01Y149.85
N1141 G03X148.758I-0.2J0
N1142 G01Y149.45
N1143 LASER_OFF(0)
N1144 SUB1_13:SUB="1_13"; (DXFPUNC0) pz1 Cont=13
N1145 G00Z40
N1146 G01X148.173Y186.6F130000
N1147 LASER_STARTP(1)
N1148 LASER_ON(6)
N1149 G01X147.668Y187.475
N1150 LASER_ON(1)
N1151 G02X148Y188.05I0.332J0.192
N1152 Y184.95I0J-1.55
N1153 Y188.05I0J1.55
N1154 LASER_OFF(0)
N1155 SUB1_14:SUB="1_14"; (DXFPUNC0) pz1 Cont=14
N1156 G00Z40
N1157 G01X114.604Y226.916F130000
N1158 LASER_STARTP(1)
N1159 LASER_ON(6)
N1160 G01X113.278Y228.242
N1161 LASER_ON(1)
N1162 G02X113.561Y228.524I0.141J0.141
N1163 G01X118.016Y224.07
N1164 G03X118.298Y224.352I0.141J0.141
N1165 G01X113.561Y229.09
N1166 G03X113.278Y228.807I-0.142J-0.141
N1167 G01X113.561Y228.524
N1168 LASER_OFF(0)
N1169 SUB1_15:SUB="1_15"; (DXFPUNC0) pz1 Cont=15
N1170 G00Z40
N1171 G01X78.107Y198.31F130000
N1172 LASER_STARTP(1)
N1173 LASER_ON(6)
N1174 G01Y196.143
N1175 LASER_ON(1)
N1176 G03X79.3Y194.95I1.193J0
N1177 G01X84.1
N1178 Y201.05
N1179 X74.5
N1180 Y194.95
N1181 X79.3
N1182 LASER_OFF(0)
N1183 SUB1_16:SUB="1_16"; (DXFPUNC0) pz1 Cont=16
N1184 G00Z40
N1185 G01X77.673Y260.6F130000
N1186 LASER_STARTP(1)
N1187 LASER_ON(6)
N1188 G01X76.778Y262.15
N1189 LASER_ON(1)
N1190 G02X77.5Y263.4I0.722J0.417
N1191 Y257.6I0J-2.9
N1192 Y263.4I0J2.9
N1193 LASER_OFF(0)
N1194 SUB1_17:SUB="1_17"; (DXFPUNC0) pz1 Cont=17
N1195 G00Z40
N1196 G01X50.173Y267.8F130000
N1197 LASER_STARTP(1)
N1198 LASER_ON(6)
N1199 G01X49.278Y269.35
N1200 LASER_ON(1)
N1201 G02X50Y270.6I0.722J0.417
N1202 Y264.8I0J-2.9
N1203 Y270.6I0J2.9
N1204 LASER_OFF(0)
N1205 SUB1_18:SUB="1_18"; (DXFPUNC0) pz1 Cont=18
N1206 G00Z40
N1207 G01X10.173Y214.7F130000
N1208 LASER_STARTP(1)
N1209 LASER_ON(6)
N1210 G01X9.885Y215.2
N1211 LASER_ON(1)
N1212 G02X10Y215.4I0.115J0.067
N1213 Y213.8I0J-0.8
N1214 Y215.4I0J0.8
N1215 LASER_OFF(0)
N1216 SUB1_19:SUB="1_19"; (DXFPUNC0) pz1 Cont=19
N1217 G00Z40
N1218 G01X10.173Y211.3F130000
N1219 LASER_STARTP(1)
N1220 LASER_ON(6)
N1221 G01X9.885Y211.8
N1222 LASER_ON(1)
N1223 G02X10Y212I0.115J0.067
N1224 Y210.4I0J-0.8
N1225 Y212I0J0.8
N1226 LASER_OFF(0)
N1227 SUB1_20:SUB="1_20"; (DXFPUNC0) pz1 Cont=20
N1228 G00Z40
N1229 G01X10.173Y207.9F130000
N1230 LASER_STARTP(1)
N1231 LASER_ON(6)
N1232 G01X9.885Y208.4
N1233 LASER_ON(1)
N1234 G02X10Y208.6I0.115J0.067
N1235 Y207I0J-0.8
N1236 Y208.6I0J0.8
N1237 LASER_OFF(0)
N1238 SUB1_21:SUB="1_21"; (DXFPUNC0) pz1 Cont=21
N1239 G00Z40
N1240 G01X10.173Y204.5F130000
N1241 LASER_STARTP(1)
N1242 LASER_ON(6)
N1243 G01X9.885Y205
N1244 LASER_ON(1)
N1245 G02X10Y205.2I0.115J0.067
N1246 Y203.6I0J-0.8
N1247 Y205.2I0J0.8
N1248 LASER_OFF(0)
N1249 SUB1_22:SUB="1_22"; (DXFPUNC0) pz1 Cont=22
N1250 G00Z40
N1251 G01X10.5Y-0.2F130000
N1252 LASER_STARTP(1)
N1253 LASER_ON(6)
N1254 G01X15.5
N1255 LASER_ON(1)
N1256 G01X32.2
N1257 Y10.5
N1258 X44.7
N1259 Y20.1
N1260 X56.583
N1261 X63.783Y27.3
N1262 X93.083
N1263 X152.7Y86.917
N1264 Y110.8
N1265 X162.2
N1266 Y182.2
N1267 X152.7
N1268 Y206.083
N1269 X93.083Y265.7
N1270 X63.783
N1271 X56.583Y272.9
N1272 X44.7
N1273 Y282.5
N1274 X32.2
N1275 Y293.2
N1276 X15.3
N1277 Y283.7
N1278 X2.3
N1279 Y272.9
N1280 X-0.2
N1281 Y222.3
N1282 X9.8
N1283 Y216.2
N1284 X-0.2
N1285 Y202.8
N1286 X9.8
N1287 Y196.7
N1288 X-0.2
N1289 Y95.8
N1290 X11.8
N1291 Y36.2
N1292 X-0.2
N1293 Y20.1
N1294 X2.3
N1295 Y9.3
N1296 X15.3
N1297 X15.3Y0
N1298 LASER_OFF(0)
N1299 END:
