N10 EXTERN MACHINE_ON (INT)
N11 EXTERN MACHINE_OFF (INT)
N12 EXTERN LASER_ON (INT)
N13 EXTERN LASER_OFF (INT)
N14 EXTERN LASER_STARTP (INT)
N15 EXTERN ORIGEM (INT,INT)
N16 EXTERN TRANSF (INT,INT)
N17 ; CHAPA : 227.3X89X0.8 MATERIAL : Al99
N18 ; ORDEM : (Smartdeploy -> JOB000003)
N19 INIT_VAR
N20 SS0800
N21 MACHINE_ON(0)
N22 ;ORIGEM(227.262,88.989)
N23 ;TRANSF (PX,PY)
N24 G53G00Z95
N25 ;GOTOF "PZN"<<PZN
N26 PZN1:PZN="1";PECA=DXFPART7 SUB_1 pz1
N27 TRANS X=1 Y=1
N28 REPEAT SUB_1 END
N29 END_VAR
N30 G53G00Z95
N31 MACHINE_OFF(0)
N32 M30

N1000 ;PECA=DXFPART7
N1001 SUB_1:
N1002 SUB1_1:SUB="1_1"; (DXFPART7) pz1 Cont=1
N1003 G00Z40
N1004 G00X28.005Y31.607F130000
N1005 LASER_STARTP(1)
N1006 LASER_ON(6)
N1007 G01X32.21Y34.312
N1008 LASER_ON(1)
N1009 G03X22.296Y46.203I-4.221J6.56
N1010 G02X-0.199Y115.224I99.694J70.669
N1011 G03X3.461Y146.603I2.188J15.648
N1012 G02X66.189Y225.588I118.529J-29.731
N1013 G01Y209.072
N1014 X74.742
N1015 X65.767Y200.094
N1016 G03X71.53Y185.084I6.222J-6.222
N1017 G01X77.189Y184.792
N1018 Y173.165
N1019 X65.189Y171.695
N1020 Y162.049
N1021 X77.189Y160.579
N1022 Y149.787
N1023 X58.986Y132.023
N1024 G03X64.968Y86.088I63.003J-15.151
N1025 G01X87.189Y44.922
N1026 Y32.672
N1027 X83.189
N1028 Y11.072
N1029 X87.189
N1030 Y-0.268
N1031 G02X32.175Y34.009I34.801J117.14
N1032 LASER_OFF(0)
N1033 END:
