N10 EXTERN MACHINE_ON (INT)
N11 EXTERN MACHINE_OFF (INT)
N12 EXTERN LASER_ON (INT)
N13 EXTERN LASER_OFF (INT)
N14 EXTERN LASER_STARTP (INT)
N15 EXTERN ORIGEM (INT,INT)
N16 EXTERN TRANSF (INT,INT)
N17 ; CHAPA : 205.3X177.3X0.8 MATERIAL : Al99
N18 ; ORDEM : (Smartdeploy -> JOB000003)
N19 INIT_VAR
N20 SS0800
N21 MACHINE_ON(0)
N22 ;ORIGEM(205.333,177.257)
N23 ;TRANSF (PX,PY)
N24 G53G00Z95
N25 ;GOTOF "PZN"<<PZN
N26 PZN1:PZN="1";PECA=DXFPAR0105 SUB_1 pz1
N27 TRANS X=1 Y=1
N28 REPEAT SUB_1 END
N29 END_VAR
N30 G53G00Z95
N31 MACHINE_OFF(0)
N32 M30

N1000 ;PECA=DXFPAR0105
N1001 SUB_1:
N1002 SUB1_1:SUB="1_1"; (DXFPAR0105) pz1 Cont=1
N1003 G00Z40
N1004 G00X41.87Y41.115F130000
N1005 LASER_STARTP(1)
N1006 LASER_ON(6)
N1007 G01X39.63Y39.119
N1008 LASER_ON(1)
N1009 G02X37.9Y41.06I-0.865J0.971
N1010 G03X60.126Y68.362I-73.643J82.652
N1011 G02X69.306Y63.062I4.59J-2.65
N1012 X24.907Y18.663I-105.049J60.65
N1013 X19.607Y27.843I-2.65J4.59
N1014 G03X37.9Y41.06I-55.35J95.869
N1015 LASER_OFF(0)
N1016 SUB1_2:SUB="1_2"; (DXFPAR0105) pz1 Cont=2
N1017 G00Z40
N1018 G01X103.93Y113.812F130000
N1019 LASER_STARTP(1)
N1020 LASER_ON(6)
N1021 G01X102.631Y116.062
N1022 LASER_ON(1)
N1023 G02X103.757Y118.012I1.126J0.65
N1024 Y109.412I0J-4.3
N1025 Y118.012I0J4.3
N1026 LASER_OFF(0)
N1027 SUB1_3:SUB="1_3"; (DXFPAR0105) pz1 Cont=3
N1028 G00Z40
N1029 G01X103.93Y133.812F130000
N1030 LASER_STARTP(1)
N1031 LASER_ON(6)
N1032 G01X102.631Y136.062
N1033 LASER_ON(1)
N1034 G02X103.757Y138.012I1.126J0.65
N1035 Y129.412I0J-4.3
N1036 Y138.012I0J4.3
N1037 LASER_OFF(0)
N1038 SUB1_4:SUB="1_4"; (DXFPAR0105) pz1 Cont=4
N1039 G00Z40
N1040 G01X124.93Y133.812F130000
N1041 LASER_STARTP(1)
N1042 LASER_ON(6)
N1043 G01X123.631Y136.062
N1044 LASER_ON(1)
N1045 G02X124.757Y138.012I1.126J0.65
N1046 Y129.412I0J-4.3
N1047 Y138.012I0J4.3
N1048 LASER_OFF(0)
N1049 SUB1_5:SUB="1_5"; (DXFPAR0105) pz1 Cont=5
N1050 G00Z40
N1051 G01X124.93Y113.812F130000
N1052 LASER_STARTP(1)
N1053 LASER_ON(6)
N1054 G01X123.631Y116.062
N1055 LASER_ON(1)
N1056 G02X124.757Y118.012I1.126J0.65
N1057 Y109.412I0J-4.3
N1058 Y118.012I0J4.3
N1059 LASER_OFF(0)
N1060 SUB1_6:SUB="1_6"; (DXFPAR0105) pz1 Cont=6
N1061 G00Z40
N1062 G01X160.43Y113.812F130000
N1063 LASER_STARTP(1)
N1064 LASER_ON(6)
N1065 G01X159.131Y116.062
N1066 LASER_ON(1)
N1067 G02X160.257Y118.012I1.126J0.65
N1068 Y109.412I0J-4.3
N1069 Y118.012I0J4.3
N1070 LASER_OFF(0)
N1071 SUB1_7:SUB="1_7"; (DXFPAR0105) pz1 Cont=7
N1072 G00Z40
N1073 G01X160.43Y133.812F130000
N1074 LASER_STARTP(1)
N1075 LASER_ON(6)
N1076 G01X159.131Y136.062
N1077 LASER_ON(1)
N1078 G02X160.257Y138.012I1.126J0.65
N1079 Y129.412I0J-4.3
N1080 Y138.012I0J4.3
N1081 LASER_OFF(0)
N1082 SUB1_8:SUB="1_8"; (DXFPAR0105) pz1 Cont=8
N1083 G00Z40
N1084 G01X74.594Y149.628F130000
N1085 LASER_STARTP(1)
N1086 LASER_ON(6)
N1087 G01X75.203Y146.69
N1088 LASER_ON(1)
N1089 G02X72.657Y146.163I-1.273J-0.264
N1090 G03X60.126Y179.062I-108.4J-22.451
N1091 G02X69.306Y184.362I4.59J2.65
N1092 X85.557Y123.712I-105.049J-60.65
N1093 X74.957I-5.3J0
N1094 G03X72.657Y146.163I-110.7J0
N1095 LASER_OFF(0)
N1096 SUB1_9:SUB="1_9"; (DXFPAR0105) pz1 Cont=9
N1097 G00Z40
N1098 G01X102.198Y95.538F130000
N1099 LASER_STARTP(1)
N1100 LASER_ON(6)
N1101 G01X100.575Y93.015
N1102 LASER_ON(1)
N1103 G02X98.388Y94.421I-1.093J0.703
N1104 X115.042Y103.512I16.654J-10.709
N1105 G01X172.257
N1106 G03X175.457Y106.712I0J3.2
N1107 G01Y140.712
N1108 G03X172.257Y143.912I-3.2J0
N1109 G01X115.042
N1110 G02X95.904Y158.635I0J19.8
N1111 G03X75.584Y202.176I-131.647J-34.923
N1112 X71.369Y203.104I-2.615J-1.843
N1113 G01X41.762Y186.01
N1114 G03X40.805Y181.315I1.6J-2.771
N1115 G02X1.748Y35.552I-76.548J-57.603
N1116 G03X0.229Y31.007I1.252J-2.945
N1117 G01X17.322Y1.4
N1118 G03X21.437Y0.096I2.772J1.6
N1119 X95.904Y88.789I-57.18J123.616
N1120 G02X98.388Y94.421I19.138J-5.077
N1121 LASER_OFF(0)
N1122 END:
