N10 EXTERN MACHINE_ON (INT)
N11 EXTERN MACHINE_OFF (INT)
N12 EXTERN LASER_ON (INT)
N13 EXTERN LASER_OFF (INT)
N14 EXTERN LASER_STARTP (INT)
N15 EXTERN ORIGEM (INT,INT)
N16 EXTERN TRANSF (INT,INT)
N17 ; CHAPA : 225.3X87X0.8 MATERIAL : Al99
N18 ; ORDEM : (Smartdeploy -> JOB000003)
N19 INIT_VAR
N20 MACHINE_ON()
N21 ;ORIGEM(225.262,86.989)
N22 ;TRANSF (PX,PY)
N23 G53G00Z95
N24 ;GOTOF "PZ"<<PZ
N25 PZ1:PZ="1";PECA=DXFPART7 SUB_1 pz1
N26 TRANS X=0 Y=0
N27 REPEAT SUB_1 END
N28 END_VAR
N29 G53G00Z95
N30 MACHINE_OFF()
N31 M30

N1000 ;PECA=DXFPART7
N1001 SUB_1:
N1002 SUB1_1:SUB="1_1"; (DXFPART7) pz1 Cont=1
N1003 G00Z40
N1004 G00X33.125Y30.596F280000
N1005 LASER_STARTP(1)
N1006 LASER_ON(6)
N1007 G01X34.207Y32.277
N1008 LASER_ON(1)
N1009 G02X46.399Y22.31I6.665J-4.288
N1010 G03X115.081Y-0.072I70.473J99.68
N1011 G02X146.713Y3.618I15.791J2.061
N1012 G03X225.383Y66.064I-29.841J118.372
N1013 G01X208.947
N1014 Y74.441
N1015 X200.183Y65.679
N1016 G02X184.959Y71.524I-6.311J6.31
N1017 G01X184.673Y77.064
N1018 X173.275
N1019 X171.805Y65.064
N1020 X161.938
N1021 X160.468Y77.064
N1022 X149.84
N1023 X132.088Y58.873
N1024 G02X86.029Y64.858I-15.216J63.116
N1025 G01X44.891Y87.064
N1026 X32.797
N1027 Y83.064
N1028 X10.947
N1029 Y87.064
N1030 X-0.101
N1031 G03X34.093Y32.267I116.973J34.926
N1032 LASER_OFF(0)
N1033 END:
