N10 EXTERN MACHINE_ON (INT)
N11 EXTERN MACHINE_OFF (INT)
N12 EXTERN LASER_ON (INT)
N13 EXTERN LASER_OFF (INT)
N14 EXTERN LASER_STARTP (INT)
N15 EXTERN ORIGEM (INT,INT)
N16 EXTERN TRANSF (INT,INT)
N17 ; CHAPA : 293X162X0.8 MATERIAL : Al99
N18 ; ORDEM : (Smartdeploy -> JOB000003)
N19 INIT_VAR
N20 MACHINE_ON()
N21 ;ORIGEM(293,162)
N22 ;TRANSF (PX,PY)
N23 G53G00Z95
N24 ;GOTOF "PZ"<<PZ
N25 PZ1:PZ="1";PECA=DXFPUNC0 SUB_1 pz1
N26 TRANS X=0 Y=0
N27 REPEAT SUB_1 END
N28 END_VAR
N29 G53G00Z95
N30 MACHINE_OFF()
N31 M30

N1000 ;PECA=DXFPUNC0
N1001 SUB_1:
N1002 SUB1_1:SUB="1_1"; (DXFPUNC0) pz1 Cont=1
N1003 G00Z40
N1004 G00X204.4Y10.075F280000
N1005 LASER_STARTP(1)
N1006 LASER_ON(6)
N1007 G01X205.322
N1008 LASER_ON(1)
N1009 G03X203.475Y10I-0.922J-0.075
N1010 X205.325I0.925J0
N1011 LASER_OFF(0)
N1012 SUB1_2:SUB="1_2"; (DXFPUNC0) pz1 Cont=2
N1013 G00Z40
N1014 G01X207.8Y10.075F280000
N1015 LASER_STARTP(1)
N1016 LASER_ON(6)
N1017 G01X208.722
N1018 LASER_ON(1)
N1019 G03X206.875Y10I-0.922J-0.075
N1020 X208.725I0.925J0
N1021 LASER_OFF(0)
N1022 SUB1_3:SUB="1_3"; (DXFPUNC0) pz1 Cont=3
N1023 G00Z40
N1024 G01X211.2Y10.075F280000
N1025 LASER_STARTP(1)
N1026 LASER_ON(6)
N1027 G01X212.122
N1028 LASER_ON(1)
N1029 G03X210.275Y10I-0.922J-0.075
N1030 X212.125I0.925J0
N1031 LASER_OFF(0)
N1032 SUB1_4:SUB="1_4"; (DXFPUNC0) pz1 Cont=4
N1033 G00Z40
N1034 G01X214.6Y10.075F280000
N1035 LASER_STARTP(1)
N1036 LASER_ON(6)
N1037 G01X215.522
N1038 LASER_ON(1)
N1039 G03X213.675Y10I-0.922J-0.075
N1040 X215.525I0.925J0
N1041 LASER_OFF(0)
N1042 SUB1_5:SUB="1_5"; (DXFPUNC0) pz1 Cont=5
N1043 G00Z40
N1044 G01X89.85Y39.075F280000
N1045 LASER_STARTP(1)
N1046 LASER_ON(6)
N1047 G01X91.774
N1048 LASER_ON(1)
N1049 G03X87.425Y39I-2.174J-0.075
N1050 X91.775I2.175J0
N1051 LASER_OFF(0)
N1052 SUB1_6:SUB="1_6"; (DXFPUNC0) pz1 Cont=6
N1053 G00Z40
N1054 G01X42.85Y39.075F280000
N1055 LASER_STARTP(1)
N1056 LASER_ON(6)
N1057 G01X44.774
N1058 LASER_ON(1)
N1059 G03X40.425Y39I-2.174J-0.075
N1060 X44.775I2.175J0
N1061 LASER_OFF(0)
N1062 SUB1_7:SUB="1_7"; (DXFPUNC0) pz1 Cont=7
N1063 G00Z40
N1064 G01X69.35Y46.575F280000
N1065 LASER_STARTP(1)
N1066 LASER_ON(6)
N1067 G01X71.274
N1068 LASER_ON(1)
N1069 G03X66.925Y46.5I-2.174J-0.075
N1070 X71.275I2.175J0
N1071 LASER_OFF(0)
N1072 SUB1_8:SUB="1_8"; (DXFPUNC0) pz1 Cont=8
N1073 G00Z40
N1074 G01X268.8Y50.075F280000
N1075 LASER_STARTP(1)
N1076 LASER_ON(6)
N1077 G01X270.724
N1078 LASER_ON(1)
N1079 G03X264.675Y50I-3.024J-0.075
N1080 X270.725I3.025J0
N1081 LASER_OFF(0)
N1082 SUB1_9:SUB="1_9"; (DXFPUNC0) pz1 Cont=9
N1083 G00Z40
N1084 G01X26.4Y50.075F280000
N1085 LASER_STARTP(1)
N1086 LASER_ON(6)
N1087 G01X28.324
N1088 LASER_ON(1)
N1089 G03X22.275Y50I-3.024J-0.075
N1090 X28.325I3.025J0
N1091 LASER_OFF(0)
N1092 SUB1_10:SUB="1_10"; (DXFPUNC0) pz1 Cont=10
N1093 G00Z40
N1094 G01X64.506Y61.407F280000
N1095 LASER_STARTP(1)
N1096 LASER_ON(6)
N1097 G01X63.457Y59.793
N1098 LASER_ON(1)
N1099 G01X77.023Y50.983
N1100 G03X82.387Y59.244I2.682J4.131
N1101 G01X55.131Y76.945
N1102 G03X49.766Y68.684I-2.683J-4.131
N1103 G01X63.394Y59.834
N1104 LASER_OFF(0)
N1105 SUB1_11:SUB="1_11"; (DXFPUNC0) pz1 Cont=11
N1106 G00Z40
N1107 G01X59.036Y53.111F280000
N1108 LASER_STARTP(1)
N1109 LASER_ON(6)
N1110 G01X60.559
N1111 LASER_ON(1)
N1112 G03X57.511Y53.036I-1.523J-0.075
N1113 X60.561I1.525J0
N1114 LASER_OFF(0)
N1115 SUB1_12:SUB="1_12"; (DXFPUNC0) pz1 Cont=12
N1116 G00Z40
N1117 G01X49.222Y59.646F280000
N1118 LASER_STARTP(1)
N1119 LASER_ON(6)
N1120 G01X51.146
N1121 LASER_ON(1)
N1122 G03X46.797Y59.571I-2.174J-0.075
N1123 X51.147I2.175J0
N1124 LASER_OFF(0)
N1125 SUB1_13:SUB="1_13"; (DXFPUNC0) pz1 Cont=13
N1126 G00Z40
N1127 G01X261.6Y77.575F280000
N1128 LASER_STARTP(1)
N1129 LASER_ON(6)
N1130 G01X263.524
N1131 LASER_ON(1)
N1132 G03X257.475Y77.5I-3.024J-0.075
N1133 X263.525I3.025J0
N1134 LASER_OFF(0)
N1135 SUB1_14:SUB="1_14"; (DXFPUNC0) pz1 Cont=14
N1136 G00Z40
N1137 ; START FLYING CUT MACRO
N1138 G01X91.825Y74.375F280000
N1139 LASER_STARTP(1)
N1140 LASER_ON(6)
N1141 G01X91.925
N1142 LASER_ON(1)
N1143 G01X98.175
N1144 LASER_OFF(0)
N1145 SUB1_15:SUB="1_15"; (DXFPUNC0) pz1 Cont=15
N1146 G00Z40
N1147 G01X194.825Y74.375F280000
N1148 LASER_STARTP(1)
N1149 LASER_ON(6)
N1150 G01X194.925
N1151 LASER_ON(1)
N1152 G01X201.175
N1153 LASER_OFF(0)
N1154 SUB1_16:SUB="1_16"; (DXFPUNC0) pz1 Cont=16
N1155 G00Z40
N1156 ; END FLYING CUT MACRO
N1157 ; START FLYING CUT MACRO
N1158 G01X201.175Y84.225F280000
N1159 LASER_STARTP(1)
N1160 LASER_ON(6)
N1161 G01X201.075
N1162 LASER_ON(1)
N1163 G01X194.825
N1164 LASER_OFF(0)
N1165 SUB1_17:SUB="1_17"; (DXFPUNC0) pz1 Cont=17
N1166 G00Z40
N1167 G01X98.175Y84.225F280000
N1168 LASER_STARTP(1)
N1169 LASER_ON(6)
N1170 G01X98.075
N1171 LASER_ON(1)
N1172 G01X91.825
N1173 ; END FLYING CUT MACRO
N1174 ; START FLYING CUT MACRO
N1175 LASER_ON(1)
N1176 G01Y84.125
N1177 Y74.375
N1178 LASER_OFF(0)
N1179 SUB1_18:SUB="1_18"; (DXFPUNC0) pz1 Cont=18
N1180 G00Z40
N1181 ; END FLYING CUT MACRO
N1182 ; START FLYING CUT MACRO
N1183 G01X98.175Y74.375F280000
N1184 LASER_STARTP(1)
N1185 LASER_ON(6)
N1186 G01Y74.475
N1187 LASER_ON(1)
N1188 G01Y84.225
N1189 LASER_OFF(0)
N1190 SUB1_19:SUB="1_19"; (DXFPUNC0) pz1 Cont=19
N1191 G00Z40
N1192 ; END FLYING CUT MACRO
N1193 ; START FLYING CUT MACRO
N1194 G01X194.825Y84.225F280000
N1195 LASER_STARTP(1)
N1196 LASER_ON(6)
N1197 G01Y84.125
N1198 LASER_ON(1)
N1199 G01Y74.375
N1200 LASER_OFF(0)
N1201 SUB1_20:SUB="1_20"; (DXFPUNC0) pz1 Cont=20
N1202 G00Z40
N1203 ; END FLYING CUT MACRO
N1204 ; START FLYING CUT MACRO
N1205 G01X201.175Y74.375F280000
N1206 LASER_STARTP(1)
N1207 LASER_ON(6)
N1208 G01Y74.475
N1209 LASER_ON(1)
N1210 G01Y84.225
N1211 LASER_OFF(0)
N1212 SUB1_21:SUB="1_21"; (DXFPUNC0) pz1 Cont=21
N1213 G00Z40
N1214 ; END FLYING CUT MACRO
N1215 G01X33.6Y77.575F280000
N1216 LASER_STARTP(1)
N1217 LASER_ON(6)
N1218 G01X35.524
N1219 LASER_ON(1)
N1220 G03X29.475Y77.5I-3.024J-0.075
N1221 X35.525I3.025J0
N1222 LASER_OFF(0)
N1223 SUB1_22:SUB="1_22"; (DXFPUNC0) pz1 Cont=22
N1224 G00Z40
N1225 G01X66.473Y115.841F280000
N1226 LASER_STARTP(1)
N1227 LASER_ON(6)
N1228 G01X66.703Y115.611
N1229 LASER_ON(1)
N1230 G01X69.019Y117.927
N1231 G03X68.559Y118.387I-0.23J0.23
N1232 G01X63.822Y113.649
N1233 G03X64.281Y113.19I0.229J-0.23
N1234 G01X66.65Y115.558
N1235 LASER_OFF(0)
N1236 SUB1_23:SUB="1_23"; (DXFPUNC0) pz1 Cont=23
N1237 G00Z40
N1238 G01X226.527Y115.841F280000
N1239 LASER_STARTP(1)
N1240 LASER_ON(6)
N1241 G01X226.297Y115.611
N1242 LASER_ON(1)
N1243 G01X223.981Y117.927
N1244 G02X224.441Y118.387I0.23J0.23
N1245 G01X229.178Y113.649
N1246 G02X228.719Y113.19I-0.229J-0.23
N1247 G01X226.35Y115.558
N1248 LASER_OFF(0)
N1249 SUB1_24:SUB="1_24"; (DXFPUNC0) pz1 Cont=24
N1250 G00Z40
N1251 G01X186.5Y148.075F280000
N1252 LASER_STARTP(1)
N1253 LASER_ON(6)
N1254 G01X188.173
N1255 LASER_ON(1)
N1256 G03X184.825Y148I-1.673J-0.075
N1257 X188.175I1.675J0
N1258 LASER_OFF(0)
N1259 SUB1_25:SUB="1_25"; (DXFPUNC0) pz1 Cont=25
N1260 G00Z40
N1261 G01X106.5Y148.075F280000
N1262 LASER_STARTP(1)
N1263 LASER_ON(6)
N1264 G01X108.173
N1265 LASER_ON(1)
N1266 G03X104.825Y148I-1.673J-0.075
N1267 X108.175I1.675J0
N1268 LASER_OFF(0)
N1269 SUB1_26:SUB="1_26"; (DXFPUNC0) pz1 Cont=26
N1270 G00Z40
N1271 G01X146.425Y148.958F280000
N1272 LASER_STARTP(1)
N1273 LASER_ON(6)
N1274 G01Y148.633
N1275 LASER_ON(1)
N1276 G01X143.15
N1277 G02Y149.283I0J0.325
N1278 G01X149.85
N1279 G02Y148.633I0J-0.325
N1280 G01X146.5
N1281 LASER_OFF(0)
N1282 SUB1_27:SUB="1_27"; (DXFPUNC0) pz1 Cont=27
N1283 G00Z40
N1284 G01X9.425Y0.5F280000
N1285 LASER_STARTP(1)
N1286 LASER_ON(6)
N1287 G01Y2.5
N1288 LASER_ON(1)
N1289 G01Y15.425
N1290 X-0.075
N1291 Y32.075
N1292 X10.625
N1293 Y44.575
N1294 X20.225
N1295 Y56.531
N1296 X27.425Y63.731
N1297 Y93.031
N1298 X86.969Y152.575
N1299 X110.925
N1300 Y162.075
N1301 X182.075
N1302 Y152.575
N1303 X206.031
N1304 X265.575Y93.031
N1305 Y63.731
N1306 X272.775Y56.531
N1307 Y44.575
N1308 X282.375
N1309 Y32.075
N1310 X293.075
N1311 Y15.425
N1312 X283.575
N1313 Y2.425
N1314 X272.775
N1315 Y-0.075
N1316 X222.425
N1317 Y9.925
N1318 X216.075
N1319 Y-0.075
N1320 X202.925
N1321 Y9.925
N1322 X196.575
N1323 Y-0.075
N1324 X95.925
N1325 Y11.925
N1326 X36.075
N1327 Y-0.075
N1328 X20.225
N1329 Y2.425
N1330 X9.5
N1331 LASER_OFF(0)
N1332 END:
